; generated by PrusaSlicer 2.5.0+win64 on 2022-09-24 at 05:32:02 UTC

; 

; external perimeters extrusion width = 0.45mm
; perimeters extrusion width = 0.45mm
; infill extrusion width = 0.45mm
; solid infill extrusion width = 0.45mm
; top infill extrusion width = 0.40mm
; first layer extrusion width = 0.42mm

M107
;TYPE:Custom
M107 ;start with the fan off
M140 S65 ; Set Heat Bed temperature
M190 S65 ; Wait for Heat Bed temperature
M117 Pre-heating the extruder!
M104 S165; start warming extruder to 165
G21 ;metric values
G90 ;absolute positioning
M82 ;set extruder to absolute mode

G28 ; Home all axes
;G28 X0 Y0 ;move X/Y to min endstops
;G28 Z0 ;move Z to min endstops
;G29 ; Auto bed-level (BL-Touch)
M420 S1; restore mesh
G92 E0 ; Reset Extruder
M117 Getting the extruder up to temp!
M104 S196 ; Set Extruder temperature
M109 S196 ; Wait for Extruder temperature
M117 Purge me!
G0 X0 Y15 F9000 ; Go to front
G0 Z0.15 ; Drop to bed
G92 E0 ; zero the extruded length
G1 X40 E25 F500 ; Extrude 25mm of filament in a 4cm line
G92 E0 ; zero the extruded length
G1 E-1 F500 ; Retract a little
G1 X80 F4000 ; Quickly wipe away from the filament line
G1 Z0.3 ; Raise and begin printing
M117 Go baby go!
G21 ; set units to millimeters
G90 ; use absolute coordinates
M82 ; use absolute distances for extrusion
G92 E0
; Filament gcode
M107
;LAYER_CHANGE
;Z:0.3
;HEIGHT:0.3
G1 Z.3 F6000
G1 E-4.5 F2400
G92 E0
G1 X95.907 Y73.794 F6000
G1 E4.5 F2400
;TYPE:Skirt/Brim
;WIDTH:0.42
G1 F1200
G1 X96.654 Y72.905 E4.55149
G1 X97.33 Y72.337 E4.59067
G1 X98.209 Y71.816 E4.63598
G1 X99.3 Y71.419 E4.6875
G1 X100.759 Y71.233 E4.75271
G1 X199.683 Y71.252 E9.14048
G1 X200.7 Y71.419 E9.18618
G1 X201.791 Y71.816 E9.23769
G1 X202.556 Y72.257 E9.27686
G1 X203.346 Y72.905 E9.32218
G1 X204.093 Y73.794 E9.37367
G1 X209.976 Y85.256 E9.9451
G1 X210.431 Y86.465 E10.00243
G1 X210.601 Y87.524 E10.04999
G1 X210.617 Y213.88 E15.65449
G1 X210.518 Y214.874 E15.69878
G1 X208.555 Y224.694 E16.14297
G1 X207.781 Y226.542 E16.23182
G1 X206.352 Y227.945 E16.32068
G1 X203.586 Y228.767 E16.44865
G1 X96.414 Y228.767 E21.20225
G1 X94.45 Y228.371 E21.29111
G1 X92.793 Y227.245 E21.37997
G1 X91.446 Y224.694 E21.50793
G1 X89.482 Y214.874 E21.95211
G1 X89.383 Y213.88 E21.9964
G1 X89.383 Y87.929 E27.58296
G1 X89.539 Y86.59 E27.64275
G1 X89.874 Y85.579 E27.68996
G1 X95.88 Y73.848 E28.27455
G1 X96.194 Y74.008 F6000
G1 F1200
G1 X96.905 Y73.156 E28.32378
G1 X97.534 Y72.628 E28.3602
G1 X98.359 Y72.138 E28.40276
G1 X99.392 Y71.762 E28.45153
G1 X100.759 Y71.589 E28.51263
G1 X199.652 Y71.607 E32.89903
G1 X200.608 Y71.762 E32.94198
G1 X201.641 Y72.138 E32.99074
G1 X202.352 Y72.549 E33.02716
G1 X203.095 Y73.156 E33.06972
G1 X203.801 Y73.998 E33.11847
G1 X209.659 Y85.417 E33.68769
G1 X210.085 Y86.55 E33.74139
G1 X210.246 Y87.553 E33.78643
G1 X210.261 Y213.88 E39.38967
G1 X210.17 Y214.804 E39.43086
G1 X208.206 Y224.624 E39.87504
G1 X207.447 Y226.4 E39.96069
G1 X206.04 Y227.722 E40.04634
G1 X203.586 Y228.411 E40.15938
G1 X96.414 Y228.411 E44.91298
G1 X94.524 Y228.015 E44.99863
G1 X92.951 Y226.895 E45.08428
G1 X91.794 Y224.624 E45.19733
G1 X89.83 Y214.804 E45.64151
G1 X89.739 Y213.88 E45.68269
G1 X89.739 Y87.929 E51.26924
G1 X89.884 Y86.674 E51.32526
G1 X90.201 Y85.718 E51.36995
G1 X96.166 Y74.061 E51.95073
G1 X96.48 Y74.222 F6000
G1 F1200
G1 X97.157 Y73.408 E51.9977
G1 X97.738 Y72.92 E52.03137
G1 X98.509 Y72.46 E52.07119
G1 X99.484 Y72.106 E52.1172
G1 X100.759 Y71.944 E52.17418
G1 X199.621 Y71.961 E56.55921
G1 X200.516 Y72.106 E56.59941
G1 X201.491 Y72.46 E56.64542
G1 X202.148 Y72.84 E56.67909
G1 X202.843 Y73.408 E56.71891
G1 X203.51 Y74.202 E56.7649
G1 X209.342 Y85.578 E57.33191
G1 X209.74 Y86.634 E57.38199
G1 X209.892 Y87.581 E57.42451
G1 X209.906 Y213.88 E63.02649
G1 X209.821 Y214.734 E63.06456
G1 X207.857 Y224.554 E63.50874
G1 X207.114 Y226.255 E63.59106
G1 X205.73 Y227.491 E63.67338
G1 X203.586 Y228.056 E63.77171
G1 X96.414 Y228.056 E68.52531
G1 X94.601 Y227.66 E68.60763
G1 X93.117 Y226.546 E68.68995
G1 X92.143 Y224.554 E68.78827
G1 X90.179 Y214.734 E69.23246
G1 X90.094 Y213.88 E69.27053
G1 X90.094 Y87.929 E74.85708
G1 X90.23 Y86.759 E74.90933
G1 X90.658 Y85.578 E74.96504
G1 X96.452 Y74.275 E75.52839
G1 E71.02839 F2400
G92 E0
G1 X204.399 Y105.211 F6000
G1 E4.5 F2400
;TYPE:Perimeter
;WIDTH:0.451194
G1 F1200
G1 X204.449 Y105.134 E4.50443
;WIDTH:0.482389
G1 X204.538 Y104.994 E4.51308
G1 X204.544 Y104.896 E4.51818
;WIDTH:0.476572
G1 X204.544 Y90.235 E5.27193
;WIDTH:0.512721
G1 X204.493 Y89.763 E5.29847
G1 X204.352 Y89.512 E5.31452
;WIDTH:0.46636
G1 X204.212 Y89.262 E5.32891
;WIDTH:0.42
G1 X203.805 Y88.83 E5.35525
G1 X203.267 Y88.556 E5.38203
G1 X197.108 Y86.698 E5.66737
G1 X196.629 Y86.53 E5.6899
G1 X196.526 Y86.37 E5.69833
G1 X196.516 Y77.182 E6.10588
G1 X196.578 Y76.955 E6.11628
G1 X196.828 Y76.866 E6.12807
G1 X199.263 Y76.878 E6.23608
G1 X199.39 Y76.946 E6.24245
G1 X199.484 Y77.179 E6.25362
G1 X199.484 Y77.838 E6.28284
G1 X198.854 Y77.884 E6.31086
G1 X198.291 Y78.123 E6.33802
G1 X197.843 Y78.541 E6.36515
G1 X197.566 Y79.085 E6.39223
G1 X197.484 Y79.59 E6.41493
G1 X197.484 Y84.192 E6.61906
G1 X197.554 Y84.663 E6.64018
G1 X197.788 Y85.165 E6.66473
G1 X197.915 Y85.327 E6.67387
G1 X198.309 Y85.672 E6.69709
G1 X198.733 Y85.871 E6.71787
G1 X204.716 Y87.677 E6.99506
G1 X204.921 Y87.776 E7.00516
G1 X204.984 Y88.038 E7.01714
G1 X204.984 Y89.073 E7.06304
;WIDTH:0.46636
G1 X204.961 Y89.4 E7.07947
;WIDTH:0.512721
G1 X204.938 Y89.727 E7.09779
G1 X204.956 Y90.235 E7.12621
;WIDTH:0.476572
G1 X204.956 Y104.896 E7.87997
;WIDTH:0.482389
G1 X204.969 Y105.281 E7.90004
;WIDTH:0.451194
G1 X204.984 Y105.532 E7.91219
;WIDTH:0.42
G1 X204.984 Y213.824 E12.71545
G1 X203.122 Y223.134 E13.13658
G1 X192.237 Y223.134 E13.61939
G1 X186.124 Y217.021 E14.00288
G1 X185.346 Y216.276 E14.05062
G1 X185.096 Y216.214 E14.06204
G1 X115.282 Y216.214 E17.15863
G1 X114.726 Y216.245 E17.18334
G1 X114.527 Y216.371 E17.19378
G1 X107.763 Y223.134 E17.61805
G1 X96.878 Y223.134 E18.10086
G1 X95.016 Y213.824 E18.52199
G1 X95.016 Y105.532 E23.32526
;WIDTH:0.448286
G1 X95.03 Y105.214 E23.3405
;WIDTH:0.476572
G1 X95.044 Y104.896 E23.35687
G1 X95.044 Y90.235 E24.11062
;WIDTH:0.512715
G1 X95.062 Y89.727 E24.13904
G1 X95.039 Y89.4 E24.15737
;WIDTH:0.466357
G1 X95.016 Y89.073 E24.1738
;WIDTH:0.42
G1 X95.016 Y88.038 E24.21969
G1 X95.056 Y87.825 E24.22934
G1 X95.152 Y87.717 E24.23573
G1 X101.267 Y85.871 E24.51906
G1 X101.829 Y85.575 E24.54725
G1 X102.212 Y85.165 E24.57213
G1 X102.446 Y84.662 E24.5967
G1 X102.516 Y84.192 E24.6178
G1 X102.516 Y79.59 E24.82193
G1 X102.434 Y79.085 E24.84463
G1 X102.157 Y78.541 E24.87171
G1 X101.709 Y78.123 E24.89883
G1 X101.146 Y77.884 E24.92601
G1 X100.519 Y77.839 E24.95389
G1 X100.526 Y77.146 E24.98463
G1 X100.583 Y76.968 E24.99293
G1 X100.712 Y76.878 E24.9999
G1 X103.125 Y76.866 E25.10689
G1 X103.382 Y76.921 E25.11856
G1 X103.484 Y77.133 E25.12901
G1 X103.484 Y86.236 E25.53276
G1 X103.442 Y86.458 E25.54277
G1 X103.267 Y86.596 E25.55266
G1 X96.734 Y88.556 E25.85519
G1 X96.171 Y88.852 E25.88342
G1 X95.788 Y89.262 E25.9083
;WIDTH:0.466357
G1 X95.648 Y89.512 E25.9227
;WIDTH:0.512715
G1 X95.507 Y89.763 E25.93875
G1 X95.456 Y90.235 E25.96529
;WIDTH:0.476572
G1 X95.456 Y104.896 E26.71904
;WIDTH:0.48239
G1 X95.462 Y104.994 E26.72414
G1 X95.551 Y105.134 E26.73279
;WIDTH:0.451195
G1 X95.641 Y105.273 E26.7408
;WIDTH:0.42
G1 X114.82 Y124.453 E27.94387
G1 X115.492 Y125.088 E27.98488
G1 X115.734 Y125.146 E27.9959
G1 X183.754 Y125.146 E31.01293
G1 X184.429 Y125.12 E31.04289
G1 X184.643 Y124.989 E31.05402
G1 X204.359 Y105.273 E32.29075
;WIDTH:0.451194
G1 X204.367 Y105.261 E32.29143
G1 X204.108 Y105.022 F6000
;TYPE:External perimeter
;WIDTH:0.42
G1 F1200
G1 X204.16 Y104.896 E32.29747
G1 X204.16 Y90.235 E32.94777
G1 X204.096 Y89.828 E32.96605
G1 X203.897 Y89.426 E32.98594
G1 X203.582 Y89.107 E33.00583
G1 X203.164 Y88.896 E33.02656
G1 X196.501 Y86.886 E33.33526
G1 X196.281 Y86.705 E33.3479
G1 X196.171 Y86.442 E33.36054
G1 X196.16 Y77.125 E33.77379
G1 X196.247 Y76.817 E33.78799
G1 X196.451 Y76.598 E33.80126
G1 X196.783 Y76.51 E33.81649
G1 X199.265 Y76.522 E33.92659
G1 X199.536 Y76.59 E33.93896
G1 X199.754 Y76.807 E33.95263
G1 X199.84 Y77.133 E33.96758
G1 X199.84 Y78.05 E34.00823
G1 X199.752 Y78.186 E34.01542
G1 X199.031 Y78.208 E34.04741
G1 X198.573 Y78.365 E34.06893
G1 X198.191 Y78.671 E34.09063
G1 X197.937 Y79.089 E34.11232
G1 X197.84 Y79.59 E34.13494
G1 X197.84 Y84.192 E34.33906
G1 X197.904 Y84.599 E34.35734
G1 X198.103 Y85.001 E34.37722
G1 X198.418 Y85.32 E34.39712
G1 X198.836 Y85.53 E34.41785
G1 X204.579 Y87.264 E34.68397
G1 X205.077 Y87.443 E34.70743
G1 X205.266 Y87.644 E34.71966
G1 X205.34 Y88.038 E34.73746
G1 X205.34 Y213.859 E40.31822
G1 X203.414 Y223.49 E40.75384
G1 X192.09 Y223.49 E41.25612
G1 X185.222 Y216.622 E41.68693
G1 X185.096 Y216.57 E41.69296
G1 X114.936 Y216.57 E44.80488
G1 X114.778 Y216.622 E44.81227
G1 X107.91 Y223.49 E45.24308
G1 X96.586 Y223.49 E45.74535
G1 X94.66 Y213.859 E46.18098
G1 X94.66 Y88.038 E51.76174
G1 X94.706 Y87.761 E51.7742
G1 X94.794 Y87.564 E51.7838
G1 X94.994 Y87.393 E51.79547
G1 X101.164 Y85.53 E52.08134
G1 X101.535 Y85.352 E52.0996
G1 X101.838 Y85.071 E52.11791
G1 X102.078 Y84.652 E52.13932
G1 X102.16 Y84.192 E52.16007
G1 X102.16 Y79.59 E52.36419
G1 X102.084 Y79.147 E52.38412
G1 X101.849 Y78.718 E52.4058
G1 X101.481 Y78.396 E52.4275
G1 X100.968 Y78.208 E52.45172
G1 X100.229 Y78.167 E52.48454
G1 X100.16 Y78.065 E52.49003
G1 X100.172 Y77.006 E52.53698
G1 X100.261 Y76.817 E52.54626
G1 X100.391 Y76.648 E52.55568
G1 X100.649 Y76.523 E52.56842
G1 X103.123 Y76.511 E52.67815
G1 X103.549 Y76.598 E52.69747
G1 X103.693 Y76.718 E52.70577
G1 X103.778 Y76.901 E52.71474
G1 X103.84 Y77.118 E52.72472
G1 X103.84 Y86.236 E53.12916
G1 X103.767 Y86.627 E53.14678
G1 X103.58 Y86.839 E53.15934
G1 X103.396 Y86.928 E53.16841
G1 X96.836 Y88.896 E53.47219
G1 X96.465 Y89.075 E53.49047
G1 X96.137 Y89.381 E53.51036
G1 X95.922 Y89.774 E53.53026
G1 X95.84 Y90.235 E53.551
G1 X95.84 Y104.896 E54.2013
G1 X95.892 Y105.022 E54.20734
G1 X115.608 Y124.738 E55.44407
G1 X115.734 Y124.79 E55.4501
G1 X184.266 Y124.79 E58.48984
G1 X184.392 Y124.738 E58.49588
G1 X204.065 Y105.064 E59.72994
G1 X204.244 Y105.022 F6000
G1 E55.22994 F2400
G92 E0
G1 X195.002 Y132.818 F6000
G1 E4.5 F2400
;TYPE:Perimeter
G1 F1200
G1 X194.961 Y132.333 E4.52159
G1 X195.039 Y131.76 E4.54724
G1 X195.137 Y131.425 E4.56274
G1 X195.341 Y131.008 E4.58334
G1 X195.614 Y130.632 E4.60395
G1 X195.948 Y130.309 E4.62455
G1 X196.333 Y130.049 E4.64515
G1 X196.757 Y129.86 E4.66576
G1 X197.208 Y129.748 E4.68636
G1 X197.609 Y129.719 E4.70421
G1 X198.133 Y129.764 E4.72752
G1 X198.58 Y129.892 E4.74814
G1 X198.997 Y130.096 E4.76874
G1 X199.373 Y130.369 E4.78935
G1 X199.696 Y130.703 E4.80995
G1 X199.956 Y131.088 E4.83056
G1 X200.145 Y131.512 E4.85116
G1 X200.257 Y131.963 E4.87176
G1 X200.289 Y132.426 E4.89237
G1 X200.241 Y132.888 E4.91297
G1 X200.113 Y133.335 E4.93357
G1 X199.909 Y133.753 E4.95418
G1 X199.636 Y134.128 E4.97478
G1 X199.347 Y134.408 E4.99263
G1 X198.917 Y134.711 E5.01594
G1 X198.493 Y134.9 E5.03656
G1 X198.042 Y135.012 E5.05716
G1 X197.534 Y135.041 E5.07971
G1 X197.116 Y134.996 E5.09835
G1 X196.67 Y134.868 E5.11895
G1 X196.252 Y134.664 E5.13956
G1 X195.877 Y134.391 E5.16016
G1 X195.554 Y134.057 E5.18077
G1 X195.259 Y133.597 E5.205
G1 X195.091 Y133.196 E5.22428
G1 X195.016 Y132.877 E5.23884
G1 X195.345 Y132.74 F6000
;TYPE:External perimeter
G1 F1200
G1 X195.315 Y132.364 E5.25555
G1 X195.382 Y131.852 E5.27845
G1 X195.459 Y131.575 E5.29121
G1 X195.632 Y131.211 E5.30907
G1 X195.865 Y130.883 E5.32693
G1 X196.152 Y130.6 E5.3448
G1 X196.483 Y130.372 E5.36266
G1 X196.849 Y130.204 E5.38052
G1 X197.239 Y130.102 E5.39838
G1 X197.586 Y130.074 E5.41382
G1 X198.041 Y130.107 E5.43406
G1 X198.43 Y130.214 E5.45194
G1 X198.794 Y130.387 E5.4698
G1 X199.122 Y130.62 E5.48766
G1 X199.405 Y130.907 E5.50552
G1 X199.633 Y131.238 E5.52338
G1 X199.801 Y131.604 E5.54125
G1 X199.903 Y131.994 E5.55911
G1 X199.935 Y132.395 E5.57697
G1 X199.897 Y132.796 E5.59483
G1 X199.791 Y133.185 E5.61269
G1 X199.618 Y133.549 E5.63056
G1 X199.385 Y133.877 E5.64842
G1 X199.137 Y134.121 E5.66386
G1 X198.767 Y134.388 E5.6841
G1 X198.401 Y134.556 E5.70197
G1 X198.011 Y134.658 E5.71984
G1 X197.559 Y134.686 E5.73993
G1 X197.209 Y134.652 E5.75553
G1 X196.82 Y134.546 E5.77339
G1 X196.456 Y134.373 E5.79126
G1 X196.128 Y134.14 E5.80912
G1 X195.845 Y133.853 E5.82698
G1 X195.582 Y133.447 E5.84847
G1 X195.435 Y133.104 E5.86501
G1 X195.359 Y132.798 E5.87897
G1 X194.993 Y132.606 F6000
G1 E1.37897 F2400
G92 E0
G1 X182.775 Y130.762 F6000
G1 E4.5 F2400
;TYPE:Perimeter
G1 F1200
G1 X183.056 Y131.163 E4.52171
G1 X183.248 Y131.64 E4.54451
G1 X183.333 Y131.94 E4.55834
G1 X183.369 Y132.427 E4.57999
G1 X183.316 Y132.889 E4.60063
G1 X183.178 Y133.335 E4.62135
G1 X183.009 Y133.678 E4.63829
G1 X182.751 Y134.032 E4.65773
G1 X182.479 Y134.295 E4.67453
G1 X182.072 Y134.581 E4.69657
G1 X181.671 Y134.759 E4.71603
G1 X181.246 Y134.864 E4.73548
G1 X180.809 Y134.894 E4.75492
G1 X180.373 Y134.848 E4.77436
G1 X179.951 Y134.727 E4.79381
G1 X179.557 Y134.534 E4.81325
G1 X179.203 Y134.276 E4.8327
G1 X178.899 Y133.961 E4.85214
G1 X178.654 Y133.597 E4.87159
G1 X178.476 Y133.196 E4.89103
G1 X178.371 Y132.771 E4.91047
G1 X178.341 Y132.334 E4.92992
G1 X178.387 Y131.898 E4.94936
G1 X178.508 Y131.476 E4.9688
G1 X178.701 Y131.083 E4.98825
G1 X178.959 Y130.728 E5.00769
G1 X179.274 Y130.424 E5.02714
G1 X179.638 Y130.179 E5.04658
G1 X180.039 Y130.001 E5.06603
G1 X180.464 Y129.896 E5.08547
G1 X180.842 Y129.869 E5.10227
G1 X181.337 Y129.912 E5.12431
G1 X181.759 Y130.033 E5.14377
G1 X182.152 Y130.226 E5.16322
G1 X182.507 Y130.484 E5.18266
G1 X182.733 Y130.719 E5.19714
G1 X182.52 Y131.003 F6000
;TYPE:External perimeter
G1 F1200
G1 X182.734 Y131.313 E5.21384
G1 X182.907 Y131.739 E5.23423
G1 X182.983 Y132.003 E5.24643
G1 X183.015 Y132.396 E5.26388
G1 X182.973 Y132.797 E5.28178
G1 X182.856 Y133.185 E5.29975
G1 X182.718 Y133.474 E5.31394
G1 X182.5 Y133.78 E5.33064
G1 X182.269 Y134.008 E5.34503
G1 X181.922 Y134.258 E5.364
G1 X181.579 Y134.415 E5.38072
G1 X181.215 Y134.51 E5.39742
G1 X180.84 Y134.54 E5.41413
G1 X180.465 Y134.505 E5.43083
G1 X180.102 Y134.405 E5.44753
G1 X179.761 Y134.243 E5.46423
G1 X179.455 Y134.025 E5.48093
G1 X179.19 Y133.757 E5.49764
G1 X178.976 Y133.447 E5.51434
G1 X178.82 Y133.104 E5.53104
G1 X178.725 Y132.74 E5.54774
G1 X178.695 Y132.365 E5.56445
G1 X178.73 Y131.99 E5.58115
G1 X178.83 Y131.627 E5.59785
G1 X178.992 Y131.286 E5.61455
G1 X179.21 Y130.98 E5.63125
G1 X179.478 Y130.715 E5.64796
G1 X179.788 Y130.501 E5.66466
G1 X180.131 Y130.345 E5.68136
G1 X180.495 Y130.25 E5.69806
G1 X180.819 Y130.224 E5.71245
G1 X181.245 Y130.255 E5.73142
G1 X181.608 Y130.355 E5.74814
G1 X181.949 Y130.517 E5.76484
G1 X182.255 Y130.735 E5.78154
G1 X182.478 Y130.961 E5.79559
G1 X182.891 Y130.941 F6000
G1 E1.29559 F2400
G92 E0
G1 X160.311 Y201.725 F6000
G1 E4.5 F2400
;TYPE:Perimeter
G1 F1200
G1 X160.232 Y201.746 E4.50361
G1 X139.768 Y201.746 E5.4113
G1 X139.503 Y201.675 E5.42347
G1 X139.307 Y201.481 E5.43572
G1 X139.234 Y201.212 E5.44805
G1 X139.234 Y140.148 E8.15654
G1 X139.307 Y139.879 E8.16887
G1 X139.503 Y139.685 E8.18112
G1 X139.768 Y139.614 E8.19328
G1 X160.232 Y139.614 E9.10098
G1 X160.497 Y139.685 E9.11314
G1 X160.693 Y139.879 E9.12539
G1 X160.756 Y140.046 E9.13329
G1 X160.766 Y201.212 E11.84629
G1 X160.693 Y201.481 E11.85862
G1 X160.497 Y201.675 E11.87087
G1 X160.369 Y201.709 E11.87676
G1 X160.232 Y201.39 F6000
;TYPE:External perimeter
G1 F1200
G1 X139.768 Y201.39 E12.78446
G1 X139.627 Y201.321 E12.79139
G1 X139.59 Y201.212 E12.7965
G1 X139.59 Y140.148 E15.505
G1 X139.652 Y140.013 E15.51158
G1 X139.768 Y139.97 E15.51706
G1 X160.232 Y139.97 E16.42476
G1 X160.373 Y140.039 E16.43169
G1 X160.407 Y140.114 E16.43535
G1 X160.41 Y201.212 E19.14535
G1 X160.348 Y201.347 E19.15194
G1 X160.288 Y201.369 E19.15476
G1 X160.129 Y201.776 F6000
G1 E14.65476 F2400
G92 E0
G1 X167.256 Y201.291 F6000
G1 E4.5 F2400
;TYPE:Perimeter
G1 F1200
G1 X167.234 Y201.212 E4.50362
