; generated by PrusaSlicer 2.5.0+win64 on 2022-09-25 at 15:23:04 UTC


;
;

;
;
; 

; external perimeters extrusion width = 0.45mm
; perimeters extrusion width = 0.45mm
; infill extrusion width = 0.45mm
; solid infill extrusion width = 0.45mm
; top infill extrusion width = 0.40mm
; first layer extrusion width = 0.42mm

M73 P0 R75
M201 X2500 Y2500 Z400 E5000 ; sets maximum accelerations, mm/sec^2
M203 X180 Y180 Z12 E80 ; sets maximum feedrates, mm / sec
M204 P1250 R1250 T2500 ; sets acceleration (P, T) and retract acceleration (R), mm/sec^2
M205 X8.00 Y8.00 Z2.00 E10.00 ; sets the jerk limits, mm/sec
M205 S0 T0 ; sets the minimum extruding and travel feed rate, mm/sec
M107
;TYPE:Custom
M862.3 P "MINI" ; printer model check
G90 ; use absolute coordinates
M83 ; extruder relative mode
M104 S170 ; set extruder temp for bed leveling
M140 S60 ; set bed temp
M109 R170 ; wait for bed leveling temp
M190 S60 ; wait for bed temp
M204 T1250 ; set travel acceleration
G28 ; home all without mesh bed level
G29 ; mesh bed leveling 
M204 T2500 ; restore travel acceleration
M104 S215 ; set extruder temp
G92 E0
G1 Y-2 X179 F2400
G1 Z3 F720
M109 S215 ; wait for extruder temp

; intro line
G1 X170 F1000
G1 Z0.2 F720
G1 X110 E8 F900
G1 X40 E10 F700
G92 E0

M221 S95 ; set flow
G21 ; set units to millimeters
G90 ; use absolute coordinates
M83 ; use relative distances for extrusion
M900 K0.2 ; Filament gcode LA 1.5
; ; Filament gcode LA 1.0
M107
;LAYER_CHANGE
;Z:0.2
;HEIGHT:0.2
;BEFORE_LAYER_CHANGE
G92 E0.0
;0.2


G1 E-3.2 F4200
G1 Z.2 F720
;AFTER_LAYER_CHANGE
;0.2
G1 Z.4
G1 X76.99 Y76.717 F9000
G1 Z.2 F720
G1 E3.2 F2400
M204 P800
;TYPE:Skirt/Brim
;WIDTH:0.42
G1 F1200
G1 X77.615 Y76.089 E.02778
G1 X80.441 Y73.787 E.11427
G1 X82.06 Y72.936 E.05734
G1 X83.587 Y72.3 E.05186
G1 X84.874 Y71.886 E.04239
G1 X86.997 Y71.416 E.06818
G1 X88.795 Y71.22 E.05672
G1 X90.665 Y71.188 E.05863
G1 X92.883 Y71.399 E.06987
G1 X94.242 Y71.664 E.04342
G1 X96.498 Y72.336 E.0738
G1 X98.517 Y73.214 E.06904
G1 X99.99 Y74.082 E.05361
G1 X102.326 Y76.035 E.09546
G1 X103.91 Y77.615 E.07014
G1 X106.212 Y80.44 E.11426
G1 X107.063 Y82.059 E.05735
G1 X107.699 Y83.586 E.05187
G1 X108.113 Y84.873 E.04239
G1 X108.583 Y86.997 E.06818
G1 X108.778 Y88.795 E.05673
G1 X108.811 Y90.665 E.05863
G1 X108.599 Y92.883 E.06987
G1 X108.335 Y94.243 E.04342
G1 X107.663 Y96.498 E.0738
G1 X106.785 Y98.518 E.06904
G1 X105.917 Y99.991 E.05361
G1 X103.965 Y102.325 E.09542
G1 X102.385 Y103.911 E.07019
G1 X99.559 Y106.213 E.11427
G1 X97.94 Y107.064 E.05734
G1 X96.413 Y107.7 E.05187
G1 X95.126 Y108.114 E.04239
G1 X93.004 Y108.584 E.06817
G1 X91.205 Y108.78 E.05673
G1 X89.335 Y108.812 E.05862
G1 X87.117 Y108.601 E.06987
G1 X85.758 Y108.336 E.04342
G1 X83.502 Y107.665 E.0738
G1 X81.483 Y106.786 E.06904
G1 X80.01 Y105.918 E.05361
G1 X77.675 Y103.966 E.09541
G1 X76.09 Y102.385 E.0702
G1 X73.788 Y99.56 E.11426
G1 X72.937 Y97.941 E.05734
G1 X72.301 Y96.413 E.05188
G1 X71.887 Y95.127 E.04239
G1 X71.417 Y93.003 E.06818
G1 X71.222 Y91.205 E.05672
G1 X71.189 Y89.335 E.05863
G1 X71.401 Y87.117 E.06988
G1 X71.665 Y85.757 E.04342
G1 X72.337 Y83.502 E.0738
G1 X73.215 Y81.483 E.06904
G1 X74.083 Y80.009 E.05361
G1 X76.035 Y77.675 E.09541
G1 X76.947 Y76.759 E.04053
M204 P1000
G1 X77.214 Y77.025 F9000
M204 P800
G1 F1200
G1 X77.873 Y76.364 E.02926
G1 X80.623 Y74.117 E.11136
G1 X82.223 Y73.276 E.05667
G1 X83.723 Y72.652 E.05094
G1 X84.967 Y72.251 E.04098
G1 X87.066 Y71.787 E.06741
G1 X88.818 Y71.597 E.05527
G1 X90.641 Y71.564 E.05716
G1 X92.835 Y71.773 E.06911
G1 X94.147 Y72.029 E.04191
G1 X96.359 Y72.686 E.07235
G1 X98.355 Y73.555 E.06826
G1 X99.748 Y74.372 E.05064
G1 X102.076 Y76.318 E.09513
G1 X103.635 Y77.872 E.06903
G1 X105.882 Y80.623 E.11136
G1 X106.723 Y82.223 E.05667
G1 X107.347 Y83.723 E.05094
G1 X107.748 Y84.966 E.04097
G1 X108.212 Y87.066 E.06741
G1 X108.402 Y88.818 E.05527
G1 X108.435 Y90.641 E.05716
G1 X108.225 Y92.835 E.06911
G1 X107.97 Y94.147 E.04191
G1 X107.313 Y96.359 E.07235
G1 X106.444 Y98.356 E.06826
G1 X105.627 Y99.749 E.05064
G1 X103.682 Y102.076 E.09509
G1 X102.127 Y103.636 E.06907
G1 X99.377 Y105.883 E.11136
G1 X97.777 Y106.724 E.05667
G1 X96.277 Y107.348 E.05094
G1 X95.033 Y107.749 E.04097
G1 X92.934 Y108.213 E.0674
G1 X91.182 Y108.403 E.05528
G1 X89.359 Y108.436 E.05716
G1 X87.165 Y108.227 E.06911
G1 X85.853 Y107.971 E.04191
G1 X83.641 Y107.314 E.07235
G1 X81.645 Y106.445 E.06826
G1 X80.251 Y105.628 E.05064
G1 X77.925 Y103.683 E.09508
G1 X76.365 Y102.128 E.06907
G1 X74.118 Y99.377 E.11136
G1 X73.277 Y97.777 E.05666
G1 X72.653 Y96.277 E.05095
G1 X72.252 Y95.034 E.04097
G1 X71.788 Y92.934 E.06742
G1 X71.598 Y91.182 E.05527
G1 X71.565 Y89.359 E.05716
G1 X71.775 Y87.165 E.06912
G1 X72.03 Y85.853 E.04191
G1 X72.687 Y83.641 E.07235
G1 X73.556 Y81.644 E.06826
G1 X74.373 Y80.251 E.05064
G1 X76.318 Y77.924 E.09509
G1 X77.172 Y77.068 E.03793
M204 P1000
; printing object 28_Rose-stem.stl id:0 copy 0
G1 E-2.24 F4200
;WIPE_START
G1 F7200
G1 X77.873 Y76.364 E-.55034
G1 X78.378 Y75.951 E-.36166
;WIPE_END
G1 E-.048 F4200
G1 Z.4 F720
G1 X76.98 Y82.39 F9000
G1 Z.2 F720
G1 E3.2 F2400
M204 P800
;TYPE:Perimeter
;WIDTH:0.419999
G1 F1200
G1 X77.474 Y81.596 E.02931
G1 X78.044 Y80.802 E.03065
G1 X78.665 Y80.047 E.03067
G1 X79.334 Y79.333 E.03067
G1 X80.047 Y78.664 E.03065
G1 X80.859 Y78.001 E.03287
G1 X81.598 Y77.472 E.02848
G1 X82.644 Y76.819 E.03867
G1 X83.244 Y76.469 E.02179
G1 X84.085 Y76.08 E.02907
G1 X84.958 Y75.74 E.02935
G1 X85.949 Y75.43 E.03257
G1 X86.759 Y75.226 E.02619
G1 X87.674 Y75.055 E.02918
G1 X88.598 Y74.94 E.0292
G1 X89.528 Y74.883 E.0292
G1 X90.558 Y74.888 E.03232
G1 X91.4 Y74.94 E.02645
G1 X92.331 Y75.056 E.02941
G1 X93.255 Y75.23 E.02947
G1 X94.161 Y75.46 E.02933
G1 X95.053 Y75.745 E.02934
G1 X95.924 Y76.084 E.02931
G1 X96.601 Y76.398 E.02341
G1 X97.12 Y76.663 E.01826
G1 X98.403 Y77.473 E.04757
G1 X99.197 Y78.043 E.03065
G1 X99.952 Y78.664 E.03067
G1 X100.666 Y79.333 E.03067
G1 X101.334 Y80.047 E.03064
G1 X101.998 Y80.859 E.03288
G1 X102.527 Y81.597 E.02848
G1 X103.18 Y82.643 E.03867
G1 X103.53 Y83.243 E.02179
G1 X103.919 Y84.085 E.02907
G1 X104.259 Y84.957 E.02935
G1 X104.569 Y85.949 E.03256
G1 X104.773 Y86.759 E.0262
G1 X104.944 Y87.672 E.02914
G1 X105.089 Y89.092 E.04474
G1 X105.117 Y90.465 E.04306
G1 X105.059 Y91.4 E.02939
G1 X104.943 Y92.331 E.02941
G1 X104.769 Y93.255 E.02947
G1 X104.539 Y94.162 E.02933
G1 X104.254 Y95.053 E.02934
G1 X103.915 Y95.924 E.02931
G1 X103.601 Y96.602 E.0234
G1 X103.336 Y97.12 E.01826
G1 X102.526 Y98.404 E.04758
G1 X101.956 Y99.198 E.03065
G1 X101.335 Y99.952 E.03064
G1 X100.615 Y100.715 E.03289
G1 X99.952 Y101.336 E.02849
G1 X99.196 Y101.957 E.03068
G1 X98.402 Y102.528 E.03067
G1 X97.356 Y103.181 E.03866
G1 X96.757 Y103.53 E.02173
G1 X95.809 Y103.963 E.03268
G1 X95.041 Y104.26 E.02582
G1 X94.148 Y104.545 E.02939
G1 X93.241 Y104.774 E.02934
G1 X92.327 Y104.945 E.02913
G1 X91.313 Y105.066 E.03203
G1 X90.471 Y105.118 E.02646
G1 X89.535 Y105.118 E.02933
G1 X88.6 Y105.06 E.02939
G1 X87.669 Y104.944 E.02941
G1 X86.745 Y104.77 E.02947
G1 X85.839 Y104.54 E.02933
G1 X84.947 Y104.255 E.02934
G1 X84.076 Y103.916 E.02931
G1 X83.399 Y103.602 E.02341
G1 X82.88 Y103.337 E.01826
G1 X81.597 Y102.527 E.04757
G1 X80.803 Y101.957 E.03065
G1 X80.048 Y101.336 E.03064
G1 X79.286 Y100.616 E.03289
G1 X78.665 Y99.953 E.02848
G1 X78.044 Y99.197 E.03068
G1 X77.473 Y98.403 E.03067
G1 X76.82 Y97.356 E.03867
G1 X76.471 Y96.758 E.02173
G1 X76.038 Y95.809 E.03269
G1 X75.741 Y95.041 E.02582
G1 X75.456 Y94.148 E.0294
G1 X75.227 Y93.241 E.02934
G1 X75.056 Y92.327 E.02914
G1 X74.936 Y91.313 E.03203
G1 X74.884 Y90.471 E.02646
G1 X74.883 Y89.535 E.02933
G1 X74.941 Y88.599 E.02939
G1 X75.057 Y87.669 E.02941
G1 X75.231 Y86.745 E.02947
G1 X75.461 Y85.838 E.02933
G1 X75.746 Y84.947 E.02934
G1 X76.085 Y84.076 E.02931
G1 X76.399 Y83.398 E.02341
G1 X76.664 Y82.88 E.01827
G1 X76.948 Y82.441 E.01639
M204 P1000
G1 X76.775 Y82.006 F9000
M204 P800
;TYPE:External perimeter
G1 F1200
G1 X77.16 Y81.387 E.02288
G1 X77.745 Y80.572 E.03143
G1 X78.382 Y79.798 E.03144
G1 X79.067 Y79.066 E.03144
G1 X79.799 Y78.381 E.03143
G1 X80.63 Y77.702 E.03365
G1 X81.388 Y77.159 E.02923
G1 X82.449 Y76.496 E.03922
G1 X83.069 Y76.134 E.02252
G1 X83.938 Y75.732 E.03
G1 X84.833 Y75.384 E.03012
G1 X85.847 Y75.067 E.03331
G1 X86.679 Y74.858 E.02689
G1 X87.616 Y74.682 E.02991
G1 X88.564 Y74.565 E.02993
G1 X89.517 Y74.505 E.02996
G1 X90.571 Y74.511 E.03305
G1 X91.435 Y74.565 E.02715
G1 X92.389 Y74.683 E.03015
G1 X93.336 Y74.862 E.0302
G1 X94.265 Y75.097 E.03005
G1 X95.179 Y75.389 E.03006
G1 X96.071 Y75.737 E.03004
G1 X96.76 Y76.055 E.02378
G1 X97.298 Y76.331 E.01896
G1 X98.613 Y77.159 E.04872
G1 X99.427 Y77.744 E.03143
G1 X100.201 Y78.381 E.03144
G1 X100.933 Y79.067 E.03144
G1 X101.618 Y79.798 E.03143
G1 X102.297 Y80.629 E.03365
G1 X102.84 Y81.387 E.02923
G1 X103.503 Y82.449 E.03922
G1 X103.865 Y83.069 E.02252
G1 X104.266 Y83.937 E.03
G1 X104.615 Y84.833 E.03012
G1 X104.932 Y85.846 E.0333
G1 X105.141 Y86.678 E.0269
G1 X105.317 Y87.615 E.0299
G1 X105.466 Y89.069 E.0458
G1 X105.494 Y90.477 E.04415
G1 X105.434 Y91.435 E.03012
G1 X105.315 Y92.39 E.03015
G1 X105.137 Y93.336 E.03021
G1 X104.902 Y94.266 E.03006
G1 X104.61 Y95.179 E.03006
G1 X104.262 Y96.072 E.03005
G1 X103.944 Y96.76 E.02377
G1 X103.668 Y97.299 E.01896
G1 X102.84 Y98.613 E.04872
G1 X102.255 Y99.428 E.03143
G1 X101.618 Y100.202 E.03143
G1 X100.881 Y100.982 E.03365
G1 X100.201 Y101.62 E.02923
G1 X99.426 Y102.256 E.03144
G1 X98.612 Y102.841 E.03144
G1 X97.551 Y103.504 E.03922
G1 X96.931 Y103.866 E.0225
G1 X95.955 Y104.311 E.03362
G1 X95.166 Y104.616 E.02653
G1 X94.251 Y104.908 E.03012
G1 X93.321 Y105.142 E.03007
G1 X92.384 Y105.318 E.02989
G1 X91.347 Y105.441 E.03276
G1 X90.482 Y105.495 E.02716
G1 X89.523 Y105.495 E.03006
G1 X88.565 Y105.435 E.03012
G1 X87.611 Y105.317 E.03015
G1 X86.664 Y105.138 E.0302
G1 X85.735 Y104.903 E.03006
G1 X84.821 Y104.611 E.03006
G1 X83.928 Y104.263 E.03004
G1 X83.24 Y103.945 E.02378
G1 X82.702 Y103.669 E.01896
G1 X81.387 Y102.841 E.04872
G1 X80.573 Y102.256 E.03143
G1 X79.799 Y101.619 E.03143
G1 X79.019 Y100.882 E.03366
G1 X78.381 Y100.202 E.02923
G1 X77.745 Y99.427 E.03144
G1 X77.16 Y98.613 E.03144
G1 X76.497 Y97.551 E.03922
G1 X76.135 Y96.932 E.0225
G1 X75.691 Y95.956 E.03363
G1 X75.385 Y95.167 E.02652
G1 X75.093 Y94.252 E.03012
G1 X74.859 Y93.322 E.03007
G1 X74.683 Y92.385 E.0299
G1 X74.56 Y91.347 E.03276
G1 X74.507 Y90.482 E.02716
G1 X74.506 Y89.523 E.03006
G1 X74.566 Y88.564 E.03013
G1 X74.685 Y87.61 E.03015
G1 X74.863 Y86.664 E.0302
G1 X75.098 Y85.734 E.03006
G1 X75.39 Y84.821 E.03006
G1 X75.738 Y83.928 E.03005
G1 X76.056 Y83.24 E.02378
G1 X76.332 Y82.701 E.01897
G1 X76.743 Y82.057 E.02396
M204 P1000
G1 X77.175 Y82.015 F9000
G1 E-2.24 F4200
;WIPE_START
G1 F7200
G1 X77.16 Y81.387 E-.43761
G1 X77.66 Y80.691 E-.47439
;WIPE_END
G1 E-.048 F4200
G1 Z.4 F720
G1 X98.901 Y77.97 F9000
G1 Z.2 F720
G1 E3.2 F2400
M204 P800
;TYPE:Solid infill
;WIDTH:0.422396
G1 F1200
G1 X100.49 Y79.559 E.07091
G1 X101.122 Y80.233 E.02913
G1 X101.773 Y81.031 E.0325
G1 X102.292 Y81.754 E.02809
G1 X102.529 Y82.134 E.01413
G1 X97.867 Y77.472 E.20803
G1 X97.456 Y77.217 E.01527
G1 X97.205 Y77.03 E.00987
G1 X96.537 Y76.68 E.02379
G1 X103.319 Y83.462 E.30263
G1 X103.749 Y84.428 E.03338
G1 X95.571 Y76.25 E.36494
G1 X94.72 Y75.935 E.02865
G1 X104.063 Y85.278 E.41692
G1 X104.304 Y86.057 E.02571
M73 P0 R74
G1 X93.945 Y75.697 E.46229
G1 X93.226 Y75.515 E.02339
G1 X104.485 Y86.774 E.50241
G1 X104.612 Y87.437 E.02133
G1 X92.562 Y75.387 E.53771
G1 X91.929 Y75.291 E.02021
G1 X104.706 Y88.068 E.57016
G1 X104.778 Y88.677 E.01936
G1 X91.32 Y75.219 E.60058
G1 X90.748 Y75.183 E.01808
M73 P1 R74
G1 X104.816 Y89.251 E.62777
G1 X104.834 Y89.806 E.0175
G1 X90.197 Y75.169 E.65314
G1 X89.657 Y75.166 E.01703
G1 X104.834 Y90.343 E.67723
G1 X104.809 Y90.855 E.01617
G1 X89.144 Y75.19 E.69902
G1 X88.639 Y75.221 E.01598
G1 X104.778 Y91.36 E.72017
G1 X104.719 Y91.838 E.0152
G1 X88.161 Y75.279 E.7389
G1 X87.685 Y75.341 E.01513
G1 X104.658 Y92.314 E.7574
G1 X104.573 Y92.765 E.0145
G1 X87.233 Y75.425 E.77377
G1 X86.783 Y75.512 E.01446
G1 X104.487 Y93.216 E.79
G1 X104.378 Y93.644 E.01394
G1 X86.354 Y75.62 E.8043
G1 X85.93 Y75.732 E.01385
G1 X104.27 Y94.072 E.81838
G1 X104.141 Y94.479 E.01349
G1 X85.521 Y75.86 E.83085
G1 X85.113 Y75.988 E.01351
G1 X104.011 Y94.886 E.8433
G1 X103.864 Y95.276 E.01315
G1 X84.723 Y76.135 E.85414
G1 X84.337 Y76.285 E.01308
G1 X103.714 Y95.662 E.86467
G1 X103.551 Y96.037 E.01288
G1 X83.963 Y76.448 E.87412
G1 X83.596 Y76.618 E.01276
G1 X103.382 Y96.404 E.88291
G1 X103.206 Y96.765 E.01267
G1 X83.24 Y76.799 E.89095
G1 X82.901 Y76.997 E.01238
G1 X103.018 Y97.114 E.8977
G1 X102.8 Y97.432 E.01218
G1 X82.568 Y77.2 E.90283
G1 X82.238 Y77.406 E.01229
G1 X102.593 Y97.761 E.90831
G1 X102.387 Y98.092 E.0123
G1 X81.907 Y77.612 E.91388
G1 X81.586 Y77.828 E.0122
G1 X102.171 Y98.413 E.91857
G1 X101.947 Y98.725 E.01213
G1 X81.274 Y78.052 E.92251
G1 X80.965 Y78.28 E.01211
G1 X101.722 Y99.037 E.92624
G1 X101.48 Y99.332 E.01203
G1 X80.67 Y78.521 E.92862
G1 X80.374 Y78.763 E.01203
G1 X101.237 Y99.626 E.93099
G1 X100.986 Y99.911 E.012
G1 X80.088 Y79.014 E.93251
G1 X79.811 Y79.273 E.01198
G1 X100.725 Y100.187 E.93324
G1 X100.464 Y100.463 E.01198
G1 X79.534 Y79.533 E.93397
G1 X79.275 Y79.81 E.01198
G1 X100.19 Y100.725 E.93332
G1 X99.913 Y100.985 E.01198
G1 X79.015 Y80.087 E.93254
G1 X78.764 Y80.372 E.012
G1 X99.628 Y101.236 E.93103
G1 X99.333 Y101.479 E.01203
M73 P2 R74
G1 X78.522 Y80.667 E.92869
G1 X78.28 Y80.961 E.01203
G1 X99.039 Y101.721 E.92635
G1 X98.727 Y101.946 E.01213
G1 X78.054 Y81.273 E.9225
G1 X77.83 Y81.585 E.01213
G1 X98.415 Y102.17 E.91858
G1 X98.095 Y102.387 E.0122
G1 X77.614 Y81.906 E.91391
G1 X77.408 Y82.237 E.01229
G1 X97.764 Y102.593 E.90834
G1 X97.434 Y102.799 E.01229
G1 X77.201 Y82.566 E.90286
G1 X76.983 Y82.884 E.01218
M73 P2 R73
G1 X97.101 Y103.002 E.89773
G1 X96.762 Y103.2 E.01238
G1 X76.795 Y83.234 E.89098
G1 X76.619 Y83.595 E.01267
G1 X96.405 Y103.38 E.88291
G1 X96.036 Y103.548 E.01278
G1 X76.45 Y83.961 E.87404
G1 X76.287 Y84.336 E.01287
G1 X95.666 Y103.715 E.86476
G1 X95.28 Y103.865 E.01309
G1 X76.137 Y84.722 E.85421
G1 X75.99 Y85.112 E.01314
G1 X94.89 Y104.012 E.84338
G1 X94.483 Y104.142 E.01347
G1 X75.86 Y85.519 E.83102
G1 X75.731 Y85.926 E.01348
G1 X94.076 Y104.271 E.81864
G1 X93.648 Y104.38 E.01394
G1 X75.622 Y86.354 E.80436
G1 X75.514 Y86.782 E.01394
G1 X93.219 Y104.488 E.79007
G1 X92.769 Y104.574 E.01446
G1 X75.427 Y87.232 E.77386
G1 X75.342 Y87.684 E.0145
G1 X92.317 Y104.659 E.75748
G1 X91.84 Y104.718 E.01518
G1 X75.281 Y88.16 E.7389
G1 X75.222 Y88.637 E.01519
G1 X91.36 Y104.775 E.72012
G1 X90.859 Y104.81 E.01586
G1 X75.191 Y89.143 E.69914
G1 X75.166 Y89.655 E.01617
G1 X90.346 Y104.835 E.67739
G1 X89.81 Y104.835 E.01693
G1 X75.166 Y90.191 E.65344
G1 X75.184 Y90.746 E.0175
G1 X89.255 Y104.817 E.62792
G1 X88.683 Y104.782 E.01809
G1 X75.221 Y91.32 E.60073
G1 X75.294 Y91.929 E.01936
G1 X88.074 Y104.709 E.57032
G1 X87.441 Y104.613 E.0202
G1 X75.387 Y92.559 E.53789
G1 X75.514 Y93.223 E.02132
G1 X86.778 Y104.486 E.50261
G1 X86.059 Y104.304 E.02339
G1 X75.695 Y93.94 E.46248
G1 X75.934 Y94.715 E.02559
G1 X85.284 Y104.066 E.41726
G1 X84.433 Y103.752 E.02862
G1 X76.247 Y95.565 E.3653
G1 X76.68 Y96.535 E.0335
G1 X83.468 Y103.323 E.3029
G1 X82.795 Y102.97 E.02398
G1 X82.544 Y102.783 E.00987
G1 X82.141 Y102.532 E.01499
G1 X77.467 Y97.858 E.20856
G1 X77.708 Y98.245 E.01438
G1 X78.268 Y99.025 E.03028
G1 X78.878 Y99.766 E.03029
G1 X79.463 Y100.391 E.02701
G1 X81.109 Y102.037 E.07345
M204 P1000
; stop printing object 28_Rose-stem.stl id:0 copy 0
M106 S84.15
;LAYER_CHANGE
;Z:0.4
;HEIGHT:0.2
;BEFORE_LAYER_CHANGE
G92 E0.0
;0.4


G1 E-2.24 F4200
;WIPE_START
G1 F7200
G1 X79.945 Y100.873 E-.912
;WIPE_END
G1 E-.048 F4200
G1 Z.4 F720
;AFTER_LAYER_CHANGE
;0.4
M104 S210 ; set temperature
G1 Z.6
G1 X77.268 Y103.56 F9000
G1 Z.4 F720
G1 E3.2 F2400
;TYPE:Skirt/Brim
;WIDTH:0.42
G1 X76.09 Y102.385 E.05215
G1 X73.788 Y99.56 E.11426
G1 X72.937 Y97.941 E.05734
G1 X72.301 Y96.413 E.05188
