; generated by PrusaSlicer 2.5.0+win64 on 2022-09-24 at 05:29:38 UTC


;
;

;
;
; 

; external perimeters extrusion width = 0.45mm
; perimeters extrusion width = 0.45mm
; infill extrusion width = 0.45mm
; solid infill extrusion width = 0.45mm
; top infill extrusion width = 0.40mm
; first layer extrusion width = 0.42mm

M73 P0 R15
M201 X2500 Y2500 Z400 E5000 ; sets maximum accelerations, mm/sec^2
M203 X180 Y180 Z12 E80 ; sets maximum feedrates, mm / sec
M204 P1250 R1250 T2500 ; sets acceleration (P, T) and retract acceleration (R), mm/sec^2
M205 X8.00 Y8.00 Z2.00 E10.00 ; sets the jerk limits, mm/sec
M205 S0 T0 ; sets the minimum extruding and travel feed rate, mm/sec
M107
;TYPE:Custom
M862.3 P "MINI" ; printer model check
G90 ; use absolute coordinates
M83 ; extruder relative mode
M104 S170 ; set extruder temp for bed leveling
M140 S60 ; set bed temp
M109 R170 ; wait for bed leveling temp
M190 S60 ; wait for bed temp
M204 T1250 ; set travel acceleration
G28 ; home all without mesh bed level
G29 ; mesh bed leveling 
M204 T2500 ; restore travel acceleration
M104 S215 ; set extruder temp
G92 E0
G1 Y-2 X179 F2400
G1 Z3 F720
M109 S215 ; wait for extruder temp

; intro line
G1 X170 F1000
G1 Z0.2 F720
G1 X110 E8 F900
G1 X40 E10 F700
G92 E0

M221 S95 ; set flow
G21 ; set units to millimeters
G90 ; use absolute coordinates
M83 ; use relative distances for extrusion
M900 K0.2 ; Filament gcode LA 1.5
; ; Filament gcode LA 1.0
M107
;LAYER_CHANGE
;Z:0.2
;HEIGHT:0.2
;BEFORE_LAYER_CHANGE
G92 E0.0
;0.2


M73 P1 R15
G1 E-3.2 F4200
G1 Z.2 F720
;AFTER_LAYER_CHANGE
;0.2
G1 Z.4
G1 X69.334 Y69.663 F9000
G1 Z.2 F720
G1 E3.2 F2400
M204 P800
;TYPE:Skirt/Brim
;WIDTH:0.42
G1 F1200
G1 X70.27 Y68.837 E.03914
G1 X71.349 Y68.208 E.03917
G1 X72.53 Y67.802 E.03914
G1 X73.767 Y67.634 E.03915
G1 X106.233 Y67.634 E1.01795
G1 X107.47 Y67.802 E.03915
G1 X108.651 Y68.208 E.03914
G1 X109.73 Y68.837 E.03917
G1 X110.337 Y69.334 E.02459
G1 X111.422 Y70.657 E.05367
G1 X111.97 Y71.779 E.03915
G1 X112.289 Y72.986 E.03915
G1 X112.377 Y74 E.0319
G1 X112.377 Y106 E1.00334
M73 P2 R15
G1 X112.289 Y107.014 E.0319
G1 X111.97 Y108.221 E.03915
G1 X111.422 Y109.343 E.03915
G1 X110.666 Y110.337 E.03916
G1 X109.73 Y111.163 E.03914
G1 X108.651 Y111.792 E.03917
G1 X107.47 Y112.198 E.03914
G1 X106 Y112.377 E.04645
G1 X74 Y112.377 E1.00334
G1 X72.986 Y112.289 E.0319
G1 X71.779 Y111.97 E.03915
G1 X70.657 Y111.422 E.03915
G1 X69.663 Y110.666 E.03916
G1 X68.837 Y109.73 E.03914
G1 X68.208 Y108.651 E.03917
G1 X67.802 Y107.47 E.03914
G1 X67.623 Y106 E.04645
G1 X67.623 Y74 E1.00334
G1 X67.711 Y72.986 E.0319
G1 X68.03 Y71.779 E.03915
G1 X68.578 Y70.657 E.03915
G1 X69.298 Y69.711 E.03728
M204 P1000
; printing object 40mm_crosshair_reduced_fan_cover.stl id:0 copy 0
G1 E-2.24 F4200
;WIPE_START
G1 F7200
G1 X70.27 Y68.837 E-.72442
G1 X70.562 Y68.666 E-.18758
;WIPE_END
G1 E-.048 F4200
G1 Z.4 F720
G1 X109.213 Y76.375 F9000
G1 Z.2 F720
G1 E3.2 F2400
M204 P800
;TYPE:Perimeter
;WIDTH:0.419999
G1 F1200
G1 X109.213 Y76.516 E.00444
;WIDTH:0.444768
G1 X109.204 Y77.947 E.04781
;WIDTH:0.437419
G1 X109.213 Y78.582 E.02083
;WIDTH:0.419999
G1 X109.221 Y79.597 E.03184
;WIDTH:0.404788
G1 X109.221 Y100.403 E.62602
;WIDTH:0.41742
G1 X109.214 Y100.819 E.01297
;WIDTH:0.419999
G1 X109.213 Y101.408 E.01846
;WIDTH:0.431914
G1 X109.207 Y102.216 E.02615
;WIDTH:0.450365
G1 X109.198 Y102.974 E.02568
G1 X109.213 Y103.484 E.01727
;WIDTH:0.419999
G1 X109.213 Y105.961 E.07768
G1 X109.147 Y106.626 E.02094
G1 X108.965 Y107.228 E.01972
G1 X108.668 Y107.783 E.01972
G1 X108.269 Y108.269 E.01972
G1 X107.783 Y108.668 E.01972
G1 X107.228 Y108.965 E.01973
G1 X106.626 Y109.147 E.01972
G1 X105.961 Y109.213 E.02094
G1 X103.484 Y109.213 E.07768
;WIDTH:0.444768
G1 X102.186 Y109.207 E.04336
;WIDTH:0.431618
G1 X101.418 Y109.213 E.02483
;WIDTH:0.419999
G1 X100.403 Y109.221 E.03184
;WIDTH:0.404789
G1 X79.597 Y109.221 E.62602
;WIDTH:0.419999
G1 X78.592 Y109.213 E.03152
;WIDTH:0.431914
M73 P3 R15
G1 X77.784 Y109.207 E.02615
;WIDTH:0.444769
G1 X76.516 Y109.213 E.04235
;WIDTH:0.419999
G1 X74.039 Y109.213 E.07768
G1 X73.374 Y109.147 E.02094
G1 X72.772 Y108.965 E.01972
G1 X72.217 Y108.668 E.01972
G1 X71.731 Y108.269 E.01972
G1 X71.332 Y107.783 E.01972
G1 X71.035 Y107.228 E.01972
G1 X70.853 Y106.626 E.01972
G1 X70.787 Y105.961 E.02094
G1 X70.787 Y103.484 E.07768
;WIDTH:0.444768
G1 X70.793 Y102.186 E.04336
;WIDTH:0.431618
G1 X70.787 Y101.418 E.02483
;WIDTH:0.419999
G1 X70.779 Y100.403 E.03184
;WIDTH:0.404789
G1 X70.779 Y79.597 E.62602
;WIDTH:0.419999
G1 X70.787 Y78.592 E.03152
;WIDTH:0.431914
G1 X70.793 Y77.784 E.02615
;WIDTH:0.444768
G1 X70.787 Y76.516 E.04235
;WIDTH:0.419999
G1 X70.787 Y74.039 E.07768
G1 X70.853 Y73.374 E.02094
G1 X71.035 Y72.772 E.01972
G1 X71.332 Y72.217 E.01972
G1 X71.731 Y71.731 E.01972
G1 X72.217 Y71.332 E.01972
G1 X72.772 Y71.035 E.01973
G1 X73.374 Y70.853 E.01972
G1 X74.039 Y70.787 E.02094
G1 X76.516 Y70.787 E.07768
;WIDTH:0.444676
G1 X77.814 Y70.793 E.04335
;WIDTH:0.431507
G1 X78.582 Y70.787 E.02482
;WIDTH:0.419999
G1 X79.597 Y70.78 E.03184
;WIDTH:0.404627
G1 X100.403 Y70.781 E.62574
;WIDTH:0.419999
G1 X101.408 Y70.789 E.03152
;WIDTH:0.431083
G1 X102.216 Y70.794 E.02609
;WIDTH:0.443918
G1 X103.483 Y70.789 E.04225
;WIDTH:0.419999
G1 X106.13 Y70.804 E.08298
G1 X106.664 Y70.864 E.01684
G1 X107.343 Y71.097 E.02252
G1 X107.813 Y71.357 E.01685
G1 X108.352 Y71.832 E.02252
G1 X108.687 Y72.252 E.01685
G1 X109.003 Y72.897 E.02252
G1 X109.151 Y73.413 E.01684
G1 X109.213 Y74.058 E.0203
G1 X109.213 Y76.315 E.07077
M204 P1000
G1 E-2.24 F4200
;WIPE_START
G1 F7200
G1 X109.213 Y76.516 E-.11165
G1 X109.204 Y77.947 E-.79295
G1 X109.204 Y77.961 E-.00741
;WIPE_END
G1 E-.048 F4200
G1 Z.4 F720
G1 X107.373 Y70.685 F9000
G1 Z.2 F720
G1 E3.2 F2400
M204 P800
;TYPE:External perimeter
G1 F1200
G1 X107.993 Y71.017 E.02205
G1 X108.537 Y71.463 E.02205
G1 X108.983 Y72.007 E.02205
G1 X109.236 Y72.479 E.0168
G1 X109.391 Y72.877 E.01337
G1 X109.527 Y73.376 E.01624
G1 X109.59 Y74.058 E.02146
G1 X109.59 Y105.98 E1.00089
G1 X109.519 Y106.7 E.02269
G1 X109.315 Y107.373 E.02205
G1 X108.983 Y107.993 E.02205
G1 X108.537 Y108.537 E.02205
G1 X107.993 Y108.983 E.02205
G1 X107.373 Y109.315 E.02205
G1 X106.7 Y109.519 E.02205
G1 X105.98 Y109.59 E.02269
G1 X74.02 Y109.59 E1.00207
G1 X73.3 Y109.519 E.02269
M73 P3 R14
G1 X72.627 Y109.315 E.02205
G1 X72.007 Y108.983 E.02205
G1 X71.463 Y108.537 E.02205
G1 X71.017 Y107.993 E.02205
G1 X70.685 Y107.373 E.02205
G1 X70.481 Y106.7 E.02205
G1 X70.41 Y105.98 E.02269
G1 X70.41 Y74.02 E1.00207
G1 X70.481 Y73.3 E.02269
M73 P4 R14
G1 X70.685 Y72.627 E.02205
G1 X71.017 Y72.007 E.02205
G1 X71.463 Y71.463 E.02205
G1 X72.007 Y71.017 E.02205
G1 X72.627 Y70.685 E.02205
G1 X73.3 Y70.481 E.02205
G1 X74.02 Y70.41 E.02269
G1 X105.999 Y70.412 E1.00267
G1 X106.7 Y70.481 E.02209
G1 X107.316 Y70.668 E.02017
M204 P1000
G1 X107.425 Y71.082 F9000
G1 E-2.24 F4200
;WIPE_START
G1 F7200
G1 X107.993 Y71.017 E-.42246
G1 X108.537 Y71.463 E-.38979
G1 X108.651 Y71.602 E-.09976
;WIPE_END
G1 E-.048 F4200
G1 Z.4 F720
G1 X104.333 Y72.25 F9000
G1 Z.2 F720
G1 E3.2 F2400
M204 P800
;TYPE:Perimeter
G1 F1200
G1 X104.499 Y72.11 E.00678
G1 X104.968 Y71.797 E.0177
G1 X105.172 Y71.712 E.00692
G1 X105.902 Y71.567 E.02335
G1 X106.11 Y71.569 E.00652
G1 X106.828 Y71.712 E.02295
G1 X107.032 Y71.797 E.00692
G1 X107.641 Y72.203 E.02295
G1 X107.797 Y72.359 E.00692
G1 X108.203 Y72.968 E.02295
G1 X108.288 Y73.172 E.00692
G1 X108.431 Y73.89 E.02295
G1 X108.431 Y74.11 E.00692
G1 X108.288 Y74.828 E.02295
G1 X108.203 Y75.032 E.00692
G1 X107.797 Y75.641 E.02295
G1 X107.641 Y75.797 E.00692
G1 X107.032 Y76.203 E.02295
G1 X106.828 Y76.288 E.00692
G1 X106.11 Y76.431 E.02295
G1 X105.89 Y76.431 E.00692
G1 X105.172 Y76.288 E.02295
G1 X104.968 Y76.203 E.00692
G1 X104.359 Y75.797 E.02295
G1 X104.203 Y75.641 E.00692
G1 X103.797 Y75.032 E.02295
G1 X103.712 Y74.828 E.00692
G1 X103.569 Y74.11 E.02295
G1 X103.569 Y73.89 E.00692
G1 X103.712 Y73.172 E.02295
G1 X103.797 Y72.968 E.00692
G1 X104.203 Y72.359 E.02295
G1 X104.287 Y72.288 E.00345
M204 P1000
G1 X104.525 Y72.576 F9000
M204 P800
;TYPE:External perimeter
G1 F1200
G1 X104.569 Y72.517 E.00231
G1 X105.177 Y72.11 E.02295
G1 X105.967 Y71.938 E.02535
G1 X106.755 Y72.082 E.02509
G1 X107.431 Y72.517 E.02521
G1 X107.89 Y73.177 E.02521
G1 X108.061 Y73.963 E.02521
G1 X107.918 Y74.755 E.02521
G1 X107.577 Y75.291 E.01994
G1 X107.431 Y75.483 E.00755
G1 X106.823 Y75.89 E.02295
G1 X106.037 Y76.061 E.02521
G1 X105.245 Y75.918 E.02521
G1 X104.569 Y75.483 E.02521
G1 X104.11 Y74.823 E.02521
G1 X103.939 Y74.037 E.02521
G1 X104.082 Y73.245 E.02521
G1 X104.49 Y72.625 E.02328
M204 P1000
G1 X104.49 Y72.512 F9000
G1 E-2.24 F4200
;WIPE_START
G1 F7200
G1 X104.569 Y72.517 E-.07414
G1 X105.177 Y72.11 E-.4056
G1 X105.94 Y71.945 E-.43226
;WIPE_END
G1 E-.048 F4200
G1 Z.4 F720
G1 X99.881 Y79.838 F9000
G1 Z.2 F720
G1 E3.2 F2400
M204 P800
;WIDTH:0.564457
G1 F1200
G1 X99.88 Y79.866 E.00122
;WIDTH:0.564458
G1 X99.828 Y79.913 E.00302
;WIDTH:0.517091
G1 X99.777 Y79.96 E.00274
;WIDTH:0.469724
G1 X99.726 Y80.007 E.00247
;WIDTH:0.423094
G1 X95.34 Y84.391 E.19601
;WIDTH:0.46333
G1 X95.306 Y84.425 E.00168
;WIDTH:0.503566
G1 X95.272 Y84.459 E.00184
;WIDTH:0.543802
G1 X95.238 Y84.493 E.00201
;WIDTH:0.584037
G1 X95.204 Y84.527 E.00217
G1 X95.147 Y84.477 E.00345
;WIDTH:0.542278
G1 X95.089 Y84.426 E.00318
;WIDTH:0.500518
G1 X95.031 Y84.376 E.00291
;WIDTH:0.458758
G1 X94.973 Y84.326 E.00265
;WIDTH:0.418381
G1 X93.013 Y83.013 E.07365
G1 X92.81 Y82.929 E.00687
G1 X90.11 Y82.392 E.08595
G1 X89.89 Y82.392 E.00686
G1 X87.19 Y82.929 E.08595
G1 X86.987 Y83.013 E.00687
G1 X85.027 Y84.326 E.07365
;WIDTH:0.458749
G1 X84.969 Y84.376 E.00265
;WIDTH:0.500498
G1 X84.911 Y84.426 E.00291
;WIDTH:0.542247
G1 X84.853 Y84.477 E.00318
;WIDTH:0.583996
G1 X84.796 Y84.527 E.00344
G1 X84.762 Y84.493 E.00217
;WIDTH:0.543763
G1 X84.728 Y84.459 E.002
;WIDTH:0.503529
G1 X84.694 Y84.425 E.00184
;WIDTH:0.463295
G1 X84.66 Y84.391 E.00168
;WIDTH:0.423061
G1 X80.274 Y80.007 E.196
;WIDTH:0.469698
G1 X80.223 Y79.95 E.00271
;WIDTH:0.517077
G1 X80.171 Y79.894 E.00301
;WIDTH:0.564456
G1 X80.119 Y79.838 E.00332
G1 X80.239 Y79.71 E.00759
;WIDTH:0.51617
G1 X80.359 Y79.582 E.00689
;WIDTH:0.467883
G1 X80.479 Y79.454 E.00619
;WIDTH:0.419596
G1 X82.879 Y77.705 E.09302
G1 X85.591 Y76.493 E.09303
G1 X88.534 Y75.868 E.09426
G1 X91.466 Y75.868 E.09181
G1 X94.372 Y76.481 E.09303
G1 X97.087 Y77.686 E.09303
G1 X99.492 Y79.428 E.09303
;WIDTH:0.467814
G1 X99.622 Y79.565 E.00665
;WIDTH:0.516136
G1 X99.751 Y79.701 E.0074
;WIDTH:0.564457
G1 X99.839 Y79.794 E.00556
M204 P1000
G1 E-2.24 F4200
;WIPE_START
G1 F7200
G1 X99.88 Y79.866 E-.04564
G1 X99.828 Y79.913 E-.03858
G1 X99.777 Y79.96 E-.03858
G1 X99.726 Y80.007 E-.03858
G1 X98.768 Y80.964 E-.75063
;WIPE_END
G1 E-.048 F4200
G1 Z.4 F720
G1 X99.994 Y99.725 F9000
G1 Z.2 F720
G1 E3.2 F2400
M204 P800
;WIDTH:0.423061
G1 F1200
G1 X95.609 Y95.34 E.19601
;WIDTH:0.463262
G1 X95.575 Y95.306 E.00168
;WIDTH:0.503462
G1 X95.541 Y95.272 E.00184
;WIDTH:0.543662
G1 X95.507 Y95.238 E.002
;WIDTH:0.583862
G1 X95.473 Y95.204 E.00216
G1 X95.523 Y95.147 E.00344
;WIDTH:0.542146
G1 X95.574 Y95.089 E.00318
;WIDTH:0.50043
G1 X95.624 Y95.031 E.00291
;WIDTH:0.458714
G1 X95.674 Y94.973 E.00265
;WIDTH:0.418381
G1 X96.987 Y93.013 E.07365
G1 X97.071 Y92.81 E.00687
G1 X97.608 Y90.11 E.08595
G1 X97.608 Y89.89 E.00686
G1 X97.071 Y87.19 E.08595
G1 X96.987 Y86.987 E.00687
G1 X95.674 Y85.027 E.07364
;WIDTH:0.458779
G1 X95.624 Y84.969 E.00265
;WIDTH:0.500532
G1 X95.574 Y84.911 E.00292
;WIDTH:0.542285
G1 X95.523 Y84.854 E.00318
;WIDTH:0.584037
G1 X95.473 Y84.796 E.00345
G1 X95.507 Y84.762 E.00217
;WIDTH:0.543802
G1 X95.541 Y84.728 E.002
;WIDTH:0.503566
G1 X95.575 Y84.694 E.00184
;WIDTH:0.46333
G1 X95.609 Y84.66 E.00168
;WIDTH:0.423094
G1 X99.994 Y80.275 E.19601
;WIDTH:0.469724
G1 X100.04 Y80.233 E.00223
;WIDTH:0.517091
M73 P5 R14
G1 X100.087 Y80.191 E.00248
;WIDTH:0.564458
G1 X100.134 Y80.148 E.00273
G1 X100.179 Y80.193 E.00275
;WIDTH:0.516195
G1 X100.223 Y80.238 E.00249
;WIDTH:0.467931
G1 X100.268 Y80.283 E.00224
;WIDTH:0.419667
G1 X101.483 Y81.633 E.05689
;WIDTH:0.419565
G1 X102.988 Y84.239 E.09425
G1 X103.894 Y87.027 E.0918
G1 X104.208 Y89.98 E.09302
G1 X103.902 Y92.935 E.09302
G1 X102.988 Y95.761 E.09302
G1 X101.483 Y98.367 E.09425
;WIDTH:0.419669
G1 X100.268 Y99.717 E.05689
;WIDTH:0.467932
G1 X100.223 Y99.762 E.00224
;WIDTH:0.516194
G1 X100.178 Y99.807 E.00249
;WIDTH:0.564456
G1 X100.134 Y99.852 E.00275
G1 X100.087 Y99.809 E.00273
;WIDTH:0.517077
G1 X100.04 Y99.767 E.00248
;WIDTH:0.469698
G1 X100.038 Y99.765 E.0001
M204 P1000
G1 E-2.24 F4200
;WIPE_START
G1 F7200
G1 X98.874 Y98.602 E-.912
;WIPE_END
G1 E-.048 F4200
G1 Z.4 F720
G1 X89.867 Y89.6 F9000
G1 Z.2 F720
G1 E3.2 F2400
M204 P800
;WIDTH:0.429259
G1 F1200
G1 X85.202 Y84.929 E.21207
;WIDTH:0.467944
G1 X85.168 Y84.895 E.00167
;WIDTH:0.506628
G1 X85.135 Y84.862 E.00182
;WIDTH:0.545312
G1 X85.101 Y84.828 E.00198
;WIDTH:0.583996
G1 X85.068 Y84.795 E.00213
G1 X85.11 Y84.755 E.00258
;WIDTH:0.542247
G1 X85.151 Y84.716 E.00238
;WIDTH:0.500498
G1 X85.193 Y84.676 E.00219
;WIDTH:0.458749
G1 X85.235 Y84.637 E.00199
;WIDTH:0.418381
G1 X87.196 Y83.325 E.07365
G1 X87.263 Y83.297 E.00229
G1 X89.963 Y82.76 E.08595
G1 X90.037 Y82.76 E.00229
G1 X92.737 Y83.297 E.08595
G1 X92.804 Y83.325 E.00229
G1 X94.765 Y84.637 E.07365
;WIDTH:0.449371
G1 X94.806 Y84.655 E.00149
;WIDTH:0.481743
G1 X94.846 Y84.673 E.00161
;WIDTH:0.515842
G1 X94.875 Y84.714 E.00196
;WIDTH:0.54994
G1 X94.903 Y84.754 E.0021
;WIDTH:0.584038
G1 X94.932 Y84.795 E.00224
G1 X94.793 Y84.934 E.00886
;WIDTH:0.544466
G1 X94.653 Y85.073 E.00821
;WIDTH:0.504894
G1 X94.514 Y85.212 E.00756
;WIDTH:0.465322
G1 X94.375 Y85.351 E.00691
;WIDTH:0.425749
G1 X90.133 Y89.6 E.1911
;WIDTH:0.459023
G1 X90.1 Y89.633 E.00163
;WIDTH:0.498067
G1 X90.067 Y89.667 E.00179
;WIDTH:0.537111
G1 X90.033 Y89.7 E.00194
;WIDTH:0.576155
G1 X90 Y89.733 E.00209
G1 X89.967 Y89.7 E.00209
;WIDTH:0.537109
G1 X89.933 Y89.667 E.00194
;WIDTH:0.498062
G1 X89.909 Y89.642 E.0013
M204 P1000
G1 E-2.24 F4200
;WIPE_START
G1 F7200
G1 X88.746 Y88.478 E-.912
;WIPE_END
G1 E-.048 F4200
G1 Z.4 F720
G1 X95.105 Y94.832 F9000
G1 Z.2 F720
G1 E3.2 F2400
M204 P800
;WIDTH:0.467911
G1 F1200
G1 X95.071 Y94.798 E.00167
;WIDTH:0.429259
G1 X90.4 Y90.134 E.21207
;WIDTH:0.459017
G1 X90.367 Y90.1 E.00163
;WIDTH:0.498063
G1 X90.333 Y90.067 E.00179
;WIDTH:0.537109
G1 X90.3 Y90.033 E.00194
;WIDTH:0.576155
G1 X90.267 Y90 E.00209
G1 X90.3 Y89.967 E.00209
;WIDTH:0.537111
G1 X90.333 Y89.933 E.00194
;WIDTH:0.498067
G1 X90.367 Y89.9 E.00179
;WIDTH:0.459023
G1 X90.4 Y89.866 E.00163
;WIDTH:0.425735
G1 X94.643 Y85.624 E.19097
;WIDTH:0.429372
G1 X95.07 Y85.203 E.01928
;WIDTH:0.468039
G1 X95.104 Y85.169 E.00169
;WIDTH:0.506705
G1 X95.138 Y85.136 E.00184
;WIDTH:0.545372
G1 X95.172 Y85.102 E.00199
;WIDTH:0.584038
G1 X95.205 Y85.068 E.00215
G1 X95.246 Y85.097 E.00224
;WIDTH:0.549975
G1 X95.286 Y85.126 E.0021
;WIDTH:0.515912
G1 X95.327 Y85.154 E.00196
;WIDTH:0.481849
G1 X95.345 Y85.195 E.00161
;WIDTH:0.449438
G1 X95.364 Y85.235 E.00149
;WIDTH:0.418383
G1 X96.675 Y87.196 E.07364
G1 X96.703 Y87.263 E.00229
G1 X97.24 Y89.963 E.08595
;WIDTH:0.422114
G1 X97.245 Y90 E.00117
G1 X97.24 Y90.037 E.00117
;WIDTH:0.418471
G1 X96.703 Y92.737 E.08597
G1 X96.675 Y92.804 E.00229
G1 X95.363 Y94.765 E.07367
;WIDTH:0.458715
G1 X95.324 Y94.807 E.00199
;WIDTH:0.500431
G1 X95.284 Y94.849 E.00218
;WIDTH:0.542148
G1 X95.245 Y94.89 E.00238
;WIDTH:0.583864
G1 X95.205 Y94.932 E.00258
G1 X95.172 Y94.899 E.00213
;WIDTH:0.545213
G1 X95.147 Y94.874 E.00144
M204 P1000
G1 E-2.24 F4200
;WIPE_START
G1 F7200
G1 X95.071 Y94.798 E-.05944
G1 X93.983 Y93.711 E-.85256
;WIPE_END
G1 E-.048 F4200
G1 Z.4 F720
G1 X99.881 Y100.162 F9000
G1 Z.2 F720
G1 E3.2 F2400
M204 P800
;WIDTH:0.564456
G1 F1200
G1 X99.761 Y100.29 E.00759
;WIDTH:0.516179
G1 X99.641 Y100.418 E.00689
;WIDTH:0.467901
G1 X99.521 Y100.546 E.00619
;WIDTH:0.419623
G1 X97.121 Y102.295 E.09303
G1 X94.409 Y103.507 E.09304
G1 X91.466 Y104.132 E.09426
G1 X88.534 Y104.132 E.09181
