; generated by PrusaSlicer 2.5.0+win64 on 2022-09-25 at 15:13:58 UTC


;
;

;
;
; 

; external perimeters extrusion width = 0.45mm
; perimeters extrusion width = 0.45mm
; infill extrusion width = 0.45mm
; solid infill extrusion width = 0.45mm
; top infill extrusion width = 0.40mm
; first layer extrusion width = 0.42mm

M73 P0 R37
M201 X2500 Y2500 Z400 E5000 ; sets maximum accelerations, mm/sec^2
M203 X180 Y180 Z12 E80 ; sets maximum feedrates, mm / sec
M204 P1250 R1250 T2500 ; sets acceleration (P, T) and retract acceleration (R), mm/sec^2
M205 X8.00 Y8.00 Z2.00 E10.00 ; sets the jerk limits, mm/sec
M205 S0 T0 ; sets the minimum extruding and travel feed rate, mm/sec
M107
;TYPE:Custom
M862.3 P "MINI" ; printer model check
G90 ; use absolute coordinates
M83 ; extruder relative mode
M104 S170 ; set extruder temp for bed leveling
M140 S60 ; set bed temp
M109 R170 ; wait for bed leveling temp
M190 S60 ; wait for bed temp
M204 T1250 ; set travel acceleration
G28 ; home all without mesh bed level
G29 ; mesh bed leveling 
M204 T2500 ; restore travel acceleration
M104 S215 ; set extruder temp
G92 E0
G1 Y-2 X179 F2400
G1 Z3 F720
M109 S215 ; wait for extruder temp

; intro line
G1 X170 F1000
G1 Z0.2 F720
G1 X110 E8 F900
G1 X40 E10 F700
G92 E0

M221 S95 ; set flow
G21 ; set units to millimeters
G90 ; use absolute coordinates
M83 ; use relative distances for extrusion
M900 K0.2 ; Filament gcode LA 1.5
; ; Filament gcode LA 1.0
M107
;LAYER_CHANGE
;Z:0.2
;HEIGHT:0.2
;BEFORE_LAYER_CHANGE
G92 E0.0
;0.2


G1 E-3.2 F4200
G1 Z.2 F720
;AFTER_LAYER_CHANGE
;0.2
G1 Z.4
G1 X73.517 Y74.966 F9000
G1 Z.2 F720
G1 E3.2 F2400
M204 P800
;TYPE:Skirt/Brim
;WIDTH:0.42
G1 F1200
G1 X75.164 Y73.92 E.06117
G1 X84.334 Y72.625 E.29036
G1 X104.497 Y72.625 E.63223
G1 X105.805 Y73.017 E.04278
G1 X106.681 Y74.062 E.04278
G1 X106.875 Y75.002 E.03008
G1 X106.875 Y104.998 E.9405
G1 X106.483 Y106.305 E.04278
G1 X105.437 Y107.181 E.04278
G1 X104.497 Y107.375 E.03008
G1 X75.503 Y107.375 E.90912
G1 X74.195 Y106.983 E.04278
G1 X73.319 Y105.938 E.04278
G1 X73.125 Y104.998 E.03008
G1 X73.125 Y76.273 E.90066
G1 X73.5 Y75.023 E.0409
M204 P1000
; printing object back-ball-joint.stl id:0 copy 0
M73 P1 R37
G1 E-2.24 F4200
;WIPE_START
G1 F7200
G1 X74.871 Y74.114 E-.912
;WIPE_END
G1 E-.048 F4200
G1 Z.4 F720
G1 X85.102 Y76.578 F9000
G1 Z.2 F720
G1 E3.2 F2400
M204 P800
;TYPE:Perimeter
;WIDTH:0.419999
G1 F1200
G1 X85.121 Y76.498 E.00259
G1 X85.121 Y75.789 E.02222
G1 X103.71 Y75.789 E.58287
G1 X103.71 Y85.642 E.30892
G1 X76.29 Y85.641 E.85976
G1 X76.29 Y77.063 E.26895
G1 X84.555 Y77.063 E.25915
G1 X84.653 Y77.055 E.00308
G1 X84.917 Y76.932 E.00914
G1 X85.065 Y76.742 E.00756
G1 X85.089 Y76.637 E.00337
M204 P1000
G1 X84.743 Y76.498 F9000
M204 P800
;TYPE:External perimeter
G1 F1200
G1 X84.743 Y75.412 E.03404
G1 X104.088 Y75.412 E.60652
G1 X104.088 Y86.019 E.33257
G1 X75.913 Y86.018 E.88341
G1 X75.913 Y76.686 E.2926
G1 X84.555 Y76.686 E.27098
G1 X84.676 Y76.642 E.00403
G1 X84.718 Y76.552 E.00313
M204 P1000
G1 X85.13 Y76.394 F9000
G1 E-2.24 F4200
;WIPE_START
G1 F7200
G1 X84.743 Y75.412 E-.63193
G1 X85.249 Y75.412 E-.28007
;WIPE_END
G1 E-.048 F4200
G1 Z.4 F720
G1 X103.597 Y76.667 F9000
G1 Z.2 F720
G1 E3.2 F2400
M204 P800
;TYPE:Solid infill
;WIDTH:0.421026
G1 F1200
G1 X103.003 Y76.072 E.02644
G1 X102.468 Y76.072 E.01681
G1 X103.428 Y77.032 E.04267
G1 X103.428 Y77.566 E.01681
G1 X101.933 Y76.072 E.06645
G1 X101.398 Y76.072 E.01681
G1 X103.428 Y78.101 E.09023
G1 X103.428 Y78.636 E.01681
G1 X100.864 Y76.072 E.114
G1 X100.329 Y76.072 E.01681
G1 X103.428 Y79.171 E.13778
G1 X103.428 Y79.705 E.01681
G1 X99.794 Y76.072 E.16155
G1 X99.259 Y76.072 E.01681
G1 X103.428 Y80.24 E.18533
G1 X103.428 Y80.775 E.01681
G1 X98.725 Y76.072 E.2091
G1 X98.19 Y76.072 E.01681
G1 X103.428 Y81.309 E.23288
G1 X103.428 Y81.844 E.01681
G1 X97.655 Y76.072 E.25665
G1 X97.121 Y76.072 E.01681
G1 X103.428 Y82.379 E.28043
G1 X103.428 Y82.914 E.01681
M73 P1 R36
G1 X96.586 Y76.072 E.3042
G1 X96.051 Y76.072 E.01681
G1 X103.428 Y83.448 E.32798
G1 X103.428 Y83.983 E.01681
G1 X95.516 Y76.072 E.35175
G1 X94.982 Y76.072 E.01681
G1 X103.428 Y84.518 E.37553
G1 X103.428 Y85.053 E.01681
G1 X94.447 Y76.072 E.3993
G1 X93.912 Y76.072 E.01681
G1 X103.199 Y85.359 E.41293
G1 X102.665 Y85.359 E.01681
G1 X93.378 Y76.072 E.41293
G1 X92.843 Y76.072 E.01681
G1 X102.13 Y85.359 E.41293
G1 X101.595 Y85.359 E.01681
G1 X92.308 Y76.072 E.41293
G1 X91.773 Y76.072 E.01681
G1 X101.06 Y85.359 E.41292
G1 X100.526 Y85.359 E.01681
G1 X91.239 Y76.072 E.41292
G1 X90.704 Y76.072 E.01681
G1 X99.991 Y85.359 E.41292
G1 X99.456 Y85.359 E.01681
G1 X90.169 Y76.072 E.41292
G1 X89.634 Y76.072 E.01681
G1 X98.922 Y85.359 E.41292
G1 X98.387 Y85.359 E.01681
G1 X89.1 Y76.072 E.41292
G1 X88.565 Y76.072 E.01681
G1 X97.852 Y85.359 E.41292
G1 X97.317 Y85.359 E.01681
M73 P2 R36
G1 X88.03 Y76.072 E.41292
G1 X87.496 Y76.072 E.01681
G1 X96.783 Y85.359 E.41292
G1 X96.248 Y85.359 E.01681
G1 X86.961 Y76.072 E.41292
G1 X86.426 Y76.072 E.01681
G1 X95.713 Y85.359 E.41292
G1 X95.178 Y85.359 E.01681
G1 X85.891 Y76.072 E.41292
G1 X85.403 Y76.072 E.01534
G1 X85.403 Y76.119 E.00147
G1 X94.644 Y85.359 E.41084
G1 X94.109 Y85.359 E.01681
G1 X85.377 Y76.626 E.38826
G1 X85.323 Y76.86 E.00754
G1 X85.226 Y77.01 E.00563
G1 X93.574 Y85.359 E.37119
G1 X93.039 Y85.359 E.01681
G1 X84.93 Y77.249 E.36058
G1 X84.856 Y77.292 E.00267
G1 X84.698 Y77.335 E.00516
G1 X84.481 Y77.335 E.00682
G1 X92.505 Y85.359 E.35675
G1 X91.97 Y85.359 E.01681
G1 X83.947 Y77.336 E.35672
G1 X83.413 Y77.337 E.01679
G1 X91.435 Y85.359 E.35669
G1 X90.9 Y85.359 E.01681
G1 X82.879 Y77.337 E.35665
G1 X82.345 Y77.338 E.01679
G1 X90.366 Y85.359 E.35662
G1 X89.831 Y85.359 E.01681
G1 X81.811 Y77.339 E.35659
G1 X81.277 Y77.339 E.01679
G1 X89.296 Y85.359 E.35655
G1 X88.762 Y85.359 E.01681
G1 X80.743 Y77.34 E.35652
G1 X80.209 Y77.341 E.01679
G1 X88.227 Y85.359 E.35649
G1 X87.692 Y85.359 E.01681
G1 X79.675 Y77.342 E.35645
G1 X79.141 Y77.342 E.01679
G1 X87.157 Y85.359 E.35642
G1 X86.623 Y85.359 E.01681
G1 X78.607 Y77.343 E.35639
G1 X78.073 Y77.344 E.01679
G1 X86.088 Y85.359 E.35635
G1 X85.553 Y85.359 E.01681
G1 X77.539 Y77.345 E.35632
G1 X77.005 Y77.345 E.01679
G1 X85.018 Y85.359 E.35629
G1 X84.484 Y85.359 E.01681
G1 X76.572 Y77.447 E.35176
G1 X76.572 Y77.982 E.01681
G1 X83.949 Y85.359 E.32798
G1 X83.414 Y85.359 E.01681
G1 X76.572 Y78.517 E.3042
G1 X76.572 Y79.051 E.01681
G1 X82.879 Y85.359 E.28043
G1 X82.345 Y85.359 E.01681
G1 X76.572 Y79.586 E.25665
G1 X76.572 Y80.121 E.01681
G1 X81.81 Y85.359 E.23288
G1 X81.275 Y85.359 E.01681
G1 X76.572 Y80.656 E.2091
G1 X76.572 Y81.19 E.01681
G1 X80.741 Y85.359 E.18533
G1 X80.206 Y85.359 E.01681
G1 X76.572 Y81.725 E.16155
G1 X76.572 Y82.26 E.01681
G1 X79.671 Y85.358 E.13778
G1 X79.136 Y85.358 E.01681
G1 X76.572 Y82.795 E.114
G1 X76.572 Y83.329 E.01681
G1 X78.602 Y85.358 E.09022
G1 X78.067 Y85.358 E.01681
G1 X76.572 Y83.864 E.06645
G1 X76.572 Y84.399 E.01681
G1 X77.532 Y85.358 E.04267
G1 X76.997 Y85.358 E.01681
G1 X76.403 Y84.764 E.02644
M204 P1000
; stop printing object back-ball-joint.stl id:0 copy 0
M106 S84.15
;LAYER_CHANGE
;Z:0.4
;HEIGHT:0.2
;BEFORE_LAYER_CHANGE
G92 E0.0
;0.4


G1 E-2.24 F4200
;WIPE_START
G1 F7200
G1 X76.997 Y85.358 E-.46609
G1 X77.532 Y85.358 E-.29633
G1 X77.341 Y85.168 E-.14958
;WIPE_END
G1 E-.048 F4200
G1 Z.4 F720
;AFTER_LAYER_CHANGE
;0.4
M104 S210 ; set temperature
G1 Z.6
G1 X73.125 Y85.168 F9000
G1 Z.4 F720
G1 E3.2 F2400
;TYPE:Skirt/Brim
;WIDTH:0.42
G1 X73.125 Y76.273 E.27889
G1 X73.517 Y74.966 E.04278
G1 X75.164 Y73.92 E.06117
G1 X84.334 Y72.625 E.29036
G1 X104.497 Y72.625 E.63223
G1 X105.805 Y73.017 E.04278
G1 X106.681 Y74.062 E.04278
G1 X106.875 Y75.002 E.03008
G1 X106.875 Y104.998 E.9405
G1 X106.483 Y106.305 E.04278
M73 P3 R36
G1 X105.437 Y107.181 E.04278
G1 X104.497 Y107.375 E.03008
G1 X75.503 Y107.375 E.90912
G1 X74.195 Y106.983 E.04278
G1 X73.319 Y105.938 E.04278
G1 X73.125 Y104.998 E.03008
G1 X73.125 Y85.228 E.61989
; printing object back-ball-joint.stl id:0 copy 0
G1 E-2.24 F4200
;WIPE_START
G1 F7200
G1 X73.125 Y83.582 E-.912
;WIPE_END
G1 E-.048 F4200
G1 Z.6 F720
G1 X84.765 Y76.739 F9000
G1 Z.4 F720
G1 E3.2 F2400
M204 P800
;TYPE:Perimeter
;WIDTH:0.449999
G1 X84.903 Y76.565 E.00753
G1 X84.966 Y76.296 E.00934
G1 X84.966 Y75.634 E.0224
G1 X103.865 Y75.634 E.63974
G1 X103.865 Y86.629 E.37216
;TYPE:Overhang perimeter
G1 F1500
G1 X103.865 Y89.261 E.0891
G1 X103.865 Y104.366 E.51128
G1 X76.135 Y104.366 E.93865
G1 X76.135 Y86.628 E.6004
;TYPE:Perimeter
G1 F2400
G1 X76.135 Y76.907 E.32907
G1 X84.355 Y76.907 E.27825
G1 X84.491 Y76.891 E.00464
G1 X84.722 Y76.779 E.00868
M204 P1000
G1 X84.483 Y76.454 F9000
M204 P800
;TYPE:External perimeter
G1 F1800
G1 X84.558 Y76.296 E.00592
G1 X84.558 Y75.227 E.03618
G1 X104.273 Y75.227 E.66729
G1 X104.273 Y86.629 E.38594
;TYPE:Overhang perimeter
G1 F1500
G1 X104.273 Y89.261 E.0891
G1 X104.273 Y104.773 E.52506
G1 X75.728 Y104.773 E.96621
G1 X75.728 Y86.628 E.61418
;TYPE:External perimeter
G1 F1800
G1 X75.728 Y76.499 E.34285
G1 X84.355 Y76.499 E.29203
G1 X84.427 Y76.474 E.00259
M204 P1000
G1 X84.651 Y76.504 F9000
G1 E-2.24 F4200
;WIPE_START
G1 F7200
G1 X84.558 Y76.296 E-.12263
G1 X84.558 Y75.227 E-.59237
G1 X84.914 Y75.227 E-.197
;WIPE_END
G1 E-.048 F4200
G1 Z.6 F720
G1 X76.256 Y83.625 F9000
G1 Z.4 F720
G1 E3.2 F2400
;TYPE:Bridge infill
;WIDTH:0.43605
G1 F1500
G1 X103.57 Y83.625 E.89288
G1 X103.57 Y84.018 E.01285
G1 X76.43 Y84.018 E.8872
G1 X76.43 Y84.411 E.01285
G1 X103.57 Y84.411 E.8872
G1 X103.57 Y84.804 E.01285
G1 X76.43 Y84.804 E.8872
G1 X76.43 Y85.197 E.01285
G1 X103.57 Y85.197 E.8872
G1 X103.57 Y85.591 E.01285
G1 X76.43 Y85.591 E.8872
G1 X76.43 Y85.984 E.01285
G1 X103.57 Y85.984 E.8872
G1 X103.57 Y86.377 E.01285
G1 X76.43 Y86.377 E.8872
G1 X76.43 Y86.77 E.01285
G1 X103.57 Y86.77 E.8872
G1 X103.57 Y87.163 E.01285
G1 X76.43 Y87.163 E.8872
G1 X76.43 Y87.556 E.01285
M73 P4 R36
G1 X103.57 Y87.556 E.8872
G1 X103.57 Y87.949 E.01285
G1 X76.43 Y87.949 E.8872
G1 X76.43 Y88.342 E.01285
G1 X103.57 Y88.342 E.8872
G1 X103.57 Y88.736 E.01285
G1 X76.43 Y88.736 E.8872
G1 X76.43 Y89.129 E.01285
G1 X103.57 Y89.129 E.8872
G1 X103.57 Y89.522 E.01285
M73 P4 R35
G1 X76.43 Y89.522 E.8872
G1 X76.43 Y89.915 E.01285
G1 X103.57 Y89.915 E.8872
G1 X103.57 Y90.308 E.01285
G1 X76.43 Y90.308 E.8872
G1 X76.43 Y90.701 E.01285
G1 X103.57 Y90.701 E.8872
G1 X103.57 Y91.094 E.01285
G1 X76.43 Y91.094 E.8872
G1 X76.43 Y91.487 E.01285
G1 X103.57 Y91.487 E.8872
G1 X103.57 Y91.881 E.01285
G1 X76.43 Y91.881 E.8872
G1 X76.43 Y92.274 E.01285
G1 X103.57 Y92.274 E.8872
G1 X103.57 Y92.667 E.01285
G1 X76.43 Y92.667 E.8872
G1 X76.43 Y93.06 E.01285
G1 X103.57 Y93.06 E.8872
G1 X103.57 Y93.453 E.01285
G1 X76.43 Y93.453 E.8872
G1 X76.43 Y93.846 E.01285
G1 X103.57 Y93.846 E.8872
G1 X103.57 Y94.239 E.01285
G1 X76.43 Y94.239 E.8872
G1 X76.43 Y94.633 E.01285
G1 X103.57 Y94.633 E.8872
G1 X103.57 Y95.026 E.01285
G1 X76.43 Y95.026 E.8872
G1 X76.43 Y95.419 E.01285
G1 X103.57 Y95.419 E.8872
G1 X103.57 Y95.812 E.01285
M73 P5 R35
G1 X76.43 Y95.812 E.8872
G1 X76.43 Y96.205 E.01285
G1 X103.57 Y96.205 E.8872
G1 X103.57 Y96.598 E.01285
G1 X76.43 Y96.598 E.8872
G1 X76.43 Y96.991 E.01285
G1 X103.57 Y96.991 E.8872
G1 X103.57 Y97.384 E.01285
G1 X76.43 Y97.384 E.8872
G1 X76.43 Y97.778 E.01285
G1 X103.57 Y97.778 E.8872
G1 X103.57 Y98.171 E.01285
G1 X76.43 Y98.171 E.8872
G1 X76.43 Y98.564 E.01285
G1 X103.57 Y98.564 E.8872
G1 X103.57 Y98.957 E.01285
G1 X76.43 Y98.957 E.8872
G1 X76.43 Y99.35 E.01285
G1 X103.57 Y99.35 E.8872
G1 X103.57 Y99.743 E.01285
G1 X76.43 Y99.743 E.8872
G1 X76.43 Y100.136 E.01285
G1 X103.57 Y100.136 E.8872
G1 X103.57 Y100.529 E.01285
G1 X76.43 Y100.529 E.8872
G1 X76.43 Y100.923 E.01285
G1 X103.57 Y100.923 E.8872
G1 X103.57 Y101.316 E.01285
G1 X76.43 Y101.316 E.8872
G1 X76.43 Y101.709 E.01285
G1 X103.57 Y101.709 E.8872
G1 X103.57 Y102.102 E.01285
G1 X76.43 Y102.102 E.8872
G1 X76.43 Y102.495 E.01285
G1 X103.57 Y102.495 E.8872
G1 X103.57 Y102.888 E.01285
G1 X76.43 Y102.888 E.8872
G1 X76.43 Y103.281 E.01285
G1 X103.57 Y103.281 E.8872
G1 X103.57 Y103.675 E.01285
M73 P6 R35
G1 X76.43 Y103.675 E.8872
G1 X76.43 Y104.068 E.01285
G1 X103.744 Y104.068 E.89288
G1 E-2.24 F4200
;WIPE_START
G1 F7200
G1 X102.099 Y104.068 E-.912
;WIPE_END
G1 E-.048 F4200
G1 Z.6 F720
G1 X103.743 Y82.571 F9000
G1 Z.4 F720
G1 E3.2 F2400
;TYPE:Solid infill
;WIDTH:0.456792
G1 F4800
G1 X103.089 Y83.225 E.03183
G1 X102.504 Y83.225 E.02014
G1 X103.56 Y82.169 E.0514
G1 X103.56 Y81.584 E.02014
G1 X101.919 Y83.225 E.07988
G1 X101.333 Y83.225 E.02014
G1 X103.56 Y80.998 E.10837
G1 X103.56 Y80.413 E.02014
G1 X100.748 Y83.225 E.13685
G1 X100.163 Y83.225 E.02014
G1 X103.56 Y79.828 E.16533
G1 X103.56 Y79.243 E.02014
G1 X99.578 Y83.225 E.19382
G1 X98.992 Y83.225 E.02014
G1 X103.56 Y78.657 E.2223
G1 X103.56 Y78.072 E.02014
G1 X98.407 Y83.225 E.25078
G1 X97.822 Y83.225 E.02014
G1 X103.56 Y77.487 E.27927
G1 X103.56 Y76.901 E.02014
G1 X97.237 Y83.225 E.30775
G1 X96.651 Y83.225 E.02014
G1 X103.56 Y76.316 E.33623
G1 X103.56 Y75.939 E.01296
G1 X103.351 Y75.939 E.00718
G1 X96.066 Y83.225 E.35456
G1 X95.481 Y83.225 E.02014
G1 X102.766 Y75.939 E.35456
G1 X102.181 Y75.939 E.02014
G1 X94.895 Y83.225 E.35456
G1 X94.31 Y83.225 E.02014
G1 X101.596 Y75.939 E.35456
G1 X101.01 Y75.939 E.02014
G1 X93.725 Y83.225 E.35456
G1 X93.14 Y83.225 E.02014
G1 X100.425 Y75.939 E.35456
G1 X99.84 Y75.939 E.02014
G1 X92.554 Y83.225 E.35456
G1 X91.969 Y83.225 E.02014
G1 X99.254 Y75.939 E.35456
G1 X98.669 Y75.939 E.02014
G1 X91.384 Y83.225 E.35456
G1 X90.798 Y83.225 E.02014
G1 X98.084 Y75.939 E.35456
G1 X97.498 Y75.939 E.02014
G1 X90.213 Y83.225 E.35456
G1 X89.628 Y83.225 E.02014
G1 X96.913 Y75.939 E.35456
G1 X96.328 Y75.939 E.02014
G1 X89.042 Y83.225 E.35456
G1 X88.457 Y83.225 E.02014
G1 X95.742 Y75.939 E.35456
G1 X95.157 Y75.939 E.02014
G1 X87.872 Y83.225 E.35456
G1 X87.287 Y83.225 E.02014
G1 X94.572 Y75.939 E.35456
G1 X93.987 Y75.939 E.02014
G1 X86.701 Y83.225 E.35456
G1 X86.116 Y83.225 E.02014
G1 X93.401 Y75.939 E.35456
G1 X92.816 Y75.939 E.02014
G1 X85.531 Y83.225 E.35456
G1 X84.945 Y83.225 E.02014
G1 X92.231 Y75.939 E.35456
G1 X91.645 Y75.939 E.02014
G1 X84.36 Y83.225 E.35456
G1 X83.775 Y83.225 E.02014
G1 X91.06 Y75.939 E.35456
G1 X90.475 Y75.939 E.02014
G1 X83.189 Y83.225 E.35456
G1 X82.604 Y83.225 E.02014
G1 X89.889 Y75.939 E.35456
G1 X89.304 Y75.939 E.02014
G1 X82.019 Y83.225 E.35456
G1 X81.433 Y83.225 E.02014
G1 X88.719 Y75.939 E.35456
G1 X88.134 Y75.939 E.02014
G1 X80.848 Y83.225 E.35456
G1 X80.263 Y83.225 E.02014
G1 X87.548 Y75.939 E.35456
G1 X86.963 Y75.939 E.02014
G1 X79.678 Y83.225 E.35456
G1 X79.092 Y83.225 E.02014
G1 X86.378 Y75.939 E.35456
G1 X85.792 Y75.939 E.02014
G1 X78.507 Y83.225 E.35456
G1 X77.922 Y83.225 E.02014
G1 X83.944 Y77.203 E.29309
G1 X83.358 Y77.203 E.02017
G1 X77.336 Y83.225 E.29305
G1 X76.751 Y83.225 E.02014
G1 X82.772 Y77.204 E.29302
G1 X82.186 Y77.205 E.02017
G1 X76.44 Y82.951 E.27964
G1 X76.44 Y82.365 E.02014
G1 X81.6 Y77.205 E.25112
G1 X81.014 Y77.206 E.02017
G1 X76.44 Y81.78 E.2226
G1 X76.44 Y81.195 E.02014
G1 X80.428 Y77.207 E.19408
G1 X79.842 Y77.208 E.02017
G1 X76.44 Y80.609 E.16556
G1 X76.44 Y80.024 E.02014
G1 X79.256 Y77.208 E.13704
G1 X78.67 Y77.209 E.02017
G1 X76.44 Y79.439 E.10852
G1 X76.44 Y78.853 E.02014
G1 X78.084 Y77.21 E.08
G1 X77.498 Y77.21 E.02017
G1 X76.44 Y78.268 E.05148
G1 X76.44 Y77.683 E.02014
G1 X77.095 Y77.028 E.03188
; stop printing object back-ball-joint.stl id:0 copy 0
M106 S170.85
;LAYER_CHANGE
;Z:0.6
;HEIGHT:0.2
;BEFORE_LAYER_CHANGE
G92 E0.0
;0.6


G1 E-2.24 F4200
;WIPE_START
G1 F7200
G1 X76.44 Y77.683 E-.51341
G1 X76.44 Y78.268 E-.32436
G1 X76.535 Y78.173 E-.07423
;WIPE_END
G1 E-.048 F4200
G1 Z.6 F720
;AFTER_LAYER_CHANGE
;0.6
G1 Z.8
G1 X73.125 Y78.173 F9000
G1 Z.6 F720
G1 E3.2 F2400
;TYPE:Skirt/Brim
;WIDTH:0.42
G1 X73.125 Y76.273 E.0596
G1 X73.517 Y74.966 E.04278
G1 X75.164 Y73.92 E.06117
G1 X84.334 Y72.625 E.29036
G1 X104.497 Y72.625 E.63223
G1 X105.805 Y73.017 E.04278
G1 X106.681 Y74.062 E.04278
G1 X106.875 Y75.002 E.03008
G1 X106.875 Y104.998 E.9405
G1 X106.483 Y106.305 E.04278
