; generated by PrusaSlicer 2.5.0+win64 on 2022-09-25 at 15:40:59 UTC


;
;

;
;
; 

; external perimeters extrusion width = 0.45mm
; perimeters extrusion width = 0.45mm
; infill extrusion width = 0.45mm
; solid infill extrusion width = 0.45mm
; top infill extrusion width = 0.40mm
; first layer extrusion width = 0.42mm

M73 P0 R73
M201 X2500 Y2500 Z400 E5000 ; sets maximum accelerations, mm/sec^2
M203 X180 Y180 Z12 E80 ; sets maximum feedrates, mm / sec
M204 P1250 R1250 T2500 ; sets acceleration (P, T) and retract acceleration (R), mm/sec^2
M205 X8.00 Y8.00 Z2.00 E10.00 ; sets the jerk limits, mm/sec
M205 S0 T0 ; sets the minimum extruding and travel feed rate, mm/sec
M107
;TYPE:Custom
M862.3 P "MINI" ; printer model check
G90 ; use absolute coordinates
M83 ; extruder relative mode
M104 S170 ; set extruder temp for bed leveling
M140 S60 ; set bed temp
M109 R170 ; wait for bed leveling temp
M190 S60 ; wait for bed temp
M204 T1250 ; set travel acceleration
G28 ; home all without mesh bed level
G29 ; mesh bed leveling 
M204 T2500 ; restore travel acceleration
M104 S215 ; set extruder temp
G92 E0
G1 Y-2 X179 F2400
G1 Z3 F720
M109 S215 ; wait for extruder temp

; intro line
G1 X170 F1000
G1 Z0.2 F720
G1 X110 E8 F900
G1 X40 E10 F700
G92 E0

M221 S95 ; set flow
G21 ; set units to millimeters
G90 ; use absolute coordinates
M83 ; use relative distances for extrusion
M900 K0.2 ; Filament gcode LA 1.5
; ; Filament gcode LA 1.0
M107
;LAYER_CHANGE
;Z:0.2
;HEIGHT:0.2
;BEFORE_LAYER_CHANGE
G92 E0.0
;0.2


G1 E-3.2 F4200
M73 P0 R72
G1 Z.2 F720
;AFTER_LAYER_CHANGE
;0.2
G1 Z.4
G1 X53.568 Y74.485 F9000
G1 Z.2 F720
G1 E3.2 F2400
M204 P800
;TYPE:Skirt/Brim
;WIDTH:0.42
G1 F1200
G1 X54.719 Y73.836 E.0414
G1 X55.434 Y73.573 E.0239
G1 X57.359 Y73.325 E.06085
G1 X93.286 Y73.364 E1.12649
G1 X96.362 Y73.755 E.09722
G1 X128.02 Y79.345 E1.00797
G1 X129.262 Y79.718 E.04067
G1 X130.16 Y80.198 E.0319
G1 X130.751 Y80.663 E.0236
G1 X131.281 Y81.258 E.02497
G1 X131.804 Y82.255 E.0353
G1 X132.981 Y87.918 E.18136
G1 X133.176 Y89.376 E.04611
G1 X133.016 Y91.98 E.0818
G1 X131.912 Y97.081 E.16365
G1 X131.456 Y98.176 E.03719
G1 X130.992 Y98.79 E.02411
G1 X130.16 Y99.497 E.03424
G1 X129.262 Y99.977 E.03192
G1 X128.195 Y100.313 E.03509
G1 X96.384 Y106.241 E1.01459
G1 X93.917 Y106.594 E.07815
G1 X86.785 Y106.686 E.22363
G1 X57.192 Y106.667 E.92788
G1 X55.656 Y106.475 E.04853
G1 X54.227 Y105.976 E.04746
G1 X53.273 Y105.278 E.03706
G1 X52.706 Y104.583 E.02813
G1 X52.187 Y103.261 E.04454
G1 X52.142 Y76.894 E.82671
G1 X52.522 Y75.603 E.04218
G1 X52.738 Y75.267 E.01254
G1 X53.525 Y74.526 E.03389
M204 P1000
; printing object base-arm.stl id:0 copy 0
G1 E-2.24 F4200
;WIPE_START
G1 F7200
G1 X54.719 Y73.836 E-.76403
G1 X54.969 Y73.744 E-.14797
;WIPE_END
G1 E-.048 F4200
G1 Z.4 F720
G1 X128.153 Y87.812 F9000
G1 Z.2 F720
G1 E3.2 F2400
M204 P800
;TYPE:Perimeter
;WIDTH:0.419999
G1 F1200
G1 X128.234 Y87.83 E.0026
G1 X129.639 Y87.83 E.04404
G1 X129.727 Y88.107 E.00912
G1 X129.922 Y89.241 E.03606
G1 X129.946 Y89.499 E.00813
G1 X129.955 Y90.055 E.01743
G1 X129.905 Y91.025 E.03047
G1 X129.775 Y91.767 E.02361
G1 X129.62 Y92.256 E.01609
G1 X128.125 Y92.266 E.04687
G1 X127.899 Y92.366 E.00774
G1 X127.739 Y92.548 E.00761
G1 X127.669 Y92.821 E.00884
G1 X127.655 Y96.264 E.10794
G1 X127.392 Y96.458 E.01025
G1 X126.901 Y96.576 E.01586
G1 X105.919 Y96.589 E.65787
G1 X105.411 Y96.548 E.01597
G1 X104.983 Y96.381 E.0144
G1 X104.607 Y96.043 E.01586
G1 X104.396 Y95.909 E.00784
G1 X104.155 Y95.878 E.00762
G1 X103.907 Y95.961 E.00817
G1 X103.726 Y96.142 E.00804
G1 X102.593 Y97.953 E.06697
G1 X102.191 Y98.471 E.02055
G1 X101.77 Y98.831 E.01738
G1 X101.25 Y99.399 E.02414
G1 X100.737 Y99.876 E.02196
G1 X99.351 Y100.796 E.05217
G1 X99.123 Y101.01 E.00979
G1 X98.527 Y101.322 E.02111
G1 X96.331 Y102.235 E.07456
G1 X95.346 Y102.426 E.03146
G1 X95.013 Y102.533 E.01098
G1 X94.595 Y102.623 E.01338
G1 X92.755 Y102.744 E.05784
G1 X92.504 Y102.803 E.00807
G1 X89.478 Y102.763 E.0949
G1 X85.36 Y102.647 E.12915
G1 X57.682 Y102.798 E.86785
G1 X57.081 Y102.625 E.01959
G1 X57.141 Y97.654 E.15586
G1 X57.102 Y77.387 E.63548
G1 X57.576 Y77.288 E.01516
G1 X61.775 Y77.364 E.13168
G1 X79.252 Y77.338 E.54798
G1 X89.125 Y77.385 E.30958
G1 X89.619 Y77.217 E.01636
G1 X92.364 Y77.198 E.08607
G1 X92.755 Y77.256 E.01238
G1 X94.836 Y77.408 E.06543
G1 X95.346 Y77.575 E.01684
G1 X96.317 Y77.762 E.03101
G1 X97.488 Y78.253 E.0398
G1 X98.38 Y78.602 E.03004
G1 X99.133 Y79.001 E.02671
G1 X99.351 Y79.204 E.00934
G1 X100.55 Y80 E.04513
G1 X101.091 Y80.427 E.0216
G1 X101.534 Y80.923 E.02085
G1 X101.932 Y81.248 E.01612
G1 X102.612 Y82.044 E.03283
G1 X102.75 Y82.313 E.00945
G1 X103.756 Y83.776 E.05568
G1 X103.979 Y83.926 E.00841
G1 X104.241 Y83.957 E.00829
G1 X104.512 Y83.849 E.00915
G1 X104.832 Y83.463 E.01573
G1 X105.021 Y83.291 E.00801
G1 X105.302 Y83.181 E.00946
G1 X105.829 Y83.106 E.01668
G1 X126.62 Y83.106 E.65191
G1 X127.014 Y83.139 E.01238
G1 X127.353 Y83.229 E.01099
G1 X127.574 Y83.349 E.00788
G1 X127.669 Y83.483 E.00516
G1 X127.669 Y87.264 E.11854
G1 X127.687 Y87.408 E.00456
G1 X127.789 Y87.613 E.00718
G1 X127.995 Y87.777 E.00824
G1 X128.095 Y87.799 E.0032
M204 P1000
G1 X128.234 Y87.453 F9000
M204 P800
;TYPE:External perimeter
G1 F1200
G1 X129.914 Y87.453 E.05267
G1 X130.095 Y88.017 E.01857
G1 X130.293 Y89.177 E.03689
G1 X130.323 Y89.492 E.00994
G1 X130.333 Y90.061 E.01784
G1 X130.281 Y91.068 E.0316
G1 X130.134 Y91.902 E.02655
G1 X129.892 Y92.633 E.02415
G1 X128.234 Y92.633 E.05197
G1 X128.101 Y92.688 E.00454
G1 X128.046 Y92.821 E.00451
G1 X128.046 Y96.176 E.10518
G1 X128 Y96.439 E.00837
G1 X127.852 Y96.618 E.00728
G1 X127.451 Y96.838 E.01434
G1 X126.938 Y96.954 E.0165
G1 X105.919 Y96.966 E.65903
G1 X105.336 Y96.92 E.01835
G1 X104.936 Y96.795 E.01312
G1 X104.641 Y96.613 E.01087
G1 X104.307 Y96.283 E.01472
G1 X104.181 Y96.255 E.00406
G1 X104.045 Y96.342 E.00505
G1 X102.786 Y98.356 E.07447
G1 X102.458 Y98.74 E.01585
G1 X102.05 Y99.083 E.0167
G1 X101.354 Y99.844 E.03234
G1 X100.965 Y100.177 E.01607
G1 X99.56 Y101.11 E.05289
G1 X99.429 Y101.271 E.00648
G1 X98.84 Y101.601 E.02117
G1 X97.622 Y102.1 E.04128
G1 X96.71 Y102.499 E.03122
G1 X96.227 Y102.639 E.01576
G1 X95.413 Y102.797 E.026
G1 X94.921 Y102.961 E.01627
G1 X94.631 Y102.998 E.00914
G1 X92.779 Y103.12 E.0582
G1 X92.555 Y103.18 E.00728
G1 X89.47 Y103.14 E.09675
G1 X85.365 Y103.024 E.12874
G1 X57.629 Y103.175 E.86965
G1 X56.917 Y102.97 E.02326
G1 X56.702 Y102.818 E.00825
G1 X56.764 Y97.658 E.16181
G1 X56.725 Y77.093 E.64479
G1 X56.817 Y77.04 E.00333
G1 X57.193 Y77.007 E.01183
G1 X57.467 Y76.89 E.00933
G1 X57.583 Y76.911 E.00369
G1 X61.774 Y76.987 E.13145
G1 X79.253 Y76.961 E.54802
G1 X89.074 Y77.011 E.30794
G1 X89.548 Y76.84 E.01582
M73 P1 R72
G1 X92.554 Y76.819 E.09425
G1 X92.779 Y76.88 E.00732
G1 X94.921 Y77.039 E.06732
G1 X95.418 Y77.205 E.01643
G1 X96.427 Y77.399 E.03224
G1 X97.623 Y77.901 E.04064
G1 X98.538 Y78.259 E.03081
G1 X99.431 Y78.731 E.03168
G1 X99.56 Y78.89 E.0064
G1 X100.963 Y79.821 E.05281
G1 X101.355 Y80.157 E.0162
G1 X101.815 Y80.672 E.02164
G1 X102.195 Y80.975 E.01524
G1 X102.996 Y81.913 E.03866
G1 X103.063 Y82.103 E.00634
G1 X104.043 Y83.53 E.05427
G1 X104.191 Y83.583 E.00495
G1 X104.324 Y83.51 E.00475
G1 X104.652 Y83.075 E.01708
G1 X104.824 Y82.97 E.00631
G1 X105.189 Y82.821 E.01237
G1 X105.81 Y82.729 E.01969
G1 X126.62 Y82.729 E.65248
G1 X127.05 Y82.764 E.01353
G1 X127.466 Y82.87 E.01343
G1 X127.771 Y83.028 E.01079
G1 X128 Y83.256 E.01013
G1 X128.046 Y83.437 E.00586
G1 X128.046 Y87.264 E.12001
G1 X128.086 Y87.381 E.00386
G1 X128.18 Y87.426 E.00329
M204 P1000
G1 X128.338 Y87.839 F9000
G1 E-2.24 F4200
;WIPE_START
G1 F7200
G1 X129.826 Y87.452 E-.912
;WIPE_END
G1 E-.048 F4200
G1 Z.4 F720
G1 X76.505 Y92.014 F9000
G1 Z.2 F720
G1 E3.2 F2400
M204 P800
;TYPE:Perimeter
G1 F1200
G1 X76.51 Y92.057 E.00136
G1 X76.394 Y92.325 E.00914
G1 X76.35 Y92.374 E.00206
G1 X71.57 Y97.153 E.21194
G1 X71.16 Y97.488 E.0166
G1 X70.373 Y97.838 E.02703
G1 X69.508 Y97.954 E.02736
G1 X69.288 Y97.934 E.00692
G1 X68.408 Y97.676 E.02874
G1 X67.827 Y97.312 E.0215
G1 X67.692 Y97.184 E.00582
G1 X67.132 Y96.436 E.02931
G1 X67.032 Y96.218 E.0075
G1 X66.824 Y95.209 E.03232
G1 X66.824 Y84.791 E.32663
G1 X67.032 Y83.782 E.03232
G1 X67.132 Y83.564 E.0075
G1 X67.692 Y82.816 E.02931
G1 X68.234 Y82.406 E.02129
G1 X69.289 Y82.066 E.03476
G1 X69.509 Y82.046 E.00692
G1 X70.217 Y82.122 E.02233
G1 X71.022 Y82.43 E.02702
G1 X71.57 Y82.847 E.02161
G1 X76.417 Y87.694 E.21492
G1 X76.551 Y87.906 E.00788
G1 X76.574 Y88.192 E.00899
G1 X76.437 Y88.571 E.01264
G1 X76.334 Y88.644 E.00396
G1 X76.334 Y91.471 E.08863
G1 X76.477 Y91.767 E.0103
G1 X76.498 Y91.955 E.00593
M204 P1000
G1 X76.136 Y92.008 F9000
M204 P800
;TYPE:External perimeter
G1 F1200
G1 X76.084 Y92.107 E.00351
G1 X71.304 Y96.887 E.21194
G1 X70.877 Y97.222 E.017
G1 X70.229 Y97.49 E.02202
G1 X69.468 Y97.579 E.02402
G1 X68.515 Y97.314 E.03101
G1 X68.039 Y97.001 E.01786
G1 X67.434 Y96.21 E.03123
G1 X67.201 Y95.209 E.03222
G1 X67.201 Y84.791 E.32663
G1 X67.401 Y83.863 E.02978
G1 X67.994 Y83.042 E.03176
G1 X68.448 Y82.716 E.01752
G1 X69.395 Y82.427 E.03104
G1 X70.177 Y82.497 E.0246
G1 X70.877 Y82.778 E.02368
G1 X71.304 Y83.113 E.017
G1 X76.151 Y87.96 E.21492
G1 X76.205 Y88.108 E.00493
G1 X76.086 Y88.433 E.01086
G1 X75.957 Y88.524 E.00497
G1 X75.957 Y91.591 E.09614
G1 X76.019 Y91.635 E.0024
G1 X76.118 Y91.951 E.01038
M204 P1000
G1 X76.221 Y92.081 F9000
G1 E-2.24 F4200
;WIPE_START
G1 F7200
G1 X76.084 Y92.107 E-.08879
G1 X75.033 Y93.158 E-.82321
;WIPE_END
G1 E-.048 F4200
G1 Z.4 F720
G1 X129.683 Y88.519 F9000
G1 Z.2 F720
G1 E3.2 F2400
M204 P800
;TYPE:Solid infill
;WIDTH:0.421833
G1 F1200
G1 X129.277 Y88.113 E.0181
G1 X128.741 Y88.113 E.01689
G1 X129.794 Y89.166 E.04692
M204 P1000
G1 E-2.24 F4200
;WIPE_START
G1 F7200
G1 X128.741 Y88.113 E-.82529
G1 X128.898 Y88.113 E-.08671
;WIPE_END
G1 E-.048 F4200
G1 Z.4 F720
G1 X126.527 Y83.219 F9000
G1 Z.2 F720
G1 E3.2 F2400
M204 P800
G1 F1200
G1 X127.386 Y84.078 E.03827
G1 X127.386 Y84.614 E.01688
G1 X126.161 Y83.389 E.05459
G1 X125.625 Y83.389 E.01688
G1 X127.386 Y85.15 E.07847
G1 X127.386 Y85.686 E.01688
G1 X125.089 Y83.389 E.10234
G1 X124.553 Y83.389 E.01688
G1 X127.386 Y86.222 E.12622
G1 X127.386 Y86.757 E.01688
G1 X124.017 Y83.389 E.1501
G1 X123.481 Y83.389 E.01688
G1 X127.389 Y87.297 E.17413
G1 X127.413 Y87.479 E.00579
G1 X127.469 Y87.632 E.00515
G1 X127.567 Y87.789 E.00583
G1 X127.73 Y87.947 E.00714
G1 X127.876 Y88.034 E.00537
G1 X128.069 Y88.097 E.00639
G1 X128.203 Y88.11 E.00423
G1 X129.664 Y89.572 E.06514
G1 X129.669 Y90.113 E.01704
G1 X122.946 Y83.389 E.29959
G1 X122.41 Y83.389 E.01688
G1 X129.643 Y90.622 E.32229
G1 X129.602 Y91.117 E.01565
G1 X121.874 Y83.389 E.34435
G1 X121.338 Y83.389 E.01688
G1 X129.522 Y91.573 E.36466
G1 X129.493 Y91.74 E.00535
G1 X129.415 Y91.973 E.00773
G1 X129.386 Y91.973 E.00092
G1 X120.802 Y83.389 E.38248
G1 X120.266 Y83.389 E.01688
G1 X128.85 Y91.973 E.38248
G1 X128.315 Y91.973 E.01688
G1 X119.73 Y83.389 E.38248
G1 X119.195 Y83.389 E.01688
G1 X127.864 Y92.059 E.3863
G1 X127.728 Y92.14 E.005
G1 X127.573 Y92.304 E.00709
G1 X118.659 Y83.389 E.39722
G1 X118.123 Y83.389 E.01688
G1 X127.407 Y92.673 E.41366
G1 X127.386 Y92.815 E.00452
G1 X127.386 Y93.188 E.01176
G1 X117.587 Y83.389 E.43662
G1 X117.051 Y83.389 E.01688
G1 X127.386 Y93.724 E.46049
G1 X127.386 Y94.26 E.01688
G1 X116.515 Y83.389 E.48437
G1 X115.979 Y83.389 E.01688
G1 X127.386 Y94.795 E.50825
G1 X127.386 Y95.331 E.01688
G1 X115.443 Y83.389 E.53212
G1 X114.908 Y83.389 E.01688
G1 X127.386 Y95.867 E.556
G1 X127.386 Y96.124 E.00809
G1 X127.205 Y96.222 E.00648
G1 X114.372 Y83.389 E.57183
G1 X113.836 Y83.389 E.01688
G1 X126.741 Y96.294 E.57501
G1 X126.205 Y96.294 E.01687
G1 X113.3 Y83.389 E.57502
G1 X112.764 Y83.389 E.01688
G1 X125.67 Y96.294 E.57503
G1 X125.134 Y96.295 E.01687
G1 X112.228 Y83.389 E.57505
G1 X111.692 Y83.389 E.01688
G1 X124.599 Y96.295 E.57506
G1 X124.063 Y96.295 E.01687
M73 P1 R71
G1 X111.157 Y83.389 E.57508
G1 X110.621 Y83.389 E.01688
G1 X123.527 Y96.296 E.57509
G1 X122.992 Y96.296 E.01687
G1 X110.085 Y83.389 E.5751
G1 X109.549 Y83.389 E.01688
G1 X122.456 Y96.296 E.57512
G1 X121.921 Y96.297 E.01687
G1 X109.013 Y83.389 E.57513
G1 X108.477 Y83.389 E.01688
G1 X121.385 Y96.297 E.57515
G1 X120.85 Y96.297 E.01687
G1 X107.941 Y83.389 E.57516
G1 X107.406 Y83.389 E.01688
G1 X120.314 Y96.298 E.57518
G1 X119.779 Y96.298 E.01687
G1 X106.87 Y83.389 E.57519
G1 X106.334 Y83.389 E.01688
G1 X119.243 Y96.298 E.5752
G1 X118.708 Y96.299 E.01687
G1 X105.802 Y83.393 E.57504
G1 X105.468 Y83.425 E.01058
G1 X105.339 Y83.466 E.00425
G1 X118.172 Y96.299 E.57181
G1 X117.636 Y96.299 E.01687
G1 X105.02 Y83.683 E.56215
G1 X104.781 Y83.979 E.012
G1 X117.101 Y96.299 E.54896
G1 X116.565 Y96.3 E.01687
G1 X104.32 Y84.055 E.54561
M204 P1000
G1 E-2.24 F4200
;WIPE_START
G1 F7200
G1 X105.484 Y85.218 E-.912
;WIPE_END
G1 E-.048 F4200
G1 Z.4 F720
G1 X102.689 Y82.423 F9000
G1 Z.2 F720
G1 E3.2 F2400
M204 P800
G1 F1200
G1 X101.656 Y81.39 E.04603
G1 X101.384 Y81.174 E.01094
G1 X100.893 Y80.63 E.02308
G1 X100.564 Y80.349 E.01362
G1 X99.187 Y79.435 E.05207
G1 X98.957 Y79.227 E.00977
G1 X116.03 Y96.3 E.76073
G1 X115.494 Y96.3 E.01687
G1 X97.919 Y78.725 E.7831
G1 X97.023 Y78.365 E.03045
M73 P2 R71
G1 X114.959 Y96.301 E.79918
G1 X114.423 Y96.301 E.01687
G1 X96.138 Y78.016 E.81475
G1 X95.473 Y77.887 E.02132
G1 X113.888 Y96.301 E.82049
G1 X113.352 Y96.302 E.01687
G1 X94.733 Y77.683 E.82961
G1 X94.156 Y77.641 E.01825
G1 X112.817 Y96.302 E.83148
G1 X112.281 Y96.302 E.01687
G1 X93.578 Y77.599 E.83335
G1 X93 Y77.558 E.01825
G1 X111.745 Y96.303 E.83523
G1 X111.21 Y96.303 E.01687
G1 X92.387 Y77.48 E.83868
G1 X91.855 Y77.484 E.01677
G1 X110.674 Y96.303 E.83853
G1 X110.139 Y96.304 E.01687
G1 X91.323 Y77.488 E.83838
G1 X90.791 Y77.491 E.01677
G1 X109.603 Y96.304 E.83823
G1 X109.068 Y96.304 E.01687
G1 X90.259 Y77.495 E.83808
G1 X89.727 Y77.499 E.01677
G1 X108.532 Y96.305 E.83793
G1 X107.997 Y96.305 E.01687
G1 X89.318 Y77.626 E.83226
G1 X89.075 Y77.672 E.00778
G1 X88.826 Y77.67 E.00785
G1 X107.461 Y96.305 E.83032
G1 X106.926 Y96.305 E.01687
G1 X88.288 Y77.668 E.83046
G1 X87.749 Y77.665 E.01697
G1 X106.39 Y96.306 E.83059
G1 X105.854 Y96.306 E.01687
G1 X87.21 Y77.662 E.83073
G1 X86.672 Y77.659 E.01697
G1 X105.186 Y96.174 E.82496
G1 X105.052 Y96.092 E.00495
G1 X104.668 Y95.729 E.01664
G1 X104.49 Y95.642 E.00623
G1 X104.275 Y95.595 E.00693
G1 X104.087 Y95.611 E.00595
G1 X86.133 Y77.656 E.79999
G1 X85.594 Y77.654 E.01697
G1 X103.702 Y95.761 E.80684
G1 X103.523 Y95.937 E.00789
G1 X103.453 Y96.048 E.00415
G1 X85.056 Y77.651 E.81974
G1 X84.517 Y77.648 E.01697
G1 X103.247 Y96.378 E.83455
G1 X103.04 Y96.707 E.01225
G1 X83.978 Y77.645 E.84935
G1 X83.44 Y77.642 E.01697
G1 X102.834 Y97.037 E.86415
G1 X102.627 Y97.366 E.01225
G1 X82.901 Y77.64 E.87896
G1 X82.362 Y77.637 E.01697
G1 X102.421 Y97.695 E.89376
G1 X102.207 Y98.017 E.01218
G1 X81.824 Y77.634 E.90823
G1 X81.285 Y77.631 E.01697
G1 X101.955 Y98.301 E.92099
G1 X101.666 Y98.548 E.01198
G1 X80.746 Y77.628 E.93211
G1 X80.208 Y77.626 E.01697
G1 X101.399 Y98.817 E.94424
G1 X101.143 Y99.097 E.01195
M73 P2 R70
G1 X79.669 Y77.623 E.95684
G1 X79.131 Y77.621 E.01695
M73 P3 R70
G1 X100.886 Y99.376 E.96936
G1 X100.598 Y99.623 E.01197
G1 X78.596 Y77.622 E.98033
G1 X78.061 Y77.622 E.01686
G1 X100.279 Y99.84 E.98998
G1 X99.957 Y100.054 E.01218
G1 X77.526 Y77.623 E.99947
G1 X76.991 Y77.624 E.01686
G1 X99.635 Y100.268 E1.00896
G1 X99.313 Y100.482 E.01218
G1 X76.456 Y77.625 E1.01845
G1 X75.921 Y77.626 E.01686
G1 X99.019 Y100.724 E1.02919
G1 X98.983 Y100.764 E.0017
G1 X98.689 Y100.929 E.01064
G1 X75.386 Y77.626 E1.03831
G1 X74.851 Y77.627 E.01686
G1 X98.324 Y101.101 E1.04591
G1 X97.946 Y101.258 E.01291
G1 X74.316 Y77.628 E1.05289
G1 X73.781 Y77.629 E.01686
G1 X97.567 Y101.416 E1.05987
G1 X97.189 Y101.573 E.01291
G1 X73.246 Y77.63 E1.06685
G1 X72.711 Y77.631 E.01686
G1 X96.81 Y101.73 E1.07382
G1 X96.432 Y101.888 E.01291
G1 X72.175 Y77.631 E1.0808
G1 X71.64 Y77.632 E.01686
G1 X96.016 Y102.008 E1.08612
G1 X95.567 Y102.095 E.01441
