; generated by PrusaSlicer 2.5.0+win64 on 2022-09-25 at 15:17:14 UTC


;
;

;
;
; 

; external perimeters extrusion width = 0.45mm
; perimeters extrusion width = 0.45mm
; infill extrusion width = 0.45mm
; solid infill extrusion width = 0.45mm
; top infill extrusion width = 0.40mm
; first layer extrusion width = 0.42mm

M73 P0 R16
M201 X2500 Y2500 Z400 E5000 ; sets maximum accelerations, mm/sec^2
M203 X180 Y180 Z12 E80 ; sets maximum feedrates, mm / sec
M204 P1250 R1250 T2500 ; sets acceleration (P, T) and retract acceleration (R), mm/sec^2
M205 X8.00 Y8.00 Z2.00 E10.00 ; sets the jerk limits, mm/sec
M205 S0 T0 ; sets the minimum extruding and travel feed rate, mm/sec
M107
;TYPE:Custom
M862.3 P "MINI" ; printer model check
G90 ; use absolute coordinates
M83 ; extruder relative mode
M104 S170 ; set extruder temp for bed leveling
M140 S60 ; set bed temp
M109 R170 ; wait for bed leveling temp
M190 S60 ; wait for bed temp
M204 T1250 ; set travel acceleration
G28 ; home all without mesh bed level
G29 ; mesh bed leveling 
M204 T2500 ; restore travel acceleration
M104 S215 ; set extruder temp
G92 E0
G1 Y-2 X179 F2400
G1 Z3 F720
M109 S215 ; wait for extruder temp

; intro line
G1 X170 F1000
G1 Z0.2 F720
G1 X110 E8 F900
G1 X40 E10 F700
G92 E0

M221 S95 ; set flow
G21 ; set units to millimeters
G90 ; use absolute coordinates
M83 ; use relative distances for extrusion
M900 K0.2 ; Filament gcode LA 1.5
; ; Filament gcode LA 1.0
M107
;LAYER_CHANGE
;Z:0.2
;HEIGHT:0.2
;BEFORE_LAYER_CHANGE
G92 E0.0
;0.2


M73 P0 R15
G1 E-3.2 F4200
M73 P1 R15
G1 Z.2 F720
;AFTER_LAYER_CHANGE
;0.2
G1 Z.4
G1 X79.084 Y79.694 F9000
G1 Z.2 F720
G1 E3.2 F2400
M204 P800
;TYPE:Skirt/Brim
;WIDTH:0.42
G1 F1200
G1 X79.747 Y79.046 E.02908
G1 X80.354 Y78.669 E.02238
G1 X81.015 Y78.415 E.02222
G1 X81.801 Y78.283 E.02498
G1 X98.074 Y78.277 E.51022
G1 X98.678 Y78.342 E.01906
G1 X99.445 Y78.575 E.02513
G1 X99.997 Y78.866 E.01958
G1 X100.478 Y79.23 E.0189
G1 X100.972 Y79.765 E.02283
G1 X101.288 Y80.255 E.01829
G1 X101.577 Y80.947 E.0235
G1 X101.704 Y81.529 E.01867
G1 X101.737 Y98.112 E.51996
G1 X101.506 Y99.291 E.03765
G1 X100.917 Y100.335 E.0376
G1 X100.254 Y100.983 E.02908
G1 X99.647 Y101.36 E.02239
G1 X98.845 Y101.651 E.02674
G1 X98.069 Y101.752 E.02455
G1 X81.903 Y101.751 E.50688
G1 X80.724 Y101.52 E.03765
M73 P2 R15
G1 X79.679 Y100.931 E.0376
G1 X79.032 Y100.268 E.02908
G1 X78.655 Y99.661 E.02239
G1 X78.364 Y98.859 E.02674
G1 X78.262 Y98.083 E.02455
G1 X78.264 Y81.917 E.50688
G1 X78.495 Y80.738 E.03765
G1 X79.054 Y79.746 E.03572
M204 P1000
G1 X79.379 Y79.929 F9000
M204 P800
G1 F1200
G1 X79.972 Y79.349 E.02603
G1 X80.517 Y79.008 E.02016
G1 X81.116 Y78.778 E.02011
G1 X81.82 Y78.659 E.02237
G1 X98.06 Y78.654 E.5092
G1 X98.609 Y78.713 E.01733
G1 X99.296 Y78.922 E.0225
G1 X99.797 Y79.186 E.01778
G1 X100.28 Y79.561 E.01917
G1 X100.669 Y79.99 E.01816
G1 X100.987 Y80.492 E.01862
G1 X101.236 Y81.126 E.02136
G1 X101.344 Y81.684 E.01784
G1 X101.36 Y98.095 E.51454
G1 X101.151 Y99.164 E.03415
G1 X100.621 Y100.102 E.0338
G1 X100.029 Y100.68 E.02594
G1 X99.483 Y101.021 E.02017
G1 X98.753 Y101.285 E.02433
G1 X98.055 Y101.376 E.02207
G1 X81.92 Y101.375 E.50592
G1 X80.851 Y101.165 E.03415
G1 X79.912 Y100.635 E.0338
G1 X79.334 Y100.043 E.02593
G1 X78.994 Y99.497 E.02017
G1 X78.73 Y98.768 E.02433
G1 X78.639 Y98.07 E.02207
G1 X78.64 Y81.934 E.50592
G1 X78.85 Y80.865 E.03415
G1 X79.349 Y79.981 E.03182
M204 P1000
; printing object c64-caps-cbm-stem-row2-u-cap.stl id:0 copy 0
G1 E-2.24 F4200
;WIPE_START
G1 F7200
G1 X79.972 Y79.349 E-.49203
G1 X80.517 Y79.008 E-.35625
G1 X80.625 Y78.967 E-.06372
;WIPE_END
G1 E-.048 F4200
G1 Z.4 F720
G1 X98.247 Y98.669 F9000
G1 Z.2 F720
G1 E3.2 F2400
M204 P800
;TYPE:External perimeter
;WIDTH:0.420519
G1 F1200
G1 X97.955 Y98.741 E.00945
G1 X82.071 Y98.74 E.49872
G1 X81.764 Y98.68 E.00983
;WIDTH:0.424816
G1 X81.564 Y98.568 E.00727
;WIDTH:0.426695
G1 X81.361 Y98.297 E.0108
G1 X81.277 Y97.9 E.01295
;WIDTH:0.420373
G1 X81.281 Y82.078 E.49657
;WIDTH:0.419779
G1 X81.283 Y82.047 E.001
;WIDTH:0.433422
G1 X81.395 Y81.706 E.01162
G1 X81.661 Y81.44 E.01222
G1 X82.094 Y81.309 E.0147
;WIDTH:0.421938
G1 X97.915 Y81.306 E.49863
;WIDTH:0.43878
G1 X98.262 Y81.407 E.01188
G1 X98.534 Y81.622 E.01143
;WIDTH:0.434352
G1 X98.658 Y81.807 E.00724
;WIDTH:0.422098
G1 X98.717 Y82.082 E.00887
;WIDTH:0.420974
G1 X98.722 Y97.963 E.49923
G1 X98.666 Y98.249 E.00914
;WIDTH:0.427541
M73 P3 R15
G1 X98.464 Y98.534 E.01118
G1 X98.3 Y98.643 E.0063
M204 P1000
G1 X98.003 Y98.493 F9000
G1 X98.077 Y98.339
M204 P800
;WIDTH:0.41866
G1 F1200
G1 X98.06 Y98.352 E.00064
;WIDTH:0.420519
G1 X82.071 Y98.363 E.50203
G1 X81.889 Y98.327 E.00582
;WIDTH:0.420254
G1 X81.734 Y98.196 E.00636
;WIDTH:0.420373
G1 X81.654 Y97.9 E.00961
G1 X81.658 Y82.078 E.49657
;WIDTH:0.433337
G1 X81.717 Y81.928 E.00526
G1 X81.868 Y81.77 E.00706
;WIDTH:0.432892
G1 X82.094 Y81.688 E.0078
;WIDTH:0.421938
G1 X97.916 Y81.684 E.49863
;WIDTH:0.43878
G1 X98.08 Y81.748 E.00582
G1 X98.322 Y81.985 E.01114
;WIDTH:0.42216
G1 X98.34 Y82.082 E.00312
;WIDTH:0.420974
G1 X98.342 Y98.011 E.50072
;WIDTH:0.41866
G1 X98.259 Y98.201 E.00647
G1 X98.125 Y98.303 E.00528
M204 P1000
G1 X98.081 Y98.359 F9000
; stop printing object c64-caps-cbm-stem-row2-u-cap.stl id:0 copy 0
M106 S84.15
;LAYER_CHANGE
;Z:0.4
;HEIGHT:0.2
;BEFORE_LAYER_CHANGE
G92 E0.0
;0.4


G1 E-2.24 F4200
;WIPE_START
G1 F7200
G1 X98.06 Y98.352 E-.04464
G1 X96.495 Y98.353 E-.86736
;WIPE_END
G1 E-.048 F4200
G1 Z.4 F720
;AFTER_LAYER_CHANGE
;0.4
M104 S210 ; set temperature
G1 Z.6
G1 X96.495 Y101.752 F9000
G1 Z.4 F720
G1 E3.2 F2400
;TYPE:Skirt/Brim
;WIDTH:0.42
G1 F1300
G1 X81.903 Y101.751 E.45753
G1 X80.724 Y101.52 E.03765
G1 X79.679 Y100.931 E.0376
G1 X79.032 Y100.268 E.02908
G1 X78.655 Y99.661 E.02239
G1 X78.364 Y98.859 E.02674
G1 X78.262 Y98.083 E.02455
G1 X78.264 Y81.917 E.50688
G1 X78.495 Y80.738 E.03765
G1 X79.084 Y79.694 E.0376
G1 X79.747 Y79.046 E.02908
G1 X80.354 Y78.669 E.02238
G1 X81.015 Y78.415 E.02222
G1 X81.801 Y78.283 E.02498
G1 X98.074 Y78.277 E.51022
G1 X98.678 Y78.342 E.01906
G1 X99.445 Y78.575 E.02513
G1 X99.997 Y78.866 E.01958
G1 X100.478 Y79.23 E.0189
G1 X100.972 Y79.765 E.02283
G1 X101.288 Y80.255 E.01829
G1 X101.577 Y80.947 E.0235
G1 X101.704 Y81.529 E.01867
G1 X101.737 Y98.112 E.51996
G1 X101.506 Y99.291 E.03765
G1 X100.917 Y100.335 E.0376
G1 X100.254 Y100.983 E.02908
G1 X99.647 Y101.36 E.02239
G1 X98.845 Y101.651 E.02674
G1 X98.069 Y101.752 E.02455
G1 X96.555 Y101.752 E.04746
G1 X96.555 Y101.375 F9000
G1 F1300
G1 X81.92 Y101.375 E.45887
G1 X80.851 Y101.165 E.03415
G1 X79.912 Y100.635 E.0338
G1 X79.334 Y100.043 E.02593
G1 X78.994 Y99.497 E.02017
G1 X78.73 Y98.768 E.02433
G1 X78.639 Y98.07 E.02207
G1 X78.64 Y81.934 E.50592
G1 X78.85 Y80.865 E.03415
G1 X79.38 Y79.927 E.0338
G1 X79.972 Y79.349 E.02594
G1 X80.517 Y79.008 E.02016
M73 P4 R15
G1 X81.116 Y78.778 E.02011
G1 X81.82 Y78.659 E.02237
G1 X98.06 Y78.654 E.5092
G1 X98.609 Y78.713 E.01733
G1 X99.296 Y78.922 E.0225
G1 X99.797 Y79.186 E.01778
G1 X100.28 Y79.561 E.01917
G1 X100.669 Y79.99 E.01816
G1 X100.987 Y80.492 E.01862
G1 X101.236 Y81.126 E.02136
G1 X101.344 Y81.684 E.01784
G1 X101.36 Y98.095 E.51454
G1 X101.151 Y99.164 E.03415
G1 X100.621 Y100.102 E.0338
G1 X100.029 Y100.68 E.02594
G1 X99.483 Y101.021 E.02017
G1 X98.753 Y101.285 E.02433
G1 X98.055 Y101.376 E.02207
G1 X96.615 Y101.375 E.04516
; printing object c64-caps-cbm-stem-row2-u-cap.stl id:0 copy 0
G1 E-2.24 F4200
;WIPE_START
G1 F7200
G1 X94.969 Y101.375 E-.912
;WIPE_END
G1 E-.048 F4200
G1 Z.6 F720
G1 X98.22 Y98.68 F9000
G1 Z.4 F720
G1 E3.2 F2400
M204 P800
;TYPE:External perimeter
;WIDTH:0.472623
G1 F1300
G1 X97.869 Y98.764 E.01287
G1 X84.089 Y98.766 E.49236
;WIDTH:0.467385
G1 X84.086 Y98.766 E.00013
;WIDTH:0.474885
G1 X82.129 Y98.763 E.07029
G1 X81.843 Y98.715 E.01042
;WIDTH:0.478841
G1 X81.619 Y98.591 E.00928
G1 X81.376 Y98.305 E.01361
;WIDTH:0.473266
G1 X81.281 Y97.912 E.01446
;WIDTH:0.471722
G1 X81.279 Y85.052 E.45852
;WIDTH:0.469223
G1 X81.279 Y85.049 E.0001
;WIDTH:0.478526
G1 X81.284 Y82.184 E.10376
;WIDTH:0.495543
G1 X81.341 Y81.892 E.01122
;WIDTH:0.519143
G1 X81.482 Y81.654 E.01096
G1 X81.785 Y81.409 E.01541
;WIDTH:0.511112
G1 X82.167 Y81.331 E.0152
;WIDTH:0.487917
G1 X97.779 Y81.329 E.57766
;WIDTH:0.502865
G1 X98.159 Y81.39 E.0147
;WIDTH:0.515242
G1 X98.417 Y81.543 E.01178
G1 X98.606 Y81.765 E.01146
;WIDTH:0.497897
G1 X98.715 Y82.135 E.01458
;WIDTH:0.482172
G1 X98.715 Y82.167 E.00116
;WIDTH:0.481464
G1 X98.722 Y85.347 E.11596
;WIDTH:0.468516
G1 X98.722 Y85.351 E.00014
;WIDTH:0.474862
G1 X98.72 Y97.916 E.4513
G1 X98.68 Y98.17 E.00923
;WIDTH:0.473093
G1 X98.535 Y98.453 E.01139
G1 X98.275 Y98.66 E.01186
M204 P1000
G1 X97.925 Y98.473 F9000
G1 X98.081 Y98.285
M204 P800
;WIDTH:0.468829
G1 F1300
G1 X97.922 Y98.331 E.00589
;WIDTH:0.472623
G1 X84.089 Y98.342 E.49424
;WIDTH:0.467385
G1 X84.087 Y98.342 E.00006
;WIDTH:0.474885
G1 X82.13 Y98.331 E.07029
G1 X81.946 Y98.296 E.00673
;WIDTH:0.473266
G1 X81.737 Y98.072 E.01095
G1 X81.709 Y97.912 E.00582
;WIDTH:0.471722
G1 X81.706 Y85.052 E.45852
;WIDTH:0.469223
G1 X81.706 Y85.051 E.00005
;WIDTH:0.478526
G1 X81.72 Y82.186 E.10376
;WIDTH:0.508272
G1 X81.79 Y82.007 E.00743
G1 X82.086 Y81.791 E.01419
;WIDTH:0.490146
G1 X82.168 Y81.776 E.00308
;WIDTH:0.487917
G1 X97.779 Y81.771 E.57766
;WIDTH:0.505908
G1 X98.048 Y81.847 E.01077
G1 X98.239 Y82.033 E.01027
;WIDTH:0.497897
G1 X98.276 Y82.168 E.0053
;WIDTH:0.481464
G1 X98.296 Y85.348 E.11596
;WIDTH:0.468516
G1 X98.296 Y85.35 E.00007
;WIDTH:0.474862
G1 X98.288 Y97.916 E.4513
G1 X98.251 Y98.1 E.00676
;WIDTH:0.470576
G1 X98.122 Y98.241 E.00679
M204 P1000
; stop printing object c64-caps-cbm-stem-row2-u-cap.stl id:0 copy 0
M106 S170.85
;LAYER_CHANGE
;Z:0.6
;HEIGHT:0.2
;BEFORE_LAYER_CHANGE
G92 E0.0
;0.6


G1 E-2.24 F4200
;WIPE_START
G1 F7200
G1 X97.922 Y98.331 E-.12173
G1 X96.496 Y98.332 E-.79027
;WIPE_END
G1 E-.048 F4200
G1 Z.6 F720
;AFTER_LAYER_CHANGE
;0.6
G1 Z.8
G1 X96.495 Y101.752 F9000
G1 Z.6 F720
G1 E3.2 F2400
;TYPE:Skirt/Brim
;WIDTH:0.42
G1 F1298
G1 X81.903 Y101.751 E.45755
G1 X80.724 Y101.52 E.03765
M73 P5 R15
G1 X79.679 Y100.931 E.0376
G1 X79.032 Y100.268 E.02908
G1 X78.655 Y99.661 E.02239
G1 X78.364 Y98.859 E.02674
G1 X78.262 Y98.083 E.02455
G1 X78.264 Y81.917 E.50688
G1 X78.495 Y80.738 E.03765
G1 X79.084 Y79.694 E.0376
G1 X79.747 Y79.046 E.02908
G1 X80.354 Y78.669 E.02238
G1 X81.015 Y78.415 E.02222
G1 X81.801 Y78.283 E.02498
G1 X98.074 Y78.277 E.51022
G1 X98.678 Y78.342 E.01906
G1 X99.445 Y78.575 E.02513
G1 X99.997 Y78.866 E.01958
G1 X100.478 Y79.23 E.0189
G1 X100.972 Y79.765 E.02283
G1 X101.288 Y80.255 E.01829
G1 X101.577 Y80.947 E.0235
G1 X101.704 Y81.529 E.01867
G1 X101.737 Y98.112 E.51996
G1 X101.506 Y99.291 E.03765
G1 X100.917 Y100.335 E.0376
G1 X100.254 Y100.983 E.02908
G1 X99.647 Y101.36 E.02239
G1 X98.845 Y101.651 E.02674
G1 X98.069 Y101.752 E.02455
G1 X96.555 Y101.752 E.04745
G1 X96.555 Y101.375 F9000
G1 F1298
G1 X81.92 Y101.375 E.45889
G1 X80.851 Y101.165 E.03415
G1 X79.912 Y100.635 E.0338
G1 X79.334 Y100.043 E.02593
G1 X78.994 Y99.497 E.02017
G1 X78.73 Y98.768 E.02433
G1 X78.639 Y98.07 E.02207
G1 X78.64 Y81.934 E.50592
G1 X78.85 Y80.865 E.03415
G1 X79.38 Y79.927 E.0338
G1 X79.972 Y79.349 E.02594
G1 X80.517 Y79.008 E.02016
G1 X81.116 Y78.778 E.02011
G1 X81.82 Y78.659 E.02237
G1 X98.06 Y78.654 E.5092
G1 X98.609 Y78.713 E.01733
G1 X99.296 Y78.922 E.0225
G1 X99.797 Y79.186 E.01778
G1 X100.28 Y79.561 E.01917
G1 X100.669 Y79.99 E.01816
G1 X100.987 Y80.492 E.01862
G1 X101.236 Y81.126 E.02136
G1 X101.344 Y81.684 E.01784
G1 X101.36 Y98.095 E.51454
G1 X101.151 Y99.164 E.03415
G1 X100.621 Y100.102 E.0338
G1 X100.029 Y100.68 E.02594
G1 X99.483 Y101.021 E.02017
G1 X98.753 Y101.285 E.02433
G1 X98.055 Y101.376 E.02207
G1 X96.615 Y101.375 E.04515
; printing object c64-caps-cbm-stem-row2-u-cap.stl id:0 copy 0
G1 E-2.24 F4200
;WIPE_START
G1 F7200
G1 X94.97 Y101.375 E-.912
;WIPE_END
G1 E-.048 F4200
G1 Z.8 F720
G1 X98.194 Y98.676 F9000
G1 Z.6 F720
G1 E3.2 F2400
M204 P800
;TYPE:External perimeter
;WIDTH:0.475849
G1 F1298
G1 X97.811 Y98.762 E.01414
;WIDTH:0.475606
G1 X96.116 Y98.765 E.06099
;WIDTH:0.46934
G1 X84.642 Y98.767 E.40683
;WIDTH:0.466873
G1 X84.638 Y98.767 E.00016
;WIDTH:0.479309
G1 X82.186 Y98.76 E.08894
G1 X81.901 Y98.716 E.01047
;WIDTH:0.490301
G1 X81.627 Y98.561 E.01171
G1 X81.405 Y98.291 E.013
;WIDTH:0.476991
G1 X81.31 Y97.883 E.01514
;WIDTH:0.471865
G1 X81.309 Y85.128 E.45492
;WIDTH:0.468524
G1 X81.309 Y85.124 E.00014
;WIDTH:0.480851
G1 X81.315 Y82.271 E.10387
;WIDTH:0.499091
G1 X81.37 Y81.979 E.0113
;WIDTH:0.522085
G1 X81.541 Y81.681 E.01368
G1 X81.822 Y81.474 E.01388
;WIDTH:0.513654
G1 X82.226 Y81.39 E.01618
;WIDTH:0.488653
G1 X84.395 Y81.386 E.08038
;WIDTH:0.481899
G1 X84.398 Y81.386 E.00011
;WIDTH:0.484698
G1 X97.781 Y81.388 E.49161
;WIDTH:0.508674
G1 X98.105 Y81.45 E.01277
;WIDTH:0.523406
M73 P6 R15
G1 X98.371 Y81.608 E.01237
G1 X98.568 Y81.83 E.01186
;WIDTH:0.502848
G1 X98.683 Y82.204 E.01496
;WIDTH:0.486213
G1 X98.684 Y82.241 E.00135
;WIDTH:0.485025
G1 X98.691 Y83.339 E.04038
;WIDTH:0.472262
G1 X98.693 Y85.421 E.07432
;WIDTH:0.467634
G1 X98.693 Y85.423 E.00009
;WIDTH:0.475826
G1 X98.691 Y97.888 E.4487
G1 X98.653 Y98.141 E.00918
;WIDTH:0.474372
G1 X98.481 Y98.479 E.01363
;WIDTH:0.475849
G1 X98.247 Y98.651 E.01043
M204 P1000
G1 X98.09 Y98.251 F9000
M204 P800
;WIDTH:0.471803
G1 F1298
G1 X97.885 Y98.325 E.00777
;WIDTH:0.475606
G1 X96.114 Y98.339 E.0637
;WIDTH:0.46934
G1 X84.642 Y98.343 E.40678
;WIDTH:0.466873
G1 X84.64 Y98.343 E.00008
;WIDTH:0.479309
G1 X82.189 Y98.324 E.08894
G1 X81.997 Y98.29 E.00705
;WIDTH:0.476991
G1 X81.772 Y98.061 E.0116
G1 X81.739 Y97.882 E.00655
;WIDTH:0.471865
G1 X81.734 Y85.128 E.45492
;WIDTH:0.468524
G1 X81.734 Y85.126 E.00007
;WIDTH:0.480851
G1 X81.753 Y82.273 E.10387
;WIDTH:0.504215
G1 X81.803 Y82.118 E.00628
;WIDTH:0.513654
G1 X82.02 Y81.904 E.01191
G1 X82.228 Y81.835 E.00856
;WIDTH:0.488653
G1 X84.396 Y81.825 E.08038
;WIDTH:0.481899
G1 X84.398 Y81.825 E.00005
;WIDTH:0.484698
G1 X97.781 Y81.83 E.49161
;WIDTH:0.509902
G1 X97.93 Y81.871 E.00602
G1 X98.201 Y82.108 E.01399
;WIDTH:0.502848
G1 X98.242 Y82.246 E.00548
;WIDTH:0.485025
G1 X98.261 Y83.344 E.04038
;WIDTH:0.472262
G1 X98.268 Y85.422 E.07418
;WIDTH:0.467634
G1 X98.268 Y85.423 E.00004
;WIDTH:0.475826
G1 X98.258 Y97.888 E.4487
G1 X98.228 Y98.063 E.0064
;WIDTH:0.472247
G1 X98.125 Y98.203 E.0062
M204 P1000
; stop printing object c64-caps-cbm-stem-row2-u-cap.stl id:0 copy 0
M106 S255
;LAYER_CHANGE
;Z:0.8
;HEIGHT:0.2
;BEFORE_LAYER_CHANGE
G92 E0.0
;0.8


G1 E-2.24 F4200
;WIPE_START
G1 F7200
G1 X97.885 Y98.325 E-.14954
G1 X96.509 Y98.336 E-.76246
;WIPE_END
G1 E-.048 F4200
G1 Z.8 F720
;AFTER_LAYER_CHANGE
;0.8
; printing object c64-caps-cbm-stem-row2-u-cap.stl id:0 copy 0
G1 Z1
G1 X98.109 Y98.676 F9000
G1 Z.8 F720
G1 E3.2 F2400
M204 P800
;WIDTH:0.472298
G1 F900
G1 X98.032 Y98.717 E.00314
;WIDTH:0.478062
G1 X97.773 Y98.761 E.0095
G1 X95.974 Y98.765 E.06508
;WIDTH:0.469878
G1 X84.979 Y98.767 E.39036
;WIDTH:0.466472
G1 X84.974 Y98.767 E.00017
;WIDTH:0.481101
G1 X82.245 Y98.759 E.09943
G1 X81.915 Y98.706 E.01218
;WIDTH:0.481572
G1 X81.597 Y98.497 E.01387
G1 X81.407 Y98.182 E.01344
;WIDTH:0.471899
G1 X81.34 Y97.873 E.01128
G1 X81.34 Y83.173 E.52433
;WIDTH:0.472034
G1 X81.34 Y83.161 E.00041
;WIDTH:0.482851
G1 X81.346 Y82.35 E.02967
;WIDTH:0.50236
G1 X81.41 Y82.019 E.0129
;WIDTH:0.522161
G1 X81.623 Y81.71 E.01496
G1 X81.961 Y81.509 E.01566
;WIDTH:0.504217
G1 X82.287 Y81.448 E.01272
;WIDTH:0.489183
G1 X84.567 Y81.444 E.08462
;WIDTH:0.481469
G1 X84.57 Y81.444 E.00011
;WIDTH:0.483493
G1 X97.628 Y81.446 E.47836
;WIDTH:0.505976
G1 X98.056 Y81.508 E.01666
;WIDTH:0.527618
M73 P6 R14
G1 X98.331 Y81.675 E.01297
G1 X98.528 Y81.905 E.01222
;WIDTH:0.515539
G1 X98.653 Y82.29 E.01592
;WIDTH:0.48985
G1 X98.655 Y82.35 E.0022
;WIDTH:0.486938
G1 X98.661 Y83.11 E.02808
;WIDTH:0.475061
G1 X98.666 Y87.053 E.14166
;WIDTH:0.466435
G1 X98.666 Y87.055 E.00009
;WIDTH:0.476282
G1 X98.663 Y97.835 E.38844
G1 X98.61 Y98.19 E.01294
;WIDTH:0.472095
G1 X98.378 Y98.532 E.01476
;WIDTH:0.472298
