; generated by PrusaSlicer 2.5.0+win64 on 2022-09-25 at 15:43:59 UTC


;
;

;
;
; 

; external perimeters extrusion width = 0.45mm
; perimeters extrusion width = 0.45mm
; infill extrusion width = 0.45mm
; solid infill extrusion width = 0.45mm
; top infill extrusion width = 0.40mm
; first layer extrusion width = 0.42mm

M73 P0 R72
M201 X2500 Y2500 Z400 E5000 ; sets maximum accelerations, mm/sec^2
M203 X180 Y180 Z12 E80 ; sets maximum feedrates, mm / sec
M204 P1250 R1250 T2500 ; sets acceleration (P, T) and retract acceleration (R), mm/sec^2
M205 X8.00 Y8.00 Z2.00 E10.00 ; sets the jerk limits, mm/sec
M205 S0 T0 ; sets the minimum extruding and travel feed rate, mm/sec
M107
;TYPE:Custom
M862.3 P "MINI" ; printer model check
G90 ; use absolute coordinates
M83 ; extruder relative mode
M104 S170 ; set extruder temp for bed leveling
M140 S60 ; set bed temp
M109 R170 ; wait for bed leveling temp
M190 S60 ; wait for bed temp
M204 T1250 ; set travel acceleration
G28 ; home all without mesh bed level
G29 ; mesh bed leveling 
M204 T2500 ; restore travel acceleration
M104 S215 ; set extruder temp
G92 E0
G1 Y-2 X179 F2400
G1 Z3 F720
M109 S215 ; wait for extruder temp

; intro line
M73 P0 R71
G1 X170 F1000
G1 Z0.2 F720
G1 X110 E8 F900
G1 X40 E10 F700
G92 E0

M221 S95 ; set flow
G21 ; set units to millimeters
G90 ; use absolute coordinates
M83 ; use relative distances for extrusion
M900 K0.2 ; Filament gcode LA 1.5
; ; Filament gcode LA 1.0
M107
;LAYER_CHANGE
;Z:0.2
;HEIGHT:0.2
;BEFORE_LAYER_CHANGE
G92 E0.0
;0.2


G1 E-3.2 F4200
G1 Z.2 F720
;AFTER_LAYER_CHANGE
;0.2
G1 Z.4
G1 X76.919 Y15.634 F9000
G1 Z.2 F720
G1 E3.2 F2400
M204 P800
;TYPE:Skirt/Brim
;WIDTH:0.42
G1 F1200
G1 X77.559 Y14.429 E.04278
G1 X79.25 Y13.723 E.05744
G1 X100.75 Y13.723 E.67412
G1 X102.057 Y14.115 E.04278
G1 X103.081 Y15.634 E.05744
G1 X105.127 Y26.1 E.33437
G1 X105.107 Y152.429 E3.96096
G1 X105.005 Y152.972 E.0173
G1 X104.757 Y153.615 E.02161
G1 X99.235 Y164.477 E.38207
G1 X98.697 Y165.223 E.02884
G1 X98.113 Y165.713 E.02389
G1 X97.207 Y166.136 E.03135
G1 X96.25 Y166.277 E.03034
G1 X83.369 Y166.253 E.40387
G1 X82.404 Y165.994 E.03135
G1 X81.887 Y165.713 E.01845
G1 X81.426 Y165.347 E.01844
G1 X80.937 Y164.763 E.02388
G1 X75.245 Y153.619 E.39236
G1 X75.006 Y153.014 E.02038
G1 X74.881 Y152.272 E.02362
G1 X74.919 Y25.634 E3.97064
G1 X76.907 Y15.693 E.31787
M204 P1000
; printing object Cooler_Master_HDD_Rails_v4.stl id:0 copy 0
G1 E-2.24 F4200
;WIPE_START
G1 F7200
G1 X77.559 Y14.429 E-.78803
G1 X77.766 Y14.343 E-.12397
;WIPE_END
G1 E-.048 F4200
G1 Z.4 F720
G1 X78.582 Y137.856 F9000
G1 Z.2 F720
G1 E3.2 F2400
M204 P800
;TYPE:Perimeter
;WIDTH:0.44438
G1 F1200
G1 X78.451 Y138.152 E.01079
G1 X78.451 Y149.765 E.38767
;WIDTH:0.481741
G1 X78.503 Y150.246 E.01767
G1 X78.632 Y150.49 E.01004
;WIDTH:0.45087
G1 X78.76 Y150.733 E.00934
;WIDTH:0.419999
G1 X79.186 Y151.189 E.01956
G1 X79.726 Y151.465 E.01902
G1 X86.196 Y153.405 E.21178
G1 X86.399 Y153.512 E.00721
G1 X86.463 Y153.765 E.00817
G1 X86.463 Y162.842 E.2846
G1 X86.373 Y163.047 E.00702
G1 X86.217 Y163.113 E.00532
G1 X83.796 Y163.101 E.07591
G1 X83.626 Y163.047 E.00558
G1 X83.549 Y162.932 E.00435
G1 X83.54 Y162.182 E.02351
G1 X84.155 Y162.135 E.01933
G1 X84.725 Y161.892 E.01943
G1 X85.176 Y161.468 E.0194
G1 X85.455 Y160.917 E.01937
G1 X85.537 Y160.41 E.01612
G1 X85.537 Y155.808 E.14427
G1 X85.467 Y155.338 E.01491
G1 X85.227 Y154.819 E.01792
G1 X85.101 Y154.658 E.00643
G1 X84.711 Y154.316 E.01626
G1 X84.274 Y154.109 E.01516
G1 X78.843 Y152.47 E.17786
G1 X78.122 Y152.236 E.02376
G1 X78.037 Y152.003 E.00778
G1 X78.037 Y150.909 E.0343
;WIDTH:0.450523
G1 X78.052 Y150.593 E.01075
;WIDTH:0.481047
G1 X78.068 Y150.276 E.01155
G1 X78.049 Y149.765 E.01863
;WIDTH:0.44438
G1 X78.037 Y137.507 E.4092
;WIDTH:0.419999
G1 X78.037 Y26.178 E3.49063
G1 X79.895 Y16.887 E.29708
M73 P1 R71
G1 X81.213 Y16.887 E.04131
G1 X81.213 Y135.167 E3.70859
G1 X78.629 Y137.752 E.11459
;WIDTH:0.44438
G1 X78.606 Y137.801 E.00182
M204 P1000
G1 X78.913 Y138.001 F9000
M204 P800
;TYPE:External perimeter
;WIDTH:0.419999
G1 F1200
G1 X78.84 Y138.152 E.00524
G1 X78.84 Y149.765 E.36413
G1 X78.905 Y150.174 E.01299
G1 X79.094 Y150.56 E.01349
G1 X79.426 Y150.897 E.01482
G1 X79.835 Y151.104 E.01437
G1 X86.304 Y153.044 E.21176
G1 X86.589 Y153.186 E.00998
G1 X86.766 Y153.367 E.00792
G1 X86.84 Y153.765 E.0127
G1 X86.84 Y162.816 E.2838
G1 X86.802 Y163.092 E.00874
G1 X86.624 Y163.346 E.00972
G1 X86.471 Y163.417 E.00529
G1 X86.233 Y163.49 E.00782
G1 X83.657 Y163.477 E.08075
G1 X83.467 Y163.389 E.00656
G1 X83.298 Y163.259 E.00668
G1 X83.172 Y163.001 E.00902
G1 X83.169 Y161.916 E.03402
G1 X83.255 Y161.814 E.00418
G1 X83.967 Y161.792 E.02234
G1 X84.426 Y161.636 E.01519
G1 X84.808 Y161.33 E.01533
G1 X85.062 Y160.912 E.01534
G1 X85.16 Y160.41 E.01605
G1 X85.16 Y155.808 E.14427
G1 X85.095 Y155.399 E.01299
G1 X84.893 Y154.995 E.01418
G1 X84.591 Y154.688 E.0135
G1 X84.165 Y154.47 E.01501
G1 X78.421 Y152.736 E.18812
G1 X77.923 Y152.557 E.01661
G1 X77.734 Y152.357 E.00863
G1 X77.66 Y152.048 E.00996
G1 X77.66 Y26.141 E3.94773
G1 X79.586 Y16.51 E.30794
G1 X81.59 Y16.51 E.06283
G1 X81.59 Y135.323 E3.72531
G1 X78.955 Y137.959 E.11684
M204 P1000
M73 P1 R70
G1 X78.749 Y138.037 F9000
G1 E-2.24 F4200
;WIPE_START
G1 F7200
G1 X78.84 Y138.152 E-.12451
G1 X78.84 Y139.573 E-.78749
;WIPE_END
G1 E-.048 F4200
G1 Z.4 F720
G1 X86.35 Y154.425 F9000
G1 Z.2 F720
G1 E3.2 F2400
M204 P800
;TYPE:Solid infill
;WIDTH:0.432234
G1 F1200
G1 X85.379 Y153.455 E.04443
G1 X84.591 Y153.217 E.02665
G1 X86.18 Y154.806 E.07275
G1 X86.18 Y155.357 E.01782
G1 X83.803 Y152.979 E.10883
G1 X83.015 Y152.742 E.02665
G1 X84.005 Y153.732 E.04535
G1 X83.217 Y153.494 E.02666
G1 X82.226 Y152.504 E.04533
G1 X81.438 Y152.266 E.02665
G1 X82.428 Y153.256 E.04532
G1 X81.639 Y153.018 E.02666
G1 X80.65 Y152.029 E.0453
G1 X79.862 Y151.791 E.02665
G1 X80.851 Y152.78 E.04529
G1 X80.062 Y152.542 E.02666
G1 X78.326 Y150.806 E.07948
G1 X78.32 Y151.35 E.01762
G1 X79.274 Y152.304 E.04367
G1 X78.485 Y152.066 E.02666
G1 X78.15 Y151.731 E.01534
M204 P1000
G1 E-2.24 F4200
;WIPE_START
G1 F7200
G1 X78.485 Y152.066 E-.26255
G1 X79.274 Y152.304 E-.45647
G1 X79.028 Y152.058 E-.19298
;WIPE_END
G1 E-.048 F4200
G1 Z.4 F720
G1 X85.57 Y155.297 F9000
G1 Z.2 F720
G1 E3.2 F2400
M204 P800
G1 F1200
G1 X86.18 Y155.907 E.02793
G1 X86.18 Y156.458 E.01782
G1 X85.82 Y156.097 E.01649
G1 X85.82 Y156.648 E.01782
G1 X86.18 Y157.008 E.01649
G1 X86.18 Y157.559 E.01782
G1 X85.82 Y157.199 E.01649
G1 X85.82 Y157.749 E.01782
G1 X86.18 Y158.109 E.01649
G1 X86.18 Y158.66 E.01782
G1 X85.82 Y158.3 E.01649
G1 X85.82 Y158.85 E.01782
G1 X86.18 Y159.211 E.01649
G1 X86.18 Y159.761 E.01782
G1 X85.82 Y159.401 E.01649
G1 X85.82 Y159.951 E.01782
G1 X86.18 Y160.312 E.01649
G1 X86.18 Y160.862 E.01782
G1 X85.808 Y160.491 E.01702
G1 X85.734 Y160.967 E.0156
G1 X86.18 Y161.413 E.02043
G1 X86.18 Y161.963 E.01782
G1 X85.569 Y161.353 E.02796
G1 X85.356 Y161.69 E.01292
G1 X86.18 Y162.514 E.03771
G1 X86.18 Y162.809 E.00954
G1 X86.172 Y162.83 E.00072
G1 X85.944 Y162.829 E.00739
G1 X85.079 Y161.964 E.0396
G1 X84.9 Y162.114 E.00755
G1 X84.76 Y162.195 E.00526
G1 X85.391 Y162.826 E.02889
G1 X84.838 Y162.823 E.01791
G1 X84.372 Y162.357 E.02132
G1 X84.245 Y162.404 E.00436
G1 X83.918 Y162.454 E.01072
G1 X84.455 Y162.991 E.02459
M204 P1000
G1 E-2.24 F4200
;WIPE_START
G1 F7200
G1 X83.918 Y162.454 E-.42096
G1 X84.245 Y162.404 E-.18359
G1 X84.372 Y162.357 E-.07472
G1 X84.669 Y162.654 E-.23274
;WIPE_END
G1 E-.048 F4200
G1 Z.4 F720
G1 X80.337 Y17 F9000
G1 Z.2 F720
G1 E3.2 F2400
M204 P800
;WIDTH:0.420364
G1 F1200
G1 X80.93 Y17.594 E.02634
G1 X80.93 Y18.127 E.01675
G1 X80.101 Y17.299 E.03679
G1 X80.012 Y17.743 E.01424
G1 X80.93 Y18.661 E.04073
G1 X80.93 Y19.195 E.01675
G1 X79.923 Y18.188 E.04468
G1 X79.834 Y18.633 E.01424
G1 X80.93 Y19.729 E.04863
G1 X80.93 Y20.262 E.01675
G1 X79.745 Y19.078 E.05258
G1 X79.657 Y19.523 E.01424
G1 X80.93 Y20.796 E.05653
G1 X80.93 Y21.33 E.01675
G1 X79.568 Y19.967 E.06048
G1 X79.479 Y20.412 E.01424
G1 X80.93 Y21.864 E.06443
G1 X80.93 Y22.398 E.01675
G1 X79.39 Y20.857 E.06837
G1 X79.301 Y21.302 E.01424
G1 X80.93 Y22.931 E.07232
G1 X80.93 Y23.465 E.01675
G1 X79.212 Y21.747 E.07627
G1 X79.123 Y22.192 E.01424
G1 X80.93 Y23.999 E.08022
G1 X80.93 Y24.533 E.01675
G1 X79.034 Y22.636 E.08417
G1 X78.945 Y23.081 E.01424
G1 X80.93 Y25.067 E.08812
G1 X80.93 Y25.6 E.01675
G1 X78.856 Y23.526 E.09207
G1 X78.767 Y23.971 E.01424
G1 X80.93 Y26.134 E.09601
G1 X80.93 Y26.668 E.01675
G1 X78.678 Y24.416 E.09996
G1 X78.589 Y24.861 E.01424
G1 X80.93 Y27.202 E.10391
G1 X80.93 Y27.735 E.01675
G1 X78.5 Y25.305 E.10786
G1 X78.411 Y25.75 E.01424
G1 X80.93 Y28.269 E.11181
G1 X80.93 Y28.803 E.01675
G1 X78.322 Y26.195 E.11576
G1 X78.32 Y26.727 E.01668
G1 X80.93 Y29.337 E.11586
G1 X80.93 Y29.871 E.01675
G1 X78.32 Y27.26 E.11586
G1 X78.32 Y27.794 E.01675
G1 X80.93 Y30.404 E.11586
G1 X80.93 Y30.938 E.01675
G1 X78.32 Y28.328 E.11586
G1 X78.32 Y28.862 E.01675
G1 X80.93 Y31.472 E.11586
G1 X80.93 Y32.006 E.01675
G1 X78.32 Y29.396 E.11586
G1 X78.32 Y29.929 E.01675
G1 X80.93 Y32.54 E.11586
G1 X80.93 Y33.073 E.01675
G1 X78.32 Y30.463 E.11586
G1 X78.32 Y30.997 E.01675
G1 X80.93 Y33.607 E.11586
G1 X80.93 Y34.141 E.01675
G1 X78.32 Y31.531 E.11586
G1 X78.32 Y32.064 E.01675
G1 X80.93 Y34.675 E.11586
G1 X80.93 Y35.209 E.01675
G1 X78.32 Y32.598 E.11586
G1 X78.32 Y33.132 E.01675
G1 X80.93 Y35.742 E.11586
G1 X80.93 Y36.276 E.01675
G1 X78.32 Y33.666 E.11586
G1 X78.32 Y34.2 E.01675
G1 X80.93 Y36.81 E.11586
G1 X80.93 Y37.344 E.01675
G1 X78.32 Y34.733 E.11586
G1 X78.32 Y35.267 E.01675
G1 X80.93 Y37.877 E.11586
G1 X80.93 Y38.411 E.01675
G1 X78.32 Y35.801 E.11586
G1 X78.32 Y36.335 E.01675
G1 X80.93 Y38.945 E.11586
G1 X80.93 Y39.479 E.01675
G1 X78.32 Y36.869 E.11586
G1 X78.32 Y37.402 E.01675
G1 X80.93 Y40.013 E.11586
G1 X80.93 Y40.546 E.01675
G1 X78.32 Y37.936 E.11586
G1 X78.32 Y38.47 E.01675
G1 X80.93 Y41.08 E.11586
G1 X80.93 Y41.614 E.01675
G1 X78.32 Y39.004 E.11586
G1 X78.32 Y39.537 E.01675
G1 X80.93 Y42.148 E.11586
G1 X80.93 Y42.682 E.01675
G1 X78.32 Y40.071 E.11586
G1 X78.32 Y40.605 E.01675
G1 X80.93 Y43.215 E.11586
G1 X80.93 Y43.749 E.01675
G1 X78.32 Y41.139 E.11586
G1 X78.32 Y41.673 E.01675
G1 X80.93 Y44.283 E.11586
G1 X80.93 Y44.817 E.01675
G1 X78.32 Y42.206 E.11586
G1 X78.32 Y42.74 E.01675
G1 X80.93 Y45.35 E.11586
G1 X80.93 Y45.884 E.01675
G1 X78.32 Y43.274 E.11586
G1 X78.32 Y43.808 E.01675
G1 X80.93 Y46.418 E.11586
G1 X80.93 Y46.952 E.01675
G1 X78.32 Y44.342 E.11586
G1 X78.32 Y44.875 E.01675
G1 X80.93 Y47.486 E.11586
G1 X80.93 Y48.019 E.01675
G1 X78.32 Y45.409 E.11586
G1 X78.32 Y45.943 E.01675
G1 X80.93 Y48.553 E.11586
G1 X80.93 Y49.087 E.01675
G1 X78.32 Y46.477 E.11586
G1 X78.32 Y47.01 E.01675
G1 X80.93 Y49.621 E.11586
G1 X80.93 Y50.155 E.01675
G1 X78.32 Y47.544 E.11586
G1 X78.32 Y48.078 E.01675
G1 X80.93 Y50.688 E.11586
G1 X80.93 Y51.222 E.01675
G1 X78.32 Y48.612 E.11586
G1 X78.32 Y49.146 E.01675
G1 X80.93 Y51.756 E.11586
G1 X80.93 Y52.29 E.01675
G1 X78.32 Y49.679 E.11586
G1 X78.32 Y50.213 E.01675
G1 X80.93 Y52.823 E.11586
G1 X80.93 Y53.357 E.01675
G1 X78.32 Y50.747 E.11586
G1 X78.32 Y51.281 E.01675
G1 X80.93 Y53.891 E.11586
G1 X80.93 Y54.425 E.01675
G1 X78.32 Y51.815 E.11586
G1 X78.32 Y52.348 E.01675
G1 X80.93 Y54.959 E.11586
G1 X80.93 Y55.492 E.01675
G1 X78.32 Y52.882 E.11586
G1 X78.32 Y53.416 E.01675
G1 X80.93 Y56.026 E.11586
G1 X80.93 Y56.56 E.01675
G1 X78.32 Y53.95 E.11586
G1 X78.32 Y54.483 E.01675
G1 X80.93 Y57.094 E.11586
G1 X80.93 Y57.628 E.01675
G1 X78.32 Y55.017 E.11586
G1 X78.32 Y55.551 E.01675
G1 X80.93 Y58.161 E.11586
G1 X80.93 Y58.695 E.01675
M73 P2 R70
G1 X78.32 Y56.085 E.11586
G1 X78.32 Y56.619 E.01675
G1 X80.93 Y59.229 E.11586
G1 X80.93 Y59.763 E.01675
G1 X78.32 Y57.152 E.11586
G1 X78.32 Y57.686 E.01675
G1 X80.93 Y60.296 E.11586
G1 X80.93 Y60.83 E.01675
G1 X78.32 Y58.22 E.11586
G1 X78.32 Y58.754 E.01675
G1 X80.93 Y61.364 E.11586
G1 X80.93 Y61.898 E.01675
G1 X78.32 Y59.288 E.11586
G1 X78.32 Y59.821 E.01675
G1 X80.93 Y62.432 E.11586
G1 X80.93 Y62.965 E.01675
G1 X78.32 Y60.355 E.11586
G1 X78.32 Y60.889 E.01675
G1 X80.93 Y63.499 E.11586
G1 X80.93 Y64.033 E.01675
G1 X78.32 Y61.423 E.11586
G1 X78.32 Y61.956 E.01675
G1 X80.93 Y64.567 E.11586
G1 X80.93 Y65.101 E.01675
G1 X78.32 Y62.49 E.11586
G1 X78.32 Y63.024 E.01675
G1 X80.93 Y65.634 E.11586
G1 X80.93 Y66.168 E.01675
G1 X78.32 Y63.558 E.11586
G1 X78.32 Y64.092 E.01675
G1 X80.93 Y66.702 E.11586
G1 X80.93 Y67.236 E.01675
G1 X78.32 Y64.625 E.11586
G1 X78.32 Y65.159 E.01675
G1 X80.93 Y67.769 E.11586
G1 X80.93 Y68.303 E.01675
G1 X78.32 Y65.693 E.11586
G1 X78.32 Y66.227 E.01675
G1 X80.93 Y68.837 E.11586
G1 X80.93 Y69.371 E.01675
G1 X78.32 Y66.761 E.11586
G1 X78.32 Y67.294 E.01675
G1 X80.93 Y69.905 E.11586
G1 X80.93 Y70.438 E.01675
G1 X78.32 Y67.828 E.11586
G1 X78.32 Y68.362 E.01675
G1 X80.93 Y70.972 E.11586
G1 X80.93 Y71.506 E.01675
G1 X78.32 Y68.896 E.11586
G1 X78.32 Y69.429 E.01675
G1 X80.93 Y72.04 E.11586
G1 X80.93 Y72.574 E.01675
G1 X78.32 Y69.963 E.11586
G1 X78.32 Y70.497 E.01675
G1 X80.93 Y73.107 E.11586
G1 X80.93 Y73.641 E.01675
G1 X78.32 Y71.031 E.11586
G1 X78.32 Y71.565 E.01675
G1 X80.93 Y74.175 E.11586
G1 X80.93 Y74.709 E.01675
G1 X78.32 Y72.098 E.11586
G1 X78.32 Y72.632 E.01675
G1 X80.93 Y75.242 E.11586
G1 X80.93 Y75.776 E.01675
G1 X78.32 Y73.166 E.11586
G1 X78.32 Y73.7 E.01675
G1 X80.93 Y76.31 E.11586
G1 X80.93 Y76.844 E.01675
G1 X78.32 Y74.234 E.11586
G1 X78.32 Y74.767 E.01675
G1 X80.93 Y77.378 E.11586
G1 X80.93 Y77.911 E.01675
G1 X78.32 Y75.301 E.11586
G1 X78.32 Y75.835 E.01675
G1 X80.93 Y78.445 E.11586
G1 X80.93 Y78.979 E.01675
G1 X78.32 Y76.369 E.11586
G1 X78.32 Y76.903 E.01675
G1 X80.93 Y79.513 E.11586
G1 X80.93 Y80.047 E.01675
G1 X78.32 Y77.436 E.11586
G1 X78.32 Y77.97 E.01675
G1 X80.93 Y80.58 E.11586
G1 X80.93 Y81.114 E.01675
G1 X78.32 Y78.504 E.11586
G1 X78.32 Y79.038 E.01675
G1 X80.93 Y81.648 E.11586
G1 X80.93 Y82.182 E.01675
G1 X78.32 Y79.571 E.11586
G1 X78.32 Y80.105 E.01675
G1 X80.93 Y82.715 E.11586
G1 X80.93 Y83.249 E.01675
G1 X78.32 Y80.639 E.11586
G1 X78.32 Y81.173 E.01675
G1 X80.93 Y83.783 E.11586
G1 X80.93 Y84.317 E.01675
G1 X78.32 Y81.707 E.11586
G1 X78.32 Y82.24 E.01675
G1 X80.93 Y84.851 E.11586
G1 X80.93 Y85.384 E.01675
G1 X78.32 Y82.774 E.11586
G1 X78.32 Y83.308 E.01675
G1 X80.93 Y85.918 E.11586
G1 X80.93 Y86.452 E.01675
G1 X78.32 Y83.842 E.11586
G1 X78.32 Y84.376 E.01675
G1 X80.93 Y86.986 E.11586
G1 X80.93 Y87.52 E.01675
G1 X78.32 Y84.909 E.11586
G1 X78.32 Y85.443 E.01675
G1 X80.93 Y88.053 E.11586
G1 X80.93 Y88.587 E.01675
G1 X78.32 Y85.977 E.11586
G1 X78.32 Y86.511 E.01675
G1 X80.93 Y89.121 E.11586
G1 X80.93 Y89.655 E.01675
G1 X78.32 Y87.044 E.11586
G1 X78.32 Y87.578 E.01675
G1 X80.93 Y90.189 E.11586
G1 X80.93 Y90.722 E.01675
G1 X78.32 Y88.112 E.11586
G1 X78.32 Y88.646 E.01675
G1 X80.93 Y91.256 E.11586
G1 X80.93 Y91.79 E.01675
G1 X78.32 Y89.18 E.11586
G1 X78.32 Y89.713 E.01675
G1 X80.93 Y92.324 E.11586
G1 X80.93 Y92.857 E.01675
G1 X78.32 Y90.247 E.11586
G1 X78.32 Y90.781 E.01675
G1 X80.93 Y93.391 E.11586
G1 X80.93 Y93.925 E.01675
G1 X78.32 Y91.315 E.11586
G1 X78.32 Y91.849 E.01675
G1 X80.93 Y94.459 E.11586
G1 X80.93 Y94.993 E.01675
G1 X78.32 Y92.382 E.11586
G1 X78.32 Y92.916 E.01675
G1 X80.93 Y95.526 E.11586
G1 X80.93 Y96.06 E.01675
G1 X78.32 Y93.45 E.11586
G1 X78.32 Y93.984 E.01675
G1 X80.93 Y96.594 E.11586
G1 X80.93 Y97.128 E.01675
G1 X78.32 Y94.517 E.11586
G1 X78.32 Y95.051 E.01675
G1 X80.93 Y97.662 E.11586
G1 X80.93 Y98.195 E.01675
G1 X78.32 Y95.585 E.11586
G1 X78.32 Y96.119 E.01675
G1 X80.93 Y98.729 E.11586
G1 X80.93 Y99.263 E.01675
G1 X78.32 Y96.653 E.11586
G1 X78.32 Y97.186 E.01675
G1 X80.93 Y99.797 E.11586
G1 X80.93 Y100.33 E.01675
G1 X78.32 Y97.72 E.11586
G1 X78.32 Y98.254 E.01675
G1 X80.93 Y100.864 E.11586
G1 X80.93 Y101.398 E.01675
G1 X78.32 Y98.788 E.11586
G1 X78.32 Y99.322 E.01675
G1 X80.93 Y101.932 E.11586
G1 X80.93 Y102.466 E.01675
G1 X78.32 Y99.855 E.11586
G1 X78.32 Y100.389 E.01675
G1 X80.93 Y102.999 E.11586
G1 X80.93 Y103.533 E.01675
G1 X78.32 Y100.923 E.11586
G1 X78.32 Y101.457 E.01675
