; generated by PrusaSlicer 2.5.0+win64 on 2022-09-25 at 15:18:00 UTC


;
;

;
;
; 

; external perimeters extrusion width = 0.45mm
; perimeters extrusion width = 0.45mm
; infill extrusion width = 0.45mm
; solid infill extrusion width = 0.45mm
; top infill extrusion width = 0.40mm
; first layer extrusion width = 0.42mm

; external perimeters extrusion width = 0.45mm
; perimeters extrusion width = 0.45mm
; infill extrusion width = 0.45mm
; solid infill extrusion width = 0.45mm
; top infill extrusion width = 0.40mm
; first layer extrusion width = 0.42mm

M73 P0 R44
M201 X2500 Y2500 Z400 E5000 ; sets maximum accelerations, mm/sec^2
M203 X180 Y180 Z12 E80 ; sets maximum feedrates, mm / sec
M204 P1250 R1250 T2500 ; sets acceleration (P, T) and retract acceleration (R), mm/sec^2
M205 X8.00 Y8.00 Z2.00 E10.00 ; sets the jerk limits, mm/sec
M205 S0 T0 ; sets the minimum extruding and travel feed rate, mm/sec
M107
;TYPE:Custom
M862.3 P "MINI" ; printer model check
G90 ; use absolute coordinates
M83 ; extruder relative mode
M104 S170 ; set extruder temp for bed leveling
M140 S60 ; set bed temp
M109 R170 ; wait for bed leveling temp
M190 S60 ; wait for bed temp
M204 T1250 ; set travel acceleration
G28 ; home all without mesh bed level
G29 ; mesh bed leveling 
M204 T2500 ; restore travel acceleration
M104 S215 ; set extruder temp
G92 E0
G1 Y-2 X179 F2400
G1 Z3 F720
M109 S215 ; wait for extruder temp

; intro line
G1 X170 F1000
G1 Z0.2 F720
G1 X110 E8 F900
G1 X40 E10 F700
G92 E0

M221 S95 ; set flow
G21 ; set units to millimeters
G90 ; use absolute coordinates
M83 ; use relative distances for extrusion
M900 K0.2 ; Filament gcode LA 1.5
; ; Filament gcode LA 1.0
M107
;LAYER_CHANGE
;Z:0.2
;HEIGHT:0.2
;BEFORE_LAYER_CHANGE
G92 E0.0
;0.2


G1 E-3.2 F4200
G1 Z.2 F720
;AFTER_LAYER_CHANGE
;0.2
G1 Z.4
G1 X52.821 Y74.099 F9000
G1 Z.2 F720
G1 E3.2 F2400
M204 P800
;TYPE:Skirt/Brim
;WIDTH:0.42
G1 F1200
G1 X53.425 Y73.808 E.02104
G1 X54.08 Y73.675 E.02094
G1 X103.529 Y70.777 E1.55309
G1 X115.525 Y70.782 E.37613
G1 X116.239 Y70.94 E.02292
G1 X124.372 Y74.029 E.2728
G1 X124.776 Y74.312 E.01546
G1 X125.334 Y74.971 E.02707
G1 X125.571 Y75.486 E.01776
G1 X125.69 Y76.051 E.01813
G1 X125.661 Y81.516 E.17134
G1 X121.407 Y104.874 E.74443
G1 X121.001 Y106.122 E.04112
G1 X120.367 Y107.157 E.03808
G1 X119.439 Y108.085 E.04112
G1 X118.736 Y108.55 E.02644
G1 X117.614 Y109.015 E.03808
G1 X116.132 Y109.227 E.04694
G1 X63.672 Y109.218 E1.64487
G1 X62.858 Y109.123 E.02567
G1 X62.008 Y108.887 E.02767
G1 X60.881 Y108.287 E.04005
G1 X58.136 Y106.441 E.10369
G1 X57.664 Y105.97 E.02092
G1 X57.134 Y105.16 E.03035
G1 X56.87 Y104.443 E.02395
G1 X51.707 Y84.628 E.64205
G1 X51.63 Y84.028 E.01895
G1 X51.63 Y76.291 E.2426
G1 X51.734 Y75.597 E.02198
G1 X52.069 Y74.852 E.02562
G1 X52.393 Y74.449 E.01621
G1 X52.774 Y74.137 E.01548
M204 P1000
; printing object DB9.STL id:0 copy 0
G1 E-2.24 F4200
;WIPE_START
G1 F7200
G1 X53.425 Y73.808 E-.40425
G1 X54.08 Y73.675 E-.37014
G1 X54.328 Y73.661 E-.13761
;WIPE_END
G1 E-.048 F4200
G1 Z.4 F720
G1 X118.738 Y80.686 F9000
G1 Z.2 F720
M73 P1 R44
G1 E3.2 F2400
M204 P800
;TYPE:Perimeter
;WIDTH:0.419999
G1 F1200
G1 X118.66 Y80.736 E.00292
G1 X118.365 Y81.163 E.01625
G1 X118.295 Y81.539 E.01201
G1 X118.294 Y89.462 E.24841
G1 X114.69 Y89.463 E.113
G1 X114.597 Y89.47 E.00292
G1 X114.384 Y89.553 E.00717
G1 X114.201 Y89.745 E.00834
G1 X112.398 Y92.867 E.11302
G1 X112.322 Y93.15 E.00918
G1 X112.398 Y93.433 E.00918
G1 X114.201 Y96.554 E.11302
G1 X114.413 Y96.764 E.00937
G1 X114.69 Y96.837 E.00899
G1 X118.294 Y96.838 E.113
G1 X118.294 Y103.729 E.21608
G1 X118.265 Y104.188 E.0144
G1 X118.121 Y104.674 E.01589
G1 X117.879 Y105.119 E.01589
G1 X117.53 Y105.487 E.01589
G1 X117.113 Y105.774 E.01589
G1 X116.635 Y105.943 E.01589
G1 X116.101 Y106.012 E.01687
G1 X102.974 Y106.012 E.4116
G1 X102.515 Y105.983 E.0144
G1 X102.029 Y105.839 E.01589
G1 X101.584 Y105.597 E.01589
G1 X101.216 Y105.248 E.01589
G1 X100.929 Y104.83 E.01589
G1 X100.76 Y104.353 E.01589
G1 X100.691 Y103.819 E.01686
G1 X100.691 Y96.838 E.21889
G1 X104.295 Y96.837 E.113
G1 X104.408 Y96.826 E.00354
G1 X104.642 Y96.718 E.00809
G1 X104.785 Y96.555 E.00682
G1 X106.587 Y93.433 E.11302
G1 X106.663 Y93.15 E.00919
G1 X106.587 Y92.867 E.00918
G1 X104.785 Y89.746 E.11302
G1 X104.575 Y89.537 E.00927
G1 X104.295 Y89.463 E.00909
G1 X100.691 Y89.462 E.113
G1 X100.691 Y81.539 E.24841
G1 X100.636 Y81.206 E.01058
G1 X100.402 Y80.823 E.01408
G1 X100.222 Y80.659 E.00765
G1 X99.883 Y80.501 E.0117
G1 X99.614 Y80.462 E.00853
G1 X96.715 Y80.462 E.0909
G1 X96.715 Y76.888 E.11205
G1 X103.178 Y76.888 E.20266
G1 X103.562 Y76.815 E.01226
G1 X103.97 Y76.535 E.01551
G1 X104.196 Y76.13 E.01452
G1 X104.249 Y75.893 E.00764
G1 X104.254 Y73.988 E.05971
G1 X114.731 Y73.988 E.3285
G1 X114.737 Y75.892 E.0597
G1 X114.79 Y76.13 E.00763
G1 X115.016 Y76.535 E.01455
G1 X115.424 Y76.815 E.01552
G1 X115.807 Y76.888 E.01223
G1 X122.271 Y76.888 E.20267
G1 X122.271 Y80.462 E.11205
G1 X119.372 Y80.463 E.0909
G1 X119.274 Y80.471 E.00307
G1 X118.921 Y80.569 E.01149
G1 X118.789 Y80.653 E.00491
M204 P1000
G1 X118.92 Y81.027 F9000
M204 P800
;TYPE:External perimeter
G1 F1200
G1 X118.736 Y81.264 E.00942
G1 X118.672 Y81.539 E.00886
G1 X118.671 Y89.839 E.26023
G1 X114.659 Y89.842 E.12579
G1 X114.527 Y89.934 E.00505
G1 X112.712 Y93.082 E.11394
G1 X112.725 Y93.244 E.00509
G1 X114.555 Y96.403 E.11446
G1 X114.69 Y96.46 E.00461
G1 X118.671 Y96.461 E.12482
G1 X118.671 Y103.729 E.2279
G1 X118.639 Y104.247 E.01626
G1 X118.47 Y104.818 E.01868
G1 X118.185 Y105.342 E.01868
G1 X117.775 Y105.774 E.01868
G1 X117.284 Y106.111 E.01868
G1 X116.723 Y106.31 E.01868
G1 X116.116 Y106.389 E.01918
G1 X102.974 Y106.389 E.41207
G1 X102.456 Y106.356 E.01626
G1 X101.885 Y106.187 E.01868
G1 X101.362 Y105.903 E.01868
G1 X100.929 Y105.493 E.01868
G1 X100.592 Y105.002 E.01868
G1 X100.393 Y104.441 E.01868
G1 X100.314 Y103.834 E.01918
G1 X100.314 Y96.461 E.23117
G1 X104.333 Y96.457 E.12599
G1 X104.458 Y96.366 E.00486
G1 X106.261 Y93.244 E.11302
G1 X106.274 Y93.218 E.00093
G1 X106.261 Y93.056 E.00509
G1 X104.439 Y89.906 E.11408
G1 X104.295 Y89.84 E.00496
G1 X100.314 Y89.839 E.12482
G1 X100.314 Y81.539 E.26023
G1 X100.281 Y81.337 E.00642
G1 X100.093 Y81.04 E.01102
G1 X99.877 Y80.895 E.00818
G1 X99.614 Y80.839 E.00842
G1 X96.338 Y80.839 E.10272
G1 X96.338 Y76.511 E.13569
G1 X102.718 Y76.511 E.20006
G1 X103.38 Y76.477 E.02079
G1 X103.702 Y76.269 E.01202
G1 X103.872 Y75.891 E.01298
G1 X103.878 Y73.611 E.0715
G1 X115.107 Y73.611 E.35208
G1 X115.114 Y75.891 E.07149
G1 X115.246 Y76.217 E.01101
G1 X115.532 Y76.447 E.0115
G1 X115.807 Y76.511 E.00887
G1 X122.648 Y76.511 E.21449
G1 X122.648 Y80.839 E.1357
G1 X119.372 Y80.84 E.10272
G1 X119.17 Y80.873 E.00641
G1 X118.959 Y80.982 E.00743
M204 P1000
G1 X118.634 Y80.936 F9000
G1 E-2.24 F4200
;WIPE_START
G1 F7200
G1 X118.736 Y81.264 E-.19927
G1 X118.672 Y81.539 E-.15659
G1 X118.672 Y82.543 E-.55614
;WIPE_END
G1 E-.048 F4200
G1 Z.4 F720
G1 X122.158 Y77.764 F9000
G1 Z.2 F720
G1 E3.2 F2400
M204 P800
;TYPE:Solid infill
;WIDTH:0.420386
G1 F1200
G1 X121.564 Y77.171 E.02634
G1 X121.031 Y77.171 E.01675
G1 X121.988 Y78.128 E.0425
G1 X121.988 Y78.662 E.01675
G1 X120.497 Y77.171 E.0662
G1 X119.963 Y77.171 E.01675
G1 X121.988 Y79.196 E.08989
G1 X121.988 Y79.73 E.01675
G1 X119.429 Y77.171 E.11358
G1 X118.895 Y77.171 E.01675
G1 X121.904 Y80.179 E.13353
G1 X121.37 Y80.179 E.01675
G1 X118.361 Y77.171 E.13354
G1 X117.828 Y77.171 E.01675
G1 X120.836 Y80.179 E.13354
G1 X120.302 Y80.18 E.01675
M73 P1 R43
G1 X117.294 Y77.171 E.13355
G1 X116.76 Y77.171 E.01675
G1 X119.769 Y80.18 E.13355
G1 X119.251 Y80.196 E.01626
G1 X116.056 Y77.001 E.1418
M204 P1000
G1 E-2.24 F4200
;WIPE_START
G1 F7200
G1 X117.22 Y78.165 E-.912
;WIPE_END
G1 E-.048 F4200
G1 Z.4 F720
G1 X114.62 Y74.497 F9000
G1 Z.2 F720
G1 E3.2 F2400
M204 P800
G1 F1200
G1 X114.394 Y74.271 E.01002
G1 X113.86 Y74.271 E.01675
G1 X114.451 Y74.862 E.02623
G1 X114.452 Y75.397 E.0168
G1 X113.326 Y74.271 E.04999
G1 X112.792 Y74.271 E.01675
G1 X114.459 Y75.937 E.07396
G1 X114.48 Y76.102 E.00521
G1 X114.651 Y76.502 E.01366
G1 X114.813 Y76.735 E.00891
G1 X115.16 Y76.992 E.01355
G1 X115.424 Y77.113 E.00911
G1 X115.673 Y77.152 E.00792
G1 X118.827 Y80.305 E.13998
G1 X118.496 Y80.509 E.01218
G1 X112.259 Y74.271 E.27688
G1 X111.725 Y74.271 E.01675
G1 X118.258 Y80.804 E.28997
G1 X118.192 Y80.891 E.00343
G1 X118.074 Y81.154 E.00904
G1 X111.191 Y74.271 E.3055
G1 X110.657 Y74.271 E.01675
G1 X118.012 Y81.626 E.32647
G1 X118.012 Y82.16 E.01675
G1 X110.123 Y74.271 E.35016
G1 X109.589 Y74.271 E.01675
G1 X118.012 Y82.693 E.37385
G1 X118.012 Y83.227 E.01675
G1 X109.056 Y74.271 E.39754
G1 X108.522 Y74.271 E.01675
G1 X118.012 Y83.761 E.42124
G1 X118.012 Y84.295 E.01675
G1 X107.988 Y74.271 E.44493
G1 X107.454 Y74.271 E.01675
G1 X118.012 Y84.829 E.46862
G1 X118.012 Y85.362 E.01675
G1 X106.92 Y74.271 E.49231
G1 X106.387 Y74.271 E.01675
G1 X118.012 Y85.896 E.51601
G1 X118.012 Y86.43 E.01675
G1 X105.853 Y74.271 E.5397
G1 X105.319 Y74.271 E.01675
G1 X118.012 Y86.964 E.56339
G1 X118.012 Y87.497 E.01675
M73 P2 R43
G1 X104.785 Y74.271 E.58709
G1 X104.536 Y74.271 E.00781
G1 X104.535 Y74.555 E.00892
G1 X118.012 Y88.031 E.59816
G1 X118.012 Y88.565 E.01675
G1 X104.534 Y75.087 E.59823
G1 X104.533 Y75.62 E.01671
G1 X118.011 Y89.099 E.59829
G1 X118.011 Y89.179 E.00253
G1 X117.558 Y89.179 E.01422
G1 X104.499 Y76.12 E.57968
G1 X104.338 Y76.493 E.01276
G1 X117.025 Y89.179 E.5631
G1 X116.491 Y89.18 E.01675
G1 X104.1 Y76.788 E.55001
G1 X103.789 Y77.012 E.012
G1 X115.957 Y89.18 E.5401
G1 X115.423 Y89.18 E.01675
G1 X103.385 Y77.142 E.53433
G1 X103.185 Y77.171 E.00635
G1 X102.881 Y77.171 E.00956
G1 X114.89 Y89.18 E.53304
G1 X114.683 Y89.18 E.00648
G1 X114.408 Y89.231 E.0088
G1 X102.347 Y77.171 E.53533
G1 X101.813 Y77.171 E.01675
G1 X114.081 Y89.439 E.54452
G1 X113.867 Y89.758 E.01208
G1 X101.279 Y77.171 E.55872
G1 X100.746 Y77.171 E.01675
G1 X113.671 Y90.097 E.57374
G1 X113.476 Y90.435 E.01227
G1 X100.212 Y77.171 E.58876
G1 X99.678 Y77.171 E.01675
G1 X113.28 Y90.774 E.60378
G1 X113.085 Y91.112 E.01227
G1 X99.144 Y77.171 E.6188
G1 X98.61 Y77.171 E.01675
G1 X112.89 Y91.45 E.63382
G1 X112.694 Y91.789 E.01227
G1 X98.076 Y77.171 E.64884
G1 X97.543 Y77.171 E.01675
G1 X112.499 Y92.127 E.66387
G1 X112.304 Y92.466 E.01227
G1 X96.998 Y77.171 E.67914
G1 X96.998 Y77.694 E.0164
G1 X99.483 Y80.179 E.11033
G1 X98.949 Y80.179 E.01676
G1 X96.998 Y78.227 E.08663
G1 X96.998 Y78.761 E.01675
G1 X98.415 Y80.179 E.06294
G1 X97.882 Y80.179 E.01676
G1 X96.998 Y79.295 E.03924
G1 X96.998 Y79.829 E.01675
G1 X97.518 Y80.349 E.02308
M204 P1000
G1 E-2.24 F4200
;WIPE_START
G1 F7200
G1 X96.998 Y79.829 E-.40747
G1 X96.998 Y79.295 E-.29582
G1 X97.264 Y79.561 E-.20871
;WIPE_END
G1 E-.048 F4200
G1 Z.4 F720
G1 X100.796 Y81.492 F9000
G1 Z.2 F720
G1 E3.2 F2400
M204 P800
G1 F1200
G1 X112.119 Y92.815 E.5026
G1 X112.055 Y92.986 E.00574
G1 X112.039 Y93.15 E.00517
G1 X112.052 Y93.282 E.00415
G1 X100.974 Y82.204 E.49171
G1 X100.974 Y82.738 E.01675
G1 X113.085 Y94.849 E.53758
M204 P1000
G1 E-2.24 F4200
;WIPE_START
G1 F7200
G1 X111.922 Y93.685 E-.912
;WIPE_END
G1 E-.048 F4200
G1 Z.4 F720
G1 X117.323 Y96.951 F9000
G1 Z.2 F720
G1 E3.2 F2400
M204 P800
G1 F1200
G1 X118.011 Y97.64 E.03058
G1 X118.011 Y98.174 E.01675
G1 X116.958 Y97.12 E.04674
G1 X116.424 Y97.12 E.01676
G1 X118.011 Y98.707 E.07044
G1 X118.011 Y99.241 E.01675
G1 X115.89 Y97.12 E.09414
G1 X115.357 Y97.12 E.01676
G1 X118.011 Y99.775 E.11784
G1 X118.011 Y100.309 E.01675
G1 X114.823 Y97.12 E.14154
G1 X114.682 Y97.12 E.00442
G1 X114.394 Y97.068 E.0092
G1 X114.173 Y96.944 E.00794
G1 X114.079 Y96.86 E.00395
G1 X113.959 Y96.701 E.00627
G1 X113.351 Y95.648 E.03814
G1 X100.974 Y83.272 E.54937
G1 X100.974 Y83.805 E.01675
M73 P3 R43
G1 X118.011 Y100.843 E.75624
G1 X118.011 Y101.376 E.01675
G1 X100.974 Y84.339 E.75624
G1 X100.974 Y84.873 E.01675
G1 X118.011 Y101.91 E.75624
G1 X118.011 Y102.444 E.01675
G1 X100.974 Y85.407 E.75624
G1 X100.974 Y85.941 E.01675
G1 X104.213 Y89.18 E.14378
G1 X104.548 Y89.217 E.01057
G1 X104.754 Y89.314 E.00714
G1 X104.901 Y89.433 E.00592
G1 X105.027 Y89.599 E.00654
G1 X105.566 Y90.532 E.03383
G1 X118.011 Y102.978 E.55242
G1 X118.011 Y103.512 E.01675
G1 X106.295 Y91.795 E.52005
G1 X106.836 Y92.733 E.03396
G1 X106.918 Y92.952 E.00736
G1 X117.994 Y104.028 E.49163
G1 X117.985 Y104.143 E.00363
G1 X117.916 Y104.43 E.00924
G1 X117.9 Y104.468 E.00131
G1 X106.881 Y93.449 E.48914
G1 X106.836 Y93.567 E.00398
G1 X106.701 Y93.802 E.00852
G1 X117.726 Y104.828 E.4894
G1 X117.65 Y104.953 E.00459
G1 X117.497 Y105.132 E.00741
G1 X106.505 Y94.141 E.48787
G1 X106.31 Y94.479 E.01227
G1 X117.212 Y105.382 E.48392
G1 X116.984 Y105.521 E.0084
G1 X116.867 Y105.57 E.00398
G1 X106.114 Y94.818 E.47726
G1 X105.919 Y95.156 E.01227
G1 X116.458 Y105.695 E.46779
G1 X115.958 Y105.729 E.01572
G1 X105.724 Y95.494 E.45429
G1 X105.528 Y95.833 E.01227
G1 X115.424 Y105.729 E.43926
G1 X114.891 Y105.729 E.01675
G1 X105.333 Y96.171 E.42424
G1 X105.137 Y96.51 E.01227
G1 X114.357 Y105.729 E.40922
G1 X113.823 Y105.729 E.01675
G1 X104.927 Y96.833 E.39486
G1 X104.813 Y96.945 E.005
G1 X104.615 Y97.055 E.00711
G1 X113.289 Y105.729 E.38502
G1 X112.755 Y105.729 E.01675
G1 X104.147 Y97.12 E.38212
G1 X103.613 Y97.12 E.01675
G1 X112.222 Y105.729 E.38212
G1 X111.688 Y105.729 E.01675
G1 X103.079 Y97.12 E.38212
G1 X102.545 Y97.121 E.01675
G1 X111.154 Y105.729 E.38211
G1 X110.62 Y105.729 E.01675
G1 X102.012 Y97.121 E.38211
G1 X101.478 Y97.121 E.01675
G1 X110.086 Y105.729 E.3821
G1 X109.552 Y105.729 E.01675
G1 X100.974 Y97.151 E.38077
G1 X100.974 Y97.685 E.01675
G1 X109.019 Y105.729 E.35707
G1 X108.485 Y105.729 E.01675
M73 P3 R42
G1 X100.974 Y98.218 E.33338
G1 X100.974 Y98.752 E.01675
G1 X107.951 Y105.729 E.30968
G1 X107.417 Y105.729 E.01675
G1 X100.974 Y99.286 E.28599
G1 X100.974 Y99.82 E.01675
G1 X106.883 Y105.729 E.26229
G1 X106.35 Y105.729 E.01675
G1 X100.974 Y100.354 E.2386
G1 X100.974 Y100.888 E.01675
G1 X105.816 Y105.729 E.21491
G1 X105.282 Y105.729 E.01675
G1 X100.974 Y101.421 E.19121
G1 X100.974 Y101.955 E.01675
G1 X104.748 Y105.729 E.16752
G1 X104.214 Y105.729 E.01675
G1 X100.974 Y102.489 E.14382
G1 X100.974 Y103.023 E.01675
G1 X103.68 Y105.729 E.12013
G1 X103.147 Y105.729 E.01675
G1 X100.974 Y103.557 E.09643
G1 X100.998 Y104.115 E.01753
G1 X102.773 Y105.89 E.0788
M204 P1000
G1 E-2.24 F4200
;WIPE_START
G1 F7200
G1 X101.61 Y104.726 E-.912
;WIPE_END
G1 E-.048 F4200
G1 Z.4 F720
G1 X103.849 Y89.349 F9000
G1 Z.2 F720
M73 P4 R42
G1 E3.2 F2400
M204 P800
G1 F1200
G1 X100.974 Y86.474 E.12761
G1 X100.974 Y87.008 E.01675
G1 X103.146 Y89.18 E.09638
G1 X102.612 Y89.18 E.01676
G1 X100.974 Y87.542 E.07268
G1 X100.974 Y88.076 E.01675
G1 X102.078 Y89.179 E.04898
G1 X101.544 Y89.179 E.01676
G1 X100.974 Y88.61 E.02528
G1 X100.974 Y89.144 E.01675
G1 X101.18 Y89.349 E.00912
M204 P1000
; stop printing object DB9.STL id:0 copy 0
; printing object DB9-industrial.stl id:1 copy 0
G1 E-2.24 F4200
;WIPE_START
G1 F7200
G1 X100.974 Y89.144 E-.16101
G1 X100.974 Y88.61 E-.29583
G1 X101.544 Y89.179 E-.44644
G1 X101.56 Y89.179 E-.00873
;WIPE_END
G1 E-.048 F4200
G1 Z.4 F720
G1 X61.419 Y82.171 F9000
G1 Z.2 F720
G1 E3.2 F2400
M204 P800
;TYPE:Perimeter
;WIDTH:0.419999
G1 F1200
G1 X61.419 Y83.29 E.03509
;WIDTH:0.46265
G1 X61.398 Y83.77 E.01677
;WIDTH:0.5053
G1 X61.376 Y84.25 E.01847
G1 X61.138 Y83.974 E.01399
;WIDTH:0.46265
G1 X60.899 Y83.699 E.0127
;WIDTH:0.419999
G1 X60.614 Y83.647 E.00909
G1 X59.658 Y83.648 E.02998
G1 X59.658 Y82.359 E.04044
;WIDTH:0.461381
G1 X59.679 Y82.089 E.00941
;WIDTH:0.502762
G1 X59.699 Y81.82 E.01034
;WIDTH:0.544143
G1 X59.72 Y81.55 E.01127
;WIDTH:0.585524
G1 X59.741 Y81.281 E.0122
;WIDTH:0.586317
G1 X59.741 Y76.771 E.20375
G1 X60.285 Y76.774 E.02456
G1 X60.283 Y81.281 E.20364
;WIDTH:0.592492
G1 X60.29 Y81.394 E.00517
G1 X60.324 Y81.464 E.00356
;WIDTH:0.557233
G1 X60.358 Y81.534 E.00333
;WIDTH:0.521974
G1 X60.392 Y81.604 E.0031
;WIDTH:0.486714
G1 X60.505 Y81.754 E.00693
;WIDTH:0.453357
G1 X60.617 Y81.904 E.00641
;WIDTH:0.419999
G1 X60.93 Y82.128 E.01206
G1 X61.36 Y82.165 E.01352
