; generated by PrusaSlicer 2.5.0+win64 on 2022-09-25 at 15:21:58 UTC


;
;

;
;
; 

; external perimeters extrusion width = 0.45mm
; perimeters extrusion width = 0.45mm
; infill extrusion width = 0.45mm
; solid infill extrusion width = 0.45mm
; top infill extrusion width = 0.40mm
; first layer extrusion width = 0.42mm

M73 P0 R156
M201 X2500 Y2500 Z400 E5000 ; sets maximum accelerations, mm/sec^2
M203 X180 Y180 Z12 E80 ; sets maximum feedrates, mm / sec
M204 P1250 R1250 T2500 ; sets acceleration (P, T) and retract acceleration (R), mm/sec^2
M205 X8.00 Y8.00 Z2.00 E10.00 ; sets the jerk limits, mm/sec
M205 S0 T0 ; sets the minimum extruding and travel feed rate, mm/sec
M107
;TYPE:Custom
M862.3 P "MINI" ; printer model check
G90 ; use absolute coordinates
M83 ; extruder relative mode
M104 S170 ; set extruder temp for bed leveling
M140 S60 ; set bed temp
M109 R170 ; wait for bed leveling temp
M190 S60 ; wait for bed temp
M204 T1250 ; set travel acceleration
G28 ; home all without mesh bed level
G29 ; mesh bed leveling 
M204 T2500 ; restore travel acceleration
M104 S215 ; set extruder temp
G92 E0
G1 Y-2 X179 F2400
G1 Z3 F720
M109 S215 ; wait for extruder temp

; intro line
G1 X170 F1000
G1 Z0.2 F720
G1 X110 E8 F900
G1 X40 E10 F700
G92 E0

M221 S95 ; set flow
G21 ; set units to millimeters
G90 ; use absolute coordinates
M83 ; use relative distances for extrusion
M900 K0.2 ; Filament gcode LA 1.5
; ; Filament gcode LA 1.0
M107
;LAYER_CHANGE
;Z:0.2
;HEIGHT:0.2
;BEFORE_LAYER_CHANGE
G92 E0.0
;0.2


G1 E-3.2 F4200
G1 Z.2 F720
;AFTER_LAYER_CHANGE
;0.2
G1 Z.4
G1 X41.26 Y73.917 F9000
G1 Z.2 F720
G1 E3.2 F2400
M204 P800
;TYPE:Skirt/Brim
;WIDTH:0.42
G1 F1200
G1 X42.2 Y73.723 E.03008
G1 X137.8 Y73.723 E2.99747
G1 X139.107 Y74.115 E.04278
G1 X139.983 Y75.16 E.04278
G1 X140.177 Y76.1 E.03008
G1 X140.177 Y103.9 E.87165
G1 X139.785 Y105.207 E.04278
M73 P0 R155
G1 X138.74 Y106.083 E.04278
G1 X137.8 Y106.277 E.03008
G1 X42.2 Y106.277 E2.99747
G1 X40.893 Y105.885 E.04278
G1 X40.017 Y104.84 E.04278
G1 X39.823 Y103.9 E.03008
G1 X39.823 Y76.1 E.87165
G1 X40.215 Y74.793 E.04278
G1 X41.214 Y73.955 E.0409
M204 P1000
; printing object DrawFull.stl id:0 copy 0
G1 E-2.24 F4200
;WIPE_START
G1 F7200
G1 X42.2 Y73.723 E-.56121
G1 X42.833 Y73.723 E-.35079
;WIPE_END
G1 E-.048 F4200
G1 Z.4 F720
G1 X42.987 Y76.887 F9000
G1 Z.2 F720
G1 E3.2 F2400
M204 P800
;TYPE:Perimeter
;WIDTH:0.419999
G1 F1200
G1 X137.013 Y76.887 E2.94811
G1 X137.013 Y103.113 E.82229
G1 X42.987 Y103.113 E2.94811
G1 X42.987 Y76.947 E.82041
M204 P1000
G1 X42.61 Y76.51 F9000
M204 P800
;TYPE:External perimeter
G1 F1200
G1 X137.39 Y76.51 E2.97176
G1 X137.39 Y103.49 E.84594
G1 X42.61 Y103.49 E2.97176
G1 X42.61 Y76.57 E.84406
M204 P1000
G1 X43.008 Y76.547 F9000
G1 E-2.24 F4200
;WIPE_START
G1 F7200
G1 X44.256 Y76.569 E-.912
;WIPE_END
G1 E-.048 F4200
G1 Z.4 F720
G1 X136.135 Y77 F9000
G1 Z.2 F720
G1 E3.2 F2400
M204 P800
;TYPE:Solid infill
;WIDTH:0.421331
G1 F1200
G1 X136.73 Y77.596 E.02649
G1 X136.73 Y78.131 E.01684
G1 X135.769 Y77.17 E.04276
G1 X135.234 Y77.17 E.01684
G1 X136.73 Y78.666 E.06657
G1 X136.73 Y79.201 E.01684
G1 X134.699 Y77.17 E.09038
G1 X134.164 Y77.17 E.01684
G1 X136.73 Y79.736 E.1142
G1 X136.73 Y80.271 E.01684
G1 X133.629 Y77.17 E.13801
G1 X133.093 Y77.17 E.01684
G1 X136.73 Y80.807 E.16182
G1 X136.73 Y81.342 E.01684
G1 X132.558 Y77.17 E.18564
G1 X132.023 Y77.17 E.01684
G1 X136.73 Y81.877 E.20945
G1 X136.73 Y82.412 E.01684
G1 X131.488 Y77.17 E.23326
G1 X130.953 Y77.17 E.01684
G1 X136.73 Y82.947 E.25708
G1 X136.73 Y83.482 E.01684
G1 X130.418 Y77.17 E.28089
G1 X129.883 Y77.17 E.01684
G1 X136.73 Y84.017 E.3047
G1 X136.73 Y84.553 E.01684
G1 X129.347 Y77.17 E.32852
G1 X128.812 Y77.17 E.01684
G1 X136.73 Y85.088 E.35233
G1 X136.73 Y85.623 E.01684
G1 X128.277 Y77.17 E.37615
G1 X127.742 Y77.17 E.01684
G1 X136.73 Y86.158 E.39996
G1 X136.73 Y86.693 E.01684
G1 X127.207 Y77.17 E.42377
G1 X126.672 Y77.17 E.01684
G1 X136.73 Y87.228 E.44759
G1 X136.73 Y87.764 E.01684
G1 X126.136 Y77.17 E.4714
G1 X125.601 Y77.17 E.01684
G1 X136.73 Y88.299 E.49521
G1 X136.73 Y88.834 E.01684
G1 X125.066 Y77.17 E.51903
G1 X124.531 Y77.17 E.01684
G1 X136.73 Y89.369 E.54284
G1 X136.73 Y89.904 E.01684
G1 X123.996 Y77.17 E.56665
G1 X123.461 Y77.17 E.01684
G1 X136.73 Y90.439 E.59047
G1 X136.73 Y90.974 E.01684
G1 X122.926 Y77.17 E.61428
G1 X122.39 Y77.17 E.01684
G1 X136.73 Y91.51 E.63809
G1 X136.73 Y92.045 E.01684
G1 X121.855 Y77.17 E.66191
G1 X121.32 Y77.17 E.01684
G1 X136.73 Y92.58 E.68572
G1 X136.73 Y93.115 E.01684
G1 X120.785 Y77.17 E.70953
G1 X120.25 Y77.17 E.01684
G1 X136.73 Y93.65 E.73335
G1 X136.73 Y94.185 E.01684
G1 X119.715 Y77.17 E.75716
G1 X119.179 Y77.17 E.01684
G1 X136.73 Y94.721 E.78097
G1 X136.73 Y95.256 E.01684
G1 X118.644 Y77.17 E.80479
G1 X118.109 Y77.17 E.01684
G1 X136.73 Y95.791 E.8286
G1 X136.73 Y96.326 E.01684
G1 X117.574 Y77.17 E.85241
G1 X117.039 Y77.17 E.01684
G1 X136.73 Y96.861 E.87623
G1 X136.73 Y97.396 E.01684
M73 P0 R154
G1 X116.504 Y77.17 E.90004
G1 X115.969 Y77.17 E.01684
G1 X136.73 Y97.931 E.92385
G1 X136.73 Y98.467 E.01684
G1 X115.433 Y77.17 E.94767
G1 X114.898 Y77.17 E.01684
G1 X136.73 Y99.002 E.97148
G1 X136.73 Y99.537 E.01684
G1 X114.363 Y77.17 E.99529
G1 X113.828 Y77.17 E.01684
G1 X136.73 Y100.072 E1.01911
G1 X136.73 Y100.607 E.01684
G1 X113.293 Y77.17 E1.04292
G1 X112.758 Y77.17 E.01684
M73 P1 R154
G1 X136.73 Y101.142 E1.06673
G1 X136.73 Y101.678 E.01684
G1 X112.222 Y77.17 E1.09055
G1 X111.687 Y77.17 E.01684
G1 X136.73 Y102.213 E1.11436
G1 X136.73 Y102.748 E.01684
G1 X111.152 Y77.17 E1.13817
G1 X110.617 Y77.17 E.01684
G1 X136.277 Y102.83 E1.14184
G1 X135.742 Y102.83 E.01684
G1 X110.082 Y77.17 E1.14184
G1 X109.547 Y77.17 E.01684
G1 X135.207 Y102.83 E1.14184
G1 X134.672 Y102.83 E.01684
G1 X109.012 Y77.17 E1.14184
G1 X108.476 Y77.17 E.01684
G1 X134.137 Y102.83 E1.14184
G1 X133.601 Y102.83 E.01684
G1 X107.941 Y77.17 E1.14184
G1 X107.406 Y77.17 E.01684
G1 X133.066 Y102.83 E1.14184
G1 X132.531 Y102.83 E.01684
G1 X106.871 Y77.17 E1.14184
G1 X106.336 Y77.17 E.01684
G1 X131.996 Y102.83 E1.14184
G1 X131.461 Y102.83 E.01684
G1 X105.801 Y77.17 E1.14184
G1 X105.265 Y77.17 E.01684
G1 X130.926 Y102.83 E1.14184
G1 X130.391 Y102.83 E.01684
G1 X104.73 Y77.17 E1.14184
G1 X104.195 Y77.17 E.01684
G1 X129.855 Y102.83 E1.14184
G1 X129.32 Y102.83 E.01684
G1 X103.66 Y77.17 E1.14184
G1 X103.125 Y77.17 E.01684
G1 X128.785 Y102.83 E1.14184
G1 X128.25 Y102.83 E.01684
G1 X102.59 Y77.17 E1.14184
G1 X102.055 Y77.17 E.01684
G1 X127.715 Y102.83 E1.14184
G1 X127.18 Y102.83 E.01684
G1 X101.519 Y77.17 E1.14184
G1 X100.984 Y77.17 E.01684
G1 X126.644 Y102.83 E1.14184
G1 X126.109 Y102.83 E.01684
G1 X100.449 Y77.17 E1.14184
G1 X99.914 Y77.17 E.01684
G1 X125.574 Y102.83 E1.14184
G1 X125.039 Y102.83 E.01684
G1 X99.379 Y77.17 E1.14184
G1 X98.844 Y77.17 E.01684
G1 X124.504 Y102.83 E1.14184
G1 X123.969 Y102.83 E.01684
M73 P1 R153
G1 X98.308 Y77.17 E1.14184
G1 X97.773 Y77.17 E.01684
G1 X123.434 Y102.83 E1.14184
G1 X122.898 Y102.83 E.01684
G1 X97.238 Y77.17 E1.14184
G1 X96.703 Y77.17 E.01684
G1 X122.363 Y102.83 E1.14184
G1 X121.828 Y102.83 E.01684
G1 X96.168 Y77.17 E1.14184
G1 X95.633 Y77.17 E.01684
G1 X121.293 Y102.83 E1.14184
G1 X120.758 Y102.83 E.01684
G1 X95.098 Y77.17 E1.14184
G1 X94.562 Y77.17 E.01684
G1 X120.223 Y102.83 E1.14184
G1 X119.687 Y102.83 E.01684
G1 X94.027 Y77.17 E1.14184
G1 X93.492 Y77.17 E.01684
G1 X119.152 Y102.83 E1.14184
G1 X118.617 Y102.83 E.01684
G1 X92.957 Y77.17 E1.14184
G1 X92.422 Y77.17 E.01684
G1 X118.082 Y102.83 E1.14184
G1 X117.547 Y102.83 E.01684
G1 X91.887 Y77.17 E1.14184
G1 X91.351 Y77.17 E.01684
G1 X117.012 Y102.83 E1.14184
G1 X116.477 Y102.83 E.01684
G1 X90.816 Y77.17 E1.14184
G1 X90.281 Y77.17 E.01684
G1 X115.941 Y102.83 E1.14184
G1 X115.406 Y102.83 E.01684
G1 X89.746 Y77.17 E1.14184
G1 X89.211 Y77.17 E.01684
G1 X114.871 Y102.83 E1.14184
G1 X114.336 Y102.83 E.01684
G1 X88.676 Y77.17 E1.14184
G1 X88.141 Y77.17 E.01684
G1 X113.801 Y102.83 E1.14184
G1 X113.266 Y102.83 E.01684
G1 X87.605 Y77.17 E1.14184
G1 X87.07 Y77.17 E.01684
G1 X112.73 Y102.83 E1.14184
G1 X112.195 Y102.83 E.01684
G1 X86.535 Y77.17 E1.14184
G1 X86 Y77.17 E.01684
G1 X111.66 Y102.83 E1.14184
G1 X111.125 Y102.83 E.01684
M73 P2 R153
G1 X85.465 Y77.17 E1.14184
G1 X84.93 Y77.17 E.01684
G1 X110.59 Y102.83 E1.14184
G1 X110.055 Y102.83 E.01684
G1 X84.394 Y77.17 E1.14184
G1 X83.859 Y77.17 E.01684
G1 X109.52 Y102.83 E1.14184
G1 X108.984 Y102.83 E.01684
G1 X83.324 Y77.17 E1.14184
G1 X82.789 Y77.17 E.01684
G1 X108.449 Y102.83 E1.14184
G1 X107.914 Y102.83 E.01684
G1 X82.254 Y77.17 E1.14184
G1 X81.719 Y77.17 E.01684
G1 X107.379 Y102.83 E1.14184
G1 X106.844 Y102.83 E.01684
M73 P2 R152
G1 X81.184 Y77.17 E1.14184
G1 X80.648 Y77.17 E.01684
G1 X106.309 Y102.83 E1.14184
G1 X105.773 Y102.83 E.01684
G1 X80.113 Y77.17 E1.14184
G1 X79.578 Y77.17 E.01684
G1 X105.238 Y102.83 E1.14184
G1 X104.703 Y102.83 E.01684
G1 X79.043 Y77.17 E1.14184
G1 X78.508 Y77.17 E.01684
G1 X104.168 Y102.83 E1.14184
G1 X103.633 Y102.83 E.01684
G1 X77.973 Y77.17 E1.14184
G1 X77.437 Y77.17 E.01684
G1 X103.098 Y102.83 E1.14184
G1 X102.563 Y102.83 E.01684
G1 X76.902 Y77.17 E1.14184
G1 X76.367 Y77.17 E.01684
G1 X102.027 Y102.83 E1.14184
G1 X101.492 Y102.83 E.01684
G1 X75.832 Y77.17 E1.14184
G1 X75.297 Y77.17 E.01684
G1 X100.957 Y102.83 E1.14184
G1 X100.422 Y102.83 E.01684
G1 X74.762 Y77.17 E1.14184
G1 X74.227 Y77.17 E.01684
G1 X99.887 Y102.83 E1.14184
G1 X99.352 Y102.83 E.01684
G1 X73.691 Y77.17 E1.14184
G1 X73.156 Y77.17 E.01684
G1 X98.816 Y102.83 E1.14184
G1 X98.281 Y102.83 E.01684
G1 X72.621 Y77.17 E1.14184
G1 X72.086 Y77.17 E.01684
G1 X97.746 Y102.83 E1.14184
G1 X97.211 Y102.83 E.01684
G1 X71.551 Y77.17 E1.14184
G1 X71.016 Y77.17 E.01684
G1 X96.676 Y102.83 E1.14184
G1 X96.141 Y102.83 E.01684
G1 X70.48 Y77.17 E1.14184
G1 X69.945 Y77.17 E.01684
G1 X95.606 Y102.83 E1.14184
G1 X95.07 Y102.83 E.01684
G1 X69.41 Y77.17 E1.14184
G1 X68.875 Y77.17 E.01684
G1 X94.535 Y102.83 E1.14184
G1 X94 Y102.83 E.01684
G1 X68.34 Y77.17 E1.14184
G1 X67.805 Y77.17 E.01684
G1 X93.465 Y102.83 E1.14184
G1 X92.93 Y102.83 E.01684
G1 X67.27 Y77.17 E1.14184
G1 X66.734 Y77.17 E.01684
G1 X92.395 Y102.83 E1.14184
G1 X91.859 Y102.83 E.01684
G1 X66.199 Y77.17 E1.14184
G1 X65.664 Y77.17 E.01684
G1 X91.324 Y102.83 E1.14184
G1 X90.789 Y102.83 E.01684
G1 X65.129 Y77.17 E1.14184
G1 X64.594 Y77.17 E.01684
G1 X90.254 Y102.83 E1.14184
G1 X89.719 Y102.83 E.01684
M73 P2 R151
G1 X64.059 Y77.17 E1.14184
G1 X63.523 Y77.17 E.01684
G1 X89.184 Y102.83 E1.14184
G1 X88.649 Y102.83 E.01684
G1 X62.988 Y77.17 E1.14184
G1 X62.453 Y77.17 E.01684
G1 X88.113 Y102.83 E1.14184
G1 X87.578 Y102.83 E.01684
G1 X61.918 Y77.17 E1.14184
G1 X61.383 Y77.17 E.01684
G1 X87.043 Y102.83 E1.14184
G1 X86.508 Y102.83 E.01684
G1 X60.848 Y77.17 E1.14184
G1 X60.313 Y77.17 E.01684
G1 X85.973 Y102.83 E1.14184
G1 X85.438 Y102.83 E.01684
G1 X59.777 Y77.17 E1.14184
G1 X59.242 Y77.17 E.01684
G1 X84.902 Y102.83 E1.14184
G1 X84.367 Y102.83 E.01684
G1 X58.707 Y77.17 E1.14184
G1 X58.172 Y77.17 E.01684
M73 P3 R151
G1 X83.832 Y102.83 E1.14184
G1 X83.297 Y102.83 E.01684
G1 X57.637 Y77.17 E1.14184
G1 X57.102 Y77.17 E.01684
G1 X82.762 Y102.83 E1.14184
G1 X82.227 Y102.83 E.01684
G1 X56.566 Y77.17 E1.14184
G1 X56.031 Y77.17 E.01684
G1 X81.692 Y102.83 E1.14184
G1 X81.156 Y102.83 E.01684
G1 X55.496 Y77.17 E1.14184
G1 X54.961 Y77.17 E.01684
G1 X80.621 Y102.83 E1.14184
G1 X80.086 Y102.83 E.01684
G1 X54.426 Y77.17 E1.14184
G1 X53.891 Y77.17 E.01684
G1 X79.551 Y102.83 E1.14184
G1 X79.016 Y102.83 E.01684
G1 X53.356 Y77.17 E1.14184
G1 X52.82 Y77.17 E.01684
G1 X78.481 Y102.83 E1.14184
G1 X77.945 Y102.83 E.01684
G1 X52.285 Y77.17 E1.14184
G1 X51.75 Y77.17 E.01684
G1 X77.41 Y102.83 E1.14184
G1 X76.875 Y102.83 E.01684
G1 X51.215 Y77.17 E1.14184
G1 X50.68 Y77.17 E.01684
G1 X76.34 Y102.83 E1.14184
G1 X75.805 Y102.83 E.01684
G1 X50.145 Y77.17 E1.14184
G1 X49.609 Y77.17 E.01684
G1 X75.27 Y102.83 E1.14184
G1 X74.735 Y102.83 E.01684
G1 X49.074 Y77.17 E1.14184
G1 X48.539 Y77.17 E.01684
G1 X74.199 Y102.83 E1.14184
G1 X73.664 Y102.83 E.01684
G1 X48.004 Y77.17 E1.14184
G1 X47.469 Y77.17 E.01684
G1 X73.129 Y102.83 E1.14184
G1 X72.594 Y102.83 E.01684
G1 X46.934 Y77.17 E1.14184
G1 X46.399 Y77.17 E.01684
M73 P3 R150
G1 X72.059 Y102.83 E1.14184
G1 X71.524 Y102.83 E.01684
G1 X45.863 Y77.17 E1.14184
G1 X45.328 Y77.17 E.01684
G1 X70.988 Y102.83 E1.14184
G1 X70.453 Y102.83 E.01684
G1 X44.793 Y77.17 E1.14184
G1 X44.258 Y77.17 E.01684
G1 X69.918 Y102.83 E1.14184
G1 X69.383 Y102.83 E.01684
G1 X43.723 Y77.17 E1.14184
G1 X43.27 Y77.17 E.01425
G1 X43.27 Y77.252 E.00259
G1 X68.848 Y102.83 E1.13817
G1 X68.313 Y102.83 E.01684
G1 X43.27 Y77.787 E1.11436
G1 X43.27 Y78.322 E.01684
G1 X67.778 Y102.83 E1.09055
G1 X67.242 Y102.83 E.01684
G1 X43.27 Y78.858 E1.06673
G1 X43.27 Y79.393 E.01684
G1 X66.707 Y102.83 E1.04292
G1 X66.172 Y102.83 E.01684
G1 X43.27 Y79.928 E1.01911
G1 X43.27 Y80.463 E.01684
G1 X65.637 Y102.83 E.99529
G1 X65.102 Y102.83 E.01684
G1 X43.27 Y80.998 E.97148
G1 X43.27 Y81.533 E.01684
G1 X64.567 Y102.83 E.94767
G1 X64.031 Y102.83 E.01684
G1 X43.27 Y82.069 E.92385
G1 X43.27 Y82.604 E.01684
G1 X63.496 Y102.83 E.90004
G1 X62.961 Y102.83 E.01684
G1 X43.27 Y83.139 E.87623
G1 X43.27 Y83.674 E.01684
G1 X62.426 Y102.83 E.85241
G1 X61.891 Y102.83 E.01684
G1 X43.27 Y84.209 E.8286
G1 X43.27 Y84.744 E.01684
G1 X61.356 Y102.83 E.80479
G1 X60.821 Y102.83 E.01684
G1 X43.27 Y85.279 E.78097
G1 X43.27 Y85.815 E.01684
G1 X60.285 Y102.83 E.75716
G1 X59.75 Y102.83 E.01684
G1 X43.27 Y86.35 E.73335
G1 X43.27 Y86.885 E.01684
G1 X59.215 Y102.83 E.70953
G1 X58.68 Y102.83 E.01684
G1 X43.27 Y87.42 E.68572
G1 X43.27 Y87.955 E.01684
G1 X58.145 Y102.83 E.66191
G1 X57.61 Y102.83 E.01684
G1 X43.27 Y88.49 E.63809
G1 X43.27 Y89.026 E.01684
G1 X57.074 Y102.83 E.61428
G1 X56.539 Y102.83 E.01684
G1 X43.27 Y89.561 E.59047
G1 X43.27 Y90.096 E.01684
G1 X56.004 Y102.83 E.56665
G1 X55.469 Y102.83 E.01684
G1 X43.27 Y90.631 E.54284
G1 X43.27 Y91.166 E.01684
G1 X54.934 Y102.83 E.51903
G1 X54.399 Y102.83 E.01684
G1 X43.27 Y91.701 E.49521
G1 X43.27 Y92.236 E.01684
G1 X53.864 Y102.83 E.4714
G1 X53.328 Y102.83 E.01684
G1 X43.27 Y92.772 E.44759
G1 X43.27 Y93.307 E.01684
G1 X52.793 Y102.83 E.42377
G1 X52.258 Y102.83 E.01684
G1 X43.27 Y93.842 E.39996
G1 X43.27 Y94.377 E.01684
G1 X51.723 Y102.83 E.37615
M73 P4 R150
G1 X51.188 Y102.83 E.01684
G1 X43.27 Y94.912 E.35233
G1 X43.27 Y95.447 E.01684
G1 X50.653 Y102.83 E.32852
G1 X50.117 Y102.83 E.01684
G1 X43.27 Y95.983 E.30471
G1 X43.27 Y96.518 E.01684
G1 X49.582 Y102.83 E.28089
G1 X49.047 Y102.83 E.01684
G1 X43.27 Y97.053 E.25708
G1 X43.27 Y97.588 E.01684
G1 X48.512 Y102.83 E.23327
G1 X47.977 Y102.83 E.01684
G1 X43.27 Y98.123 E.20945
G1 X43.27 Y98.658 E.01684
G1 X47.442 Y102.83 E.18564
G1 X46.907 Y102.83 E.01684
G1 X43.27 Y99.193 E.16183
G1 X43.27 Y99.729 E.01684
G1 X46.371 Y102.83 E.13801
G1 X45.836 Y102.83 E.01684
G1 X43.27 Y100.264 E.1142
G1 X43.27 Y100.799 E.01684
G1 X45.301 Y102.83 E.09038
G1 X44.766 Y102.83 E.01684
G1 X43.27 Y101.334 E.06657
G1 X43.27 Y101.869 E.01684
G1 X44.231 Y102.83 E.04276
G1 X43.696 Y102.83 E.01684
G1 X43.1 Y102.235 E.0265
M204 P1000
; stop printing object DrawFull.stl id:0 copy 0
M106 S84.15
;LAYER_CHANGE
;Z:0.4
;HEIGHT:0.2
;BEFORE_LAYER_CHANGE
G92 E0.0
;0.4


G1 E-2.24 F4200
;WIPE_START
G1 F7200
G1 X43.696 Y102.83 E-.46664
G1 X44.231 Y102.83 E-.29656
G1 X44.041 Y102.64 E-.14879
;WIPE_END
G1 E-.048 F4200
G1 Z.4 F720
;AFTER_LAYER_CHANGE
;0.4
M104 S210 ; set temperature
G1 Z.6
G1 X44.041 Y106.277 F9000
G1 Z.4 F720
G1 E3.2 F2400
;TYPE:Skirt/Brim
;WIDTH:0.42
G1 X42.2 Y106.277 E.05772
G1 X40.893 Y105.885 E.04278
G1 X40.017 Y104.84 E.04278
G1 X39.823 Y103.9 E.03008
G1 X39.823 Y76.1 E.87165
G1 X40.215 Y74.793 E.04278
M73 P4 R149
G1 X41.26 Y73.917 E.04278
G1 X42.2 Y73.723 E.03008
G1 X137.8 Y73.723 E2.99747
G1 X139.107 Y74.115 E.04278
G1 X139.983 Y75.16 E.04278
G1 X140.177 Y76.1 E.03008
G1 X140.177 Y103.9 E.87165
G1 X139.785 Y105.207 E.04278
G1 X138.74 Y106.083 E.04278
G1 X137.8 Y106.277 E.03008
G1 X44.101 Y106.277 E2.93787
; printing object DrawFull.stl id:0 copy 0
