; generated by PrusaSlicer 2.4.2+win64 on 2022-09-11 at 08:06:23 UTC


;
;

;
;
; 

; external perimeters extrusion width = 0.45mm
; perimeters extrusion width = 0.45mm
; infill extrusion width = 0.45mm
; solid infill extrusion width = 0.45mm
; top infill extrusion width = 0.40mm
; support material extrusion width = 0.40mm
; first layer extrusion width = 0.70mm

; external perimeters extrusion width = 0.45mm
; perimeters extrusion width = 0.45mm
; infill extrusion width = 0.45mm
; solid infill extrusion width = 0.45mm
; top infill extrusion width = 0.40mm
; support material extrusion width = 0.40mm
; first layer extrusion width = 0.70mm

M107
;TYPE:Custom
M82 ;set extruder to absolute mode
M107 ;start with the fan off;
G28 ; home all axes
M420 S1 ; restore mesh
G1 Z5 F5000 ; lift nozzle
;
M140 S60 ; set bed temp
M104 S150 ; set extruder temp
M109 S150 ; wait for extruder temp
M190 S60 ; wait for bed temp;
;
G0 X0 Y15 F9000 ; Go to front
G0 Z0.45 ; Drop to bed
;
;--- now set the final extruder temp
M104 S200 ; set extruder temp
M109 S200 ; wait for extruder temp
;
G92 E0 ; zero the extruded length
G1 Y190 E15.0 F1500.0 ; intro line
G1 X2.3 F5000
G1 Y10 E30 F1200.0 ; intro line
G92 E0.0  ; zero the extruded length
G1 Z1 ; Raise and begin printing.
M117 Printing...


G21 ; set units to millimeters
G90 ; use absolute coordinates
M82 ; use absolute distances for extrusion
G92 E0
; Filament gcode
M107
;LAYER_CHANGE
;Z:0.35
;HEIGHT:0.35
G1 E-6 F4200
G92 E0
G1 Z.25 F10800
G1 Z.35
G1 Z.6
G1 X63.475 Y48.455
G1 Z.35
G1 E6 F2400
;TYPE:Skirt/Brim
;WIDTH:0.7
G1 F1800
G1 X65.622 Y46.308 E6.26234
G1 X66.464 Y45.657 E6.35422
G1 X67.695 Y44.861 E6.48085
G1 X69.704 Y43.875 E6.67421
G1 X72.112 Y43.12 E6.89216
G1 X74.057 Y42.806 E7.0624
G1 X76.806 Y42.8 E7.29984
G1 X77.967 Y42.912 E7.40061
G1 X79.573 Y43.246 E7.54229
G1 X80.971 Y43.685 E7.66889
G1 X82.433 Y44.306 E7.80605
G1 X149.536 Y77.362 E14.26782
G1 X150.378 Y77.843 E14.3516
G1 X151.367 Y78.59 E14.45864
G1 X151.934 Y79.136 E14.52664
G1 X152.651 Y79.999 E14.62352
G1 X153.452 Y81.352 E14.75938
G1 X153.9 Y82.507 E14.86641
G1 X154.095 Y83.27 E14.93441
G1 X154.271 Y84.835 E15.07046
G1 X154.25 Y105.62 E16.86591
G1 X154.095 Y106.73 E16.96279
G1 X153.635 Y108.234 E17.09864
G1 X152.906 Y109.628 E17.2345
G1 X152.16 Y110.617 E17.34153
G1 X151.019 Y111.699 E17.47739
G1 X150.378 Y112.157 E17.54539
G1 X149.398 Y112.702 E17.64227
G1 X148.243 Y113.15 E17.7493
G1 X147.48 Y113.345 E17.8173
G1 X145.75 Y113.525 E17.96754
G1 X143.553 Y113.519 E18.15738
G1 X98.3 Y111.019 E22.07242
G1 X48.969 Y104.805 E26.36743
G1 X47.387 Y104.208 E26.51351
G1 X46.183 Y102.834 E26.67137
G1 X45.725 Y101.063 E26.82932
G1 X45.725 Y89.33 E27.84292
G1 X46.014 Y87.912 E27.96791
G1 X61.424 Y51.685 E31.36862
G1 X62.391 Y49.942 E31.54088
G1 X63.439 Y48.504 E31.6946
G1 E28.0946 F4200
;WIPE_START
G1 F8640
G1 X65.622 Y46.308 E26.66473
G1 X66.464 Y45.657 E26.17354
G1 X67.116 Y45.235 E25.8146
;WIPE_END
G1 E25.6946 F4200
G92 E0
G1 Z.6 F10800
G1 X68.895 Y51.948
G1 Z.35
G1 E6 F2400
;TYPE:Perimeter
G1 F1800
G1 X69.638 Y51.25 E6.08805
G1 X70.429 Y50.661 E6.17317
G1 X71.225 Y50.187 E6.25325
G1 X72.053 Y49.798 E6.33227
G1 X72.91 Y49.495 E6.41077
G1 X73.788 Y49.277 E6.48894
G1 X74.674 Y49.147 E6.56631
G1 X75.467 Y49.103 E6.63494
G1 X76.362 Y49.134 E6.71226
G1 X77.253 Y49.253 E6.78989
G1 X78.126 Y49.455 E6.8673
G1 X78.972 Y49.74 E6.94446
G1 X79.786 Y50.105 E7.02149
G1 X80.582 Y50.558 E7.10066
G1 X81.332 Y51.089 E7.17999
G1 X82.026 Y51.692 E7.25941
G1 X82.656 Y52.36 E7.33871
G1 X83.217 Y53.086 E7.41796
G1 X83.704 Y53.864 E7.49728
G1 X84.125 Y54.711 E7.57898
G1 X84.373 Y55.439 E7.64545
G1 X84.581 Y56.35 E7.72611
G1 X84.686 Y57.14 E7.79501
G1 X84.726 Y58.013 E7.87044
G1 X84.682 Y58.952 E7.95164
G1 X84.541 Y59.871 E8.032
G1 X84.364 Y60.577 E8.09491
G1 X84.055 Y61.448 E8.17467
G1 X83.657 Y62.283 E8.25461
G1 X83.18 Y63.068 E8.33399
G1 X82.626 Y63.799 E8.41319
G1 X82.002 Y64.469 E8.49228
G1 X81.326 Y65.06 E8.56987
G1 X80.611 Y65.565 E8.6455
G1 X79.933 Y65.952 E8.71289
G1 X79.15 Y66.307 E8.78713
G1 X78.363 Y66.575 E8.85901
G1 X77.229 Y66.862 E8.95998
G1 X76.391 Y66.982 E9.03318
G1 X75.55 Y67.02 E9.10588
G1 X74.708 Y66.975 E9.17867
G1 X73.876 Y66.849 E9.25142
G1 X73.055 Y66.64 E9.3246
G1 X72.17 Y66.313 E9.40608
G1 X71.504 Y65.991 E9.47
G1 X70.785 Y65.559 E9.54248
G1 X69.85 Y64.859 E9.64336
G1 X69.223 Y64.297 E9.7161
G1 X68.686 Y63.714 E9.7845
G1 X68.161 Y63.024 E9.85942
G1 X67.69 Y62.258 E9.93716
G1 X67.284 Y61.42 E10.01751
G1 X66.961 Y60.526 E10.09966
G1 X66.739 Y59.613 E10.18082
G1 X66.635 Y58.881 E10.24467
G1 X66.593 Y57.939 E10.3262
G1 X66.65 Y56.995 E10.40786
G1 X66.763 Y56.264 E10.47174
G1 X66.989 Y55.355 E10.55265
G1 X67.233 Y54.652 E10.61692
G1 X67.56 Y53.918 E10.68637
G1 X67.968 Y53.187 E10.75873
G1 X68.458 Y52.476 E10.83327
G1 X68.857 Y51.994 E10.88732
G1 X69.377 Y52.346 F10800
G1 F1800
G1 X70.037 Y51.732 E10.9652
G1 X70.776 Y51.182 E11.0448
G1 X71.518 Y50.739 E11.11944
G1 X72.291 Y50.377 E11.19314
G1 X73.09 Y50.094 E11.26636
G1 X73.909 Y49.891 E11.33926
G1 X74.737 Y49.769 E11.41156
G1 X75.474 Y49.728 E11.4753
G1 X76.31 Y49.758 E11.54757
G1 X77.141 Y49.868 E11.61997
G1 X77.955 Y50.057 E11.69218
G1 X78.744 Y50.323 E11.76415
G1 X79.503 Y50.663 E11.83596
G1 X80.246 Y51.086 E11.90985
G1 X80.945 Y51.581 E11.98383
G1 X81.593 Y52.144 E12.05791
G1 X82.181 Y52.766 E12.13189
G1 X82.704 Y53.443 E12.20581
G1 X83.158 Y54.169 E12.27979
G1 X83.547 Y54.952 E12.35527
G1 X83.771 Y55.61 E12.41534
G1 X83.965 Y56.46 E12.49067
G1 X84.063 Y57.196 E12.5548
G1 X84.101 Y58.012 E12.62538
G1 X84.059 Y58.889 E12.70123
G1 X83.928 Y59.747 E12.77619
G1 X83.765 Y60.396 E12.83401
G1 X83.477 Y61.208 E12.90842
G1 X83.107 Y61.986 E12.98279
G1 X82.662 Y62.716 E13.05667
G1 X82.147 Y63.397 E13.13039
G1 X81.567 Y64.02 E13.20394
G1 X80.939 Y64.568 E13.27597
G1 X80.275 Y65.037 E13.34622
G1 X79.649 Y65.395 E13.40849
G1 X78.92 Y65.725 E13.47759
G1 X78.185 Y65.975 E13.54468
G1 X77.108 Y66.248 E13.64063
G1 X76.332 Y66.359 E13.70834
G1 X75.553 Y66.394 E13.77575
G1 X74.772 Y66.353 E13.84326
G1 X74 Y66.235 E13.91073
G1 X73.24 Y66.043 E13.97842
G1 X72.415 Y65.737 E14.05446
G1 X71.801 Y65.441 E14.11331
G1 X71.134 Y65.04 E14.18059
G1 X70.246 Y64.375 E14.27635
G1 X69.662 Y63.852 E14.34413
G1 X69.166 Y63.313 E14.40741
G1 X68.677 Y62.67 E14.47712
G1 X68.238 Y61.957 E14.54947
G1 X67.861 Y61.177 E14.6243
G1 X67.56 Y60.345 E14.70072
G1 X67.353 Y59.495 E14.77629
G1 X67.258 Y58.823 E14.83492
G1 X67.218 Y57.944 E14.911
G1 X67.272 Y57.062 E14.98732
G1 X67.376 Y56.387 E15.04627
G1 X67.588 Y55.533 E15.12228
G1 X67.814 Y54.882 E15.1818
G1 X68.119 Y54.198 E15.24652
G1 X68.5 Y53.517 E15.31392
G1 X68.957 Y52.853 E15.38355
G1 X69.338 Y52.392 E15.43523
G1 X69.858 Y52.744 F10800
;TYPE:External perimeter
G1 F1800
G1 X70.436 Y52.214 E15.50295
G1 X71.124 Y51.702 E15.57703
G1 X71.812 Y51.292 E15.64621
G1 X72.528 Y50.956 E15.7146
G1 X73.27 Y50.693 E15.78253
G1 X74.03 Y50.505 E15.85017
G1 X74.8 Y50.391 E15.9174
G1 X75.48 Y50.354 E15.97625
G1 X76.257 Y50.381 E16.04347
G1 X77.028 Y50.484 E16.11065
G1 X77.784 Y50.659 E16.17765
G1 X78.517 Y50.906 E16.24442
G1 X79.22 Y51.221 E16.31102
G1 X79.91 Y51.614 E16.37962
G1 X80.559 Y52.073 E16.44827
G1 X81.159 Y52.595 E16.51701
G1 X81.705 Y53.173 E16.58565
G1 X82.191 Y53.801 E16.65424
G1 X82.612 Y54.475 E16.72289
G1 X82.969 Y55.193 E16.79215
G1 X83.169 Y55.781 E16.84582
G1 X83.349 Y56.571 E16.91583
G1 X83.44 Y57.252 E16.97517
G1 X83.475 Y58.012 E17.04091
G1 X83.437 Y58.827 E17.1114
G1 X83.315 Y59.624 E17.18098
G1 X83.166 Y60.215 E17.23369
G1 X82.899 Y60.969 E17.30276
G1 X82.557 Y61.688 E17.37156
G1 X82.145 Y62.364 E17.43995
G1 X81.668 Y62.994 E17.50817
G1 X81.132 Y63.57 E17.57619
G1 X80.552 Y64.076 E17.64265
G1 X79.939 Y64.509 E17.70752
G1 X79.364 Y64.838 E17.76468
G1 X78.69 Y65.143 E17.82863
G1 X78.007 Y65.376 E17.89093
G1 X76.987 Y65.634 E17.98186
G1 X76.274 Y65.736 E18.04408
G1 X75.555 Y65.768 E18.10621
G1 X74.836 Y65.73 E18.16845
G1 X74.124 Y65.622 E18.23063
G1 X73.426 Y65.445 E18.29283
G1 X72.659 Y65.162 E18.36344
G1 X72.099 Y64.891 E18.41721
G1 X71.483 Y64.52 E18.47929
G1 X70.643 Y63.892 E18.56994
G1 X70.102 Y63.406 E18.63274
G1 X69.645 Y62.911 E18.6909
G1 X69.193 Y62.317 E18.7554
G1 X68.787 Y61.656 E18.82238
G1 X68.438 Y60.934 E18.89169
G1 X68.159 Y60.165 E18.96238
G1 X67.968 Y59.378 E19.03236
G1 X67.881 Y58.765 E19.08576
G1 X67.844 Y57.949 E19.1564
G1 X67.894 Y57.128 E19.22737
G1 X67.989 Y56.51 E19.28139
G1 X68.188 Y55.711 E19.3525
G1 X68.396 Y55.113 E19.40727
G1 X68.679 Y54.478 E19.46727
G1 X69.031 Y53.847 E19.52971
G1 X69.456 Y53.23 E19.59442
G1 X69.82 Y52.79 E19.64372
G1 X69.747 Y52.36 F10800
G1 E16.04372 F4200
;WIPE_START
G1 F8640
G1 X70.436 Y52.214 E15.65424
G1 X71.124 Y51.702 E15.25819
G1 X71.812 Y51.292 E14.88833
G1 X72.528 Y50.956 E14.52275
G1 X73.27 Y50.693 E14.15959
G1 X74.03 Y50.505 E13.79796
G1 X74.103 Y50.494 E13.76372
;WIPE_END
G1 E13.64372 F4200
G92 E0
G1 Z.6 F10800
G1 X67.354 Y51.958
G1 Z.35
G1 E6 F2400
;TYPE:Perimeter
G1 F1800
G1 X67.924 Y51.485 E6.06397
G1 X68.318 Y51.117 E6.11056
G1 X68.67 Y50.736 E6.15537
G1 X69.14 Y50.173 E6.21875
G1 X70.046 Y49.544 E6.31399
G1 X70.669 Y49.184 E6.37612
G1 X71.626 Y48.734 E6.46757
G1 X72.638 Y48.379 E6.56017
G1 X73.663 Y48.134 E6.65116
G1 X74.289 Y48.031 E6.70601
G1 X75.062 Y48.095 E6.77304
G1 X75.602 Y48.113 E6.81964
G1 X76.117 Y48.093 E6.86419
G1 X76.844 Y48.027 E6.92727
G1 X77.868 Y48.209 E7.01711
G1 X78.544 Y48.384 E7.07741
G1 X79.535 Y48.731 E7.1681
G1 X80.509 Y49.188 E7.2611
G1 X81.412 Y49.731 E7.35205
G1 X82.03 Y50.173 E7.41768
G1 X82.504 Y50.744 E7.48186
G1 X82.873 Y51.138 E7.52845
G1 X83.254 Y51.49 E7.57326
G1 X83.815 Y51.959 E7.6364
G1 X84.36 Y52.733 E7.71819
G1 X84.728 Y53.346 E7.77994
G1 X85.193 Y54.297 E7.87138
G1 X85.556 Y55.282 E7.96208
G1 X85.819 Y56.297 E8.05272
G1 X85.963 Y57.142 E8.12676
G1 X85.894 Y57.883 E8.19105
G1 X85.876 Y58.422 E8.2376
G1 X85.897 Y58.937 E8.28215
G1 X85.963 Y59.668 E8.34553
G1 X85.82 Y60.509 E8.41922
G1 X85.652 Y61.208 E8.48131
G1 X85.321 Y62.199 E8.57158
G1 X84.894 Y63.153 E8.66185
G1 X84.368 Y64.067 E8.75294
G1 X83.815 Y64.852 E8.83586
G1 X83.246 Y65.325 E8.89982
G1 X82.851 Y65.693 E8.94642
G1 X82.5 Y66.074 E8.99122
G1 X82.029 Y66.637 E9.05461
G1 X81.411 Y67.079 E9.12024
G1 X80.805 Y67.457 E9.18194
G1 X79.866 Y67.937 E9.27303
G1 X78.885 Y68.32 E9.36404
G1 X77.881 Y68.599 E9.45402
G1 X76.844 Y68.783 E9.54498
G1 X76.106 Y68.715 E9.60901
G1 X75.568 Y68.697 E9.65556
G1 X75.053 Y68.718 E9.70011
G1 X74.325 Y68.783 E9.76319
G1 X73.301 Y68.602 E9.85303
G1 X72.625 Y68.427 E9.91333
G1 X71.634 Y68.08 E10.00403
G1 X70.672 Y67.628 E10.09585
G1 X70.046 Y67.266 E10.15835
G1 X69.14 Y66.638 E10.2536
G1 X68.665 Y66.066 E10.31778
G1 X68.297 Y65.672 E10.36438
G1 X67.916 Y65.32 E10.40918
G1 X67.355 Y64.852 E10.47233
G1 X66.809 Y64.077 E10.55412
G1 X66.448 Y63.476 E10.61469
G1 X65.986 Y62.536 E10.70522
G1 X65.617 Y61.542 E10.79684
G1 X65.35 Y60.513 E10.88864
G1 X65.206 Y59.668 E10.96268
G1 X65.275 Y58.927 E11.02697
G1 X65.293 Y58.388 E11.07352
G1 X65.272 Y57.873 E11.11807
G1 X65.207 Y57.142 E11.18145
G1 X65.349 Y56.301 E11.25515
G1 X65.515 Y55.615 E11.31606
G1 X65.848 Y54.611 E11.4075
G1 X66.284 Y53.641 E11.49937
G1 X66.807 Y52.736 E11.58967
G1 X67.32 Y52.007 E11.6666
G1 X66.917 Y51.509 F10800
G1 F1800
G1 X67.511 Y51.016 E11.73328
G1 X67.874 Y50.676 E11.77628
G1 X68.737 Y49.693 E11.88932
G1 X69.417 Y49.206 E11.96156
G1 X70.374 Y48.633 E12.05794
G1 X71.39 Y48.155 E12.15485
G1 X71.731 Y48.022 E12.18645
G1 X72.456 Y47.781 E12.2525
G1 X73.544 Y47.52 E12.34913
G1 X74.243 Y47.405 E12.41029
G1 X75.102 Y47.471 E12.48476
G1 X75.599 Y47.488 E12.52775
G1 X76.899 Y47.402 E12.64027
G1 X78.001 Y47.598 E12.73694
G1 X78.721 Y47.784 E12.80118
G1 X79.775 Y48.153 E12.89764
G1 X80.28 Y48.376 E12.9453
G1 X80.8 Y48.635 E12.99552
G1 X81.759 Y49.211 E13.09213
G1 X82.434 Y49.693 E13.16376
G1 X82.973 Y50.331 E13.23596
G1 X83.313 Y50.695 E13.27896
G1 X84.296 Y51.556 E13.39179
G1 X84.884 Y52.391 E13.48009
G1 X85.272 Y53.038 E13.54519
G1 X85.765 Y54.045 E13.64209
G1 X86.152 Y55.093 E13.73856
G1 X86.301 Y55.616 E13.78551
G1 X86.432 Y56.173 E13.835
G1 X86.588 Y57.088 E13.91519
G1 X86.518 Y57.923 E13.98753
G1 X86.502 Y58.42 E14.03048
G1 X86.587 Y59.723 E14.14332
G1 X86.433 Y60.635 E14.22318
G1 X86.255 Y61.37 E14.28849
G1 X85.903 Y62.426 E14.38468
G1 X85.448 Y63.442 E14.48088
G1 X84.889 Y64.412 E14.57758
G1 X84.295 Y65.255 E14.66666
G1 X83.659 Y65.794 E14.73867
G1 X83.295 Y66.134 E14.78168
G1 X82.432 Y67.118 E14.89472
G1 X81.759 Y67.599 E14.96625
G1 X81.119 Y67.998 E15.03131
G1 X80.641 Y68.256 E15.07826
G1 X80.123 Y68.507 E15.12803
G1 X79.619 Y68.717 E15.17519
G1 X79.08 Y68.914 E15.2247
G1 X78.009 Y69.211 E15.32075
G1 X76.898 Y69.408 E15.41819
G1 X76.067 Y69.339 E15.49027
G1 X75.57 Y69.322 E15.53323
G1 X74.27 Y69.408 E15.64575
G1 X73.168 Y69.213 E15.74242
G1 X72.448 Y69.026 E15.80666
G1 X71.395 Y68.657 E15.90312
G1 X70.89 Y68.434 E15.95078
G1 X70.377 Y68.179 E16.00029
G1 X69.719 Y67.799 E16.06584
G1 X68.736 Y67.117 E16.16925
G1 X68.196 Y66.479 E16.24144
G1 X67.856 Y66.115 E16.28445
G1 X66.874 Y65.254 E16.39727
G1 X66.285 Y64.419 E16.48557
G1 X65.902 Y63.78 E16.54996
G1 X65.409 Y62.777 E16.64641
G1 X65.019 Y61.725 E16.74333
G1 X64.869 Y61.195 E16.79099
G1 X64.737 Y60.637 E16.84048
G1 X64.581 Y59.722 E16.92067
G1 X64.651 Y58.887 E16.99301
G1 X64.668 Y58.39 E17.03597
G1 X64.582 Y57.087 E17.1488
G1 X64.737 Y56.175 E17.22867
G1 X64.912 Y55.449 E17.29326
G1 X65.266 Y54.384 E17.39016
G1 X65.404 Y54.045 E17.42177
G1 X65.727 Y53.358 E17.48736
G1 X65.988 Y52.881 E17.53431
G1 X66.284 Y52.393 E17.58361
G1 X66.876 Y51.553 E17.67238
G1 X66.488 Y51.053 F10800
;TYPE:External perimeter
G1 F1800
G1 X67.097 Y50.547 E17.74082
G1 X67.431 Y50.236 E17.78024
G1 X67.73 Y49.911 E17.81838
G1 X68.231 Y49.311 E17.88592
G1 X68.339 Y49.209 E17.89869
G1 X69.066 Y48.689 E17.97591
G1 X69.393 Y48.478 E18.00961
G1 X70.08 Y48.081 E18.07812
G1 X70.793 Y47.732 E18.14665
G1 X71.153 Y47.577 E18.18053
G1 X71.518 Y47.434 E18.21442
G1 X72.274 Y47.183 E18.2832
G1 X72.649 Y47.079 E18.31683
G1 X73.425 Y46.906 E18.38551
G1 X74.196 Y46.78 E18.45297
G1 X75.597 Y46.863 E18.57424
G1 X76.036 Y46.845 E18.61215
G1 X76.815 Y46.775 E18.67975
G1 X76.962 Y46.779 E18.69246
G1 X78.134 Y46.986 E18.79527
G1 X78.898 Y47.184 E18.86343
G1 X79.651 Y47.434 E18.93196
G1 X80.015 Y47.576 E18.96568
G1 X80.545 Y47.811 E19.01576
G1 X81.091 Y48.082 E19.06843
G1 X81.432 Y48.271 E19.10213
G1 X82.106 Y48.691 E19.17073
G1 X82.831 Y49.209 E19.24768
G1 X82.937 Y49.308 E19.2602
G1 X83.443 Y49.918 E19.32864
G1 X83.754 Y50.251 E19.36806
G1 X84.079 Y50.551 E19.40619
G1 X84.679 Y51.052 E19.47373
G1 X84.78 Y51.159 E19.48648
G1 X85.408 Y52.05 E19.58068
G1 X85.816 Y52.73 E19.64912
G1 X85.999 Y53.073 E19.68275
G1 X86.338 Y53.794 E19.75152
G1 X86.485 Y54.154 E19.78516
G1 X86.748 Y54.904 E19.85377
G1 X86.906 Y55.458 E19.9036
G1 X87.045 Y56.049 E19.956
G1 X87.211 Y57.026 E20.0416
G1 X87.216 Y57.172 E20.05419
G1 X87.142 Y57.962 E20.12279
G1 X87.127 Y58.418 E20.16216
G1 X87.145 Y58.856 E20.20006
G1 X87.215 Y59.636 E20.26767
G1 X87.211 Y59.784 E20.2805
G1 X87.045 Y60.76 E20.36604
G1 X86.859 Y61.531 E20.43455
G1 X86.749 Y61.905 E20.46818
G1 X86.486 Y62.653 E20.5367
G1 X86.173 Y63.382 E20.60523
G1 X86.002 Y63.732 E20.63885
G1 X85.615 Y64.428 E20.70764
G1 X85.41 Y64.757 E20.74119
G1 X84.781 Y65.651 E20.83559
G1 X84.682 Y65.757 E20.84812
G1 X84.072 Y66.263 E20.91656
G1 X83.739 Y66.574 E20.95598
G1 X83.439 Y66.899 E20.99412
G1 X82.938 Y67.499 E21.06166
G1 X82.831 Y67.601 E21.07443
G1 X82.106 Y68.119 E21.15139
G1 X81.434 Y68.538 E21.21982
G1 X80.926 Y68.813 E21.26965
G1 X80.379 Y69.077 E21.32215
G1 X79.846 Y69.3 E21.37205
G1 X79.276 Y69.507 E21.42446
G1 X78.514 Y69.732 E21.49306
G1 X78.137 Y69.823 E21.5266
G1 X76.963 Y70.032 E21.6296
G1 X76.818 Y70.036 E21.64211
G1 X76.028 Y69.963 E21.71071
G1 X75.572 Y69.947 E21.75008
G1 X75.134 Y69.965 E21.78798
G1 X74.354 Y70.035 E21.85559
G1 X74.207 Y70.031 E21.8683
G1 X73.035 Y69.824 E21.9711
G1 X72.271 Y69.626 E22.03927
G1 X71.518 Y69.376 E22.10779
