; generated by PrusaSlicer 2.5.0+win64 on 2022-09-25 at 15:41:22 UTC


;
;

;
;
; 

; external perimeters extrusion width = 0.45mm
; perimeters extrusion width = 0.45mm
; infill extrusion width = 0.45mm
; solid infill extrusion width = 0.45mm
; top infill extrusion width = 0.40mm
; first layer extrusion width = 0.42mm

M73 P0 R23
M201 X2500 Y2500 Z400 E5000 ; sets maximum accelerations, mm/sec^2
M203 X180 Y180 Z12 E80 ; sets maximum feedrates, mm / sec
M204 P1250 R1250 T2500 ; sets acceleration (P, T) and retract acceleration (R), mm/sec^2
M205 X8.00 Y8.00 Z2.00 E10.00 ; sets the jerk limits, mm/sec
M205 S0 T0 ; sets the minimum extruding and travel feed rate, mm/sec
M107
;TYPE:Custom
M862.3 P "MINI" ; printer model check
G90 ; use absolute coordinates
M83 ; extruder relative mode
M104 S170 ; set extruder temp for bed leveling
M140 S60 ; set bed temp
M109 R170 ; wait for bed leveling temp
M190 S60 ; wait for bed temp
M204 T1250 ; set travel acceleration
G28 ; home all without mesh bed level
G29 ; mesh bed leveling 
M204 T2500 ; restore travel acceleration
M104 S215 ; set extruder temp
G92 E0
G1 Y-2 X179 F2400
G1 Z3 F720
M109 S215 ; wait for extruder temp

; intro line
G1 X170 F1000
G1 Z0.2 F720
G1 X110 E8 F900
G1 X40 E10 F700
G92 E0

M221 S95 ; set flow
G21 ; set units to millimeters
G90 ; use absolute coordinates
M83 ; use relative distances for extrusion
M900 K0.2 ; Filament gcode LA 1.5
; ; Filament gcode LA 1.0
M107
;LAYER_CHANGE
;Z:0.2
;HEIGHT:0.2
;BEFORE_LAYER_CHANGE
G92 E0.0
;0.2


G1 E-3.2 F4200
M73 P1 R22
G1 Z.2 F720
;AFTER_LAYER_CHANGE
;0.2
G1 Z.4
G1 X78.266 Y76.867 F9000
G1 Z.2 F720
G1 E3.2 F2400
M204 P800
;TYPE:Skirt/Brim
;WIDTH:0.42
G1 F1200
G1 X78.925 Y76.289 E.0275
G1 X79.935 Y75.651 E.03744
G1 X80.882 Y75.288 E.03181
G1 X82.097 Y75.083 E.03862
G1 X103.893 Y75.071 E.6834
G1 X105.31 Y75.463 E.04612
G1 X106.324 Y76.529 E.04612
G1 X106.648 Y77.825 E.04188
G1 X106.648 Y102.172 E.76339
G1 X106.255 Y103.589 E.04612
G1 X105.189 Y104.602 E.04612
G1 X103.894 Y104.926 E.04184
G1 X82.064 Y104.931 E.68446
G1 X80.856 Y104.725 E.03842
G1 X80.111 Y104.451 E.02488
G1 X79.22 Y103.924 E.03245
G1 X78.353 Y103.225 E.03495
G1 X77.579 Y102.358 E.03645
G1 X76.454 Y100.638 E.06442
G1 X75.743 Y99.263 E.04855
G1 X74.899 Y97.177 E.07055
G1 X74.35 Y95.27 E.06222
G1 X74.052 Y93.807 E.0468
G1 X73.79 Y91.692 E.06683
G1 X73.73 Y90.244 E.04544
G1 X73.846 Y87.774 E.07751
G1 X74.054 Y86.158 E.0511
G1 X74.327 Y84.834 E.0424
G1 X74.873 Y82.911 E.06265
G1 X75.856 Y80.497 E.08175
G1 X76.606 Y79.112 E.04936
G1 X77.364 Y77.947 E.04359
G1 X78.227 Y76.913 E.04223
M204 P1000
G1 X78.516 Y77.154 F9000
M204 P800
G1 F1200
G1 X79.145 Y76.596 E.02636
G1 X80.087 Y75.996 E.03504
G1 X80.969 Y75.655 E.02965
G1 X82.097 Y75.46 E.03588
G1 X103.893 Y75.448 E.6834
G1 X105.2 Y75.839 E.04278
G1 X106.077 Y76.884 E.04278
G1 X106.271 Y77.825 E.03011
G1 X106.271 Y102.172 E.76339
G1 X105.879 Y103.479 E.04278
G1 X104.833 Y104.355 E.04278
G1 X103.894 Y104.549 E.03007
G1 X82.064 Y104.554 E.68446
G1 X80.942 Y104.357 E.03572
G1 X80.26 Y104.105 E.0228
G1 X79.431 Y103.612 E.03025
G1 X78.615 Y102.954 E.03286
G1 X77.885 Y102.138 E.03434
G1 X76.782 Y100.453 E.06313
G1 X76.085 Y99.104 E.04759
G1 X75.255 Y97.053 E.06939
G1 X74.714 Y95.17 E.06141
G1 X74.424 Y93.746 E.04556
G1 X74.165 Y91.657 E.06602
G1 X74.107 Y90.25 E.04415
G1 X74.222 Y87.8 E.0769
G1 X74.427 Y86.213 E.05017
G1 X74.692 Y84.929 E.04113
G1 X75.227 Y83.04 E.06156
G1 X76.2 Y80.651 E.08086
G1 X76.937 Y79.294 E.04842
G1 X77.662 Y78.177 E.04175
G1 X78.478 Y77.2 E.0399
M204 P1000
; printing object frame_up.stl id:0 copy 0
G1 E-2.24 F4200
;WIPE_START
G1 F7200
G1 X79.145 Y76.596 E-.49883
G1 X79.773 Y76.195 E-.41317
;WIPE_END
M73 P2 R22
G1 E-.048 F4200
G1 Z.4 F720
G1 X103.106 Y100.181 F9000
G1 Z.2 F720
G1 E3.2 F2400
M204 P800
;TYPE:Perimeter
;WIDTH:0.419999
G1 F1200
G1 X93.563 Y100.127 E.29925
G1 X84.968 Y100.191 E.26947
G1 X81.36 Y100.179 E.11314
G1 X80.996 Y99.994 E.0128
G1 X80.404 Y99.175 E.03169
G1 X80.008 Y98.517 E.02408
G1 X79.598 Y97.75 E.02725
G1 X79.255 Y96.956 E.02713
G1 X78.707 Y95.531 E.04788
G1 X78.354 Y94.255 E.04151
G1 X78.05 Y92.544 E.05449
G1 X77.984 Y91.988 E.01757
G1 X77.886 Y90.412 E.0495
G1 X77.865 Y89.714 E.0219
G1 X77.886 Y89.024 E.02163
G1 X77.94 Y88.207 E.02568
G1 X78.133 Y86.784 E.04503
G1 X78.374 Y85.697 E.0349
G1 X78.575 Y85.097 E.01984
G1 X78.616 Y84.79 E.00971
G1 X78.718 Y84.558 E.00794
G1 X78.852 Y84.054 E.01635
G1 X79.064 Y83.494 E.01879
G1 X79.641 Y82.205 E.04428
G1 X79.847 Y81.857 E.01267
G1 X80.061 Y81.38 E.0164
G1 X80.835 Y80.236 E.0433
G1 X81.196 Y79.888 E.01571
G1 X81.308 Y79.834 E.00389
G1 X90.712 Y79.928 E.29487
G1 X103.106 Y79.973 E.38863
G1 X103.106 Y100.121 E.63173
M204 P1000
G1 X103.483 Y100.56 F9000
M204 P800
;TYPE:External perimeter
G1 F1200
G1 X93.568 Y100.504 E.3109
G1 X84.969 Y100.568 E.26961
G1 X81.285 Y100.556 E.11551
G1 X80.874 Y100.387 E.01395
G1 X80.716 Y100.25 E.00656
G1 X80.089 Y99.383 E.03354
G1 X79.68 Y98.703 E.02488
G1 X79.259 Y97.914 E.02804
G1 X78.906 Y97.099 E.02786
G1 X78.348 Y95.65 E.04868
G1 X77.984 Y94.331 E.04289
G1 X77.679 Y92.61 E.05481
G1 X77.609 Y92.028 E.01838
G1 X77.509 Y90.426 E.05034
G1 X77.488 Y89.705 E.02259
G1 X77.51 Y88.992 E.02236
G1 X77.562 Y88.183 E.02544
G1 X77.761 Y86.717 E.04638
G1 X78.006 Y85.615 E.0354
G1 X78.223 Y84.962 E.02157
G1 X78.241 Y84.704 E.00812
G1 X78.322 Y84.524 E.00617
G1 X78.425 Y84.126 E.0129
G1 X78.676 Y83.434 E.02309
G1 X79.397 Y81.826 E.05525
G1 X79.547 Y81.628 E.00777
G1 X79.587 Y81.45 E.00572
G1 X79.74 Y81.181 E.00972
G1 X80.613 Y79.907 E.04843
G1 X81.045 Y79.516 E.01825
G1 X81.258 Y79.457 E.00693
G1 X90.715 Y79.551 E.29656
G1 X103.483 Y79.597 E.40034
G1 X103.483 Y100.5 E.6554
M204 P1000
G1 X103.107 Y100.425 F9000
G1 E-2.24 F4200
;WIPE_START
G1 F7200
G1 X101.838 Y100.501 E-.912
;WIPE_END
G1 E-.048 F4200
G1 Z.4 F720
G1 X93.377 Y93.173 F9000
G1 Z.2 F720
G1 E3.2 F2400
M204 P800
;TYPE:Perimeter
G1 F1200
G1 X93.38 Y96.884 E.11634
G1 X93.322 Y97.132 E.00799
G1 X93.229 Y97.268 E.00518
G1 X92.895 Y97.481 E.0124
G1 X91.979 Y97.965 E.03249
G1 X91.372 Y98.211 E.02055
G1 X90.25 Y98.534 E.03658
G1 X89.619 Y98.65 E.02013
G1 X88.429 Y98.736 E.0374
G1 X87.603 Y98.701 E.02592
G1 X86.813 Y98.593 E.025
G1 X86.203 Y98.456 E.01962
G1 X85.448 Y98.223 E.02474
G1 X84.52 Y97.831 E.03161
G1 X83.695 Y97.373 E.02959
G1 X83.486 Y97.171 E.0091
G1 X83.405 Y96.879 E.00948
G1 X83.405 Y95.594 E.04029
G1 X83.366 Y95.473 E.00398
G1 X83.366 Y84.026 E.35894
G1 X83.405 Y83.572 E.01426
G1 X83.416 Y83.009 E.01767
G1 X83.521 Y82.774 E.00806
G1 X83.707 Y82.616 E.00768
G1 X84.831 Y82.024 E.0398
G1 X85.399 Y81.794 E.01921
G1 X86.155 Y81.556 E.02487
G1 X86.741 Y81.421 E.01886
G1 X87.557 Y81.303 E.02585
G1 X88.349 Y81.264 E.02484
G1 X89.575 Y81.345 E.03853
G1 X90.534 Y81.543 E.03072
G1 X91.342 Y81.778 E.02639
G1 X91.975 Y82.033 E.0214
G1 X93.079 Y82.617 E.03913
G1 X93.228 Y82.732 E.00592
G1 X93.368 Y83 E.00949
G1 X93.38 Y83.117 E.00366
G1 X93.38 Y86.788 E.11513
G1 X93.327 Y87.028 E.00768
G1 X93.155 Y87.24 E.00857
G1 X92.96 Y87.335 E.00678
G1 X92.814 Y87.354 E.00463
G1 X91.38 Y87.354 E.04497
G1 X91.38 Y92.646 E.16592
G1 X92.814 Y92.646 E.04497
G1 X93.063 Y92.704 E.00803
G1 X93.26 Y92.863 E.00793
G1 X93.367 Y93.114 E.00857
M204 P1000
G1 X93.003 Y93.212 F9000
M204 P800
;TYPE:External perimeter
G1 F1200
G1 X93.003 Y96.884 E.11513
G1 X92.952 Y97.012 E.00432
G1 X91.803 Y97.632 E.04095
G1 X91.214 Y97.867 E.01988
G1 X90.147 Y98.171 E.03479
G1 X89.552 Y98.279 E.01896
G1 X88.403 Y98.36 E.03611
G1 X87.621 Y98.324 E.02455
G1 X86.865 Y98.22 E.02392
G1 X86.286 Y98.089 E.01862
G1 X85.561 Y97.863 E.02382
G1 X84.667 Y97.484 E.03042
G1 X83.879 Y97.044 E.02832
G1 X83.791 Y96.935 E.00441
G1 X83.783 Y95.536 E.04386
G1 X83.744 Y95.473 E.0023
G1 X83.744 Y84.026 E.35894
G1 X83.783 Y83.963 E.00232
G1 X83.783 Y83.116 E.02655
G1 X83.821 Y83.002 E.00377
G1 X83.883 Y82.949 E.00256
G1 X85.006 Y82.358 E.0398
G1 X85.538 Y82.144 E.01798
G1 X86.267 Y81.916 E.02395
G1 X86.825 Y81.788 E.01794
M73 P3 R22
G1 X87.61 Y81.676 E.02487
G1 X88.366 Y81.641 E.02372
G1 X89.549 Y81.721 E.03717
G1 X90.456 Y81.911 E.02907
G1 X91.225 Y82.137 E.02513
G1 X91.781 Y82.358 E.01875
G1 X92.902 Y82.95 E.03977
G1 X92.998 Y83.078 E.00502
G1 X93.002 Y83.117 E.00122
G1 X93.003 Y86.788 E.11513
G1 X92.948 Y86.921 E.00448
G1 X92.814 Y86.977 E.00457
G1 X91.002 Y86.977 E.0568
G1 X91.002 Y93.023 E.18957
G1 X92.814 Y93.023 E.0568
G1 X92.963 Y93.095 E.00518
G1 X92.983 Y93.155 E.00197
M204 P1000
G1 X93.389 Y93.315 F9000
G1 E-2.24 F4200
;WIPE_START
G1 F7200
G1 X92.992 Y94.801 E-.912
;WIPE_END
G1 E-.048 F4200
G1 Z.4 F720
G1 X102.993 Y80.852 F9000
G1 Z.2 F720
G1 E3.2 F2400
M204 P800
;TYPE:Solid infill
;WIDTH:0.421938
G1 F1200
G1 X102.394 Y80.253 E.02669
G1 X101.856 Y80.251 E.01695
G1 X102.824 Y81.218 E.04311
G1 X102.824 Y81.754 E.01689
G1 X101.318 Y80.249 E.06709
G1 X100.78 Y80.247 E.01695
G1 X102.824 Y82.29 E.09106
G1 X102.824 Y82.826 E.01689
G1 X100.243 Y80.245 E.11504
G1 X99.705 Y80.243 E.01695
G1 X102.824 Y83.362 E.13902
G1 X102.824 Y83.898 E.01689
G1 X99.167 Y80.241 E.16299
G1 X98.629 Y80.239 E.01695
G1 X102.824 Y84.434 E.18697
G1 X102.824 Y84.97 E.01689
G1 X98.091 Y80.237 E.21095
G1 X97.553 Y80.235 E.01695
G1 X102.824 Y85.506 E.23492
G1 X102.824 Y86.042 E.01689
G1 X97.015 Y80.233 E.2589
G1 X96.477 Y80.231 E.01695
G1 X102.824 Y86.578 E.28288
G1 X102.824 Y87.114 E.01689
G1 X95.939 Y80.229 E.30685
G1 X95.401 Y80.227 E.01695
G1 X102.824 Y87.65 E.33083
G1 X102.824 Y88.186 E.01689
G1 X94.863 Y80.226 E.35481
G1 X94.325 Y80.224 E.01695
G1 X102.824 Y88.722 E.37879
G1 X102.824 Y89.258 E.01689
G1 X93.787 Y80.222 E.40276
G1 X93.249 Y80.22 E.01695
G1 X102.824 Y89.794 E.42674
G1 X102.824 Y90.33 E.01689
G1 X92.711 Y80.218 E.45072
G1 X92.173 Y80.216 E.01695
G1 X102.824 Y90.866 E.47469
G1 X102.824 Y91.402 E.01689
G1 X91.635 Y80.214 E.49867
G1 X91.097 Y80.212 E.01695
G1 X102.824 Y91.938 E.52265
G1 X102.824 Y92.474 E.01689
G1 X93.662 Y83.313 E.40831
G1 X93.662 Y83.849 E.01689
G1 X102.824 Y93.01 E.40831
G1 X102.824 Y93.546 E.01689
G1 X93.662 Y84.385 E.40831
G1 X93.662 Y84.921 E.01689
M73 P4 R22
G1 X102.824 Y94.082 E.40831
G1 X102.824 Y94.618 E.01689
G1 X93.662 Y85.457 E.40831
G1 X93.662 Y85.993 E.01689
G1 X102.824 Y95.154 E.40831
G1 X102.824 Y95.69 E.01689
G1 X93.662 Y86.529 E.40831
G1 X93.662 Y86.793 E.0083
G1 X93.622 Y87.025 E.00743
G1 X102.824 Y96.226 E.41011
G1 X102.824 Y96.762 E.01689
G1 X93.427 Y87.366 E.41879
G1 X93.327 Y87.465 E.00445
G1 X93.106 Y87.581 E.00785
G1 X102.824 Y97.299 E.4331
G1 X102.824 Y97.835 E.01689
G1 X92.626 Y87.637 E.45451
G1 X92.09 Y87.637 E.01689
G1 X102.824 Y98.371 E.47839
G1 X102.824 Y98.907 E.01689
G1 X91.662 Y87.745 E.49745
G1 X91.662 Y88.281 E.01689
G1 X102.824 Y99.443 E.49745
G1 X102.824 Y99.896 E.0143
G1 X102.741 Y99.896 E.0026
G1 X91.662 Y88.817 E.49377
G1 X91.662 Y89.353 E.01689
G1 X102.202 Y99.893 E.46974
G1 X101.663 Y99.89 E.01699
G1 X91.662 Y89.889 E.44572
G1 X91.662 Y90.425 E.01689
G1 X101.124 Y99.887 E.42169
G1 X100.585 Y99.884 E.01699
G1 X91.662 Y90.961 E.39767
G1 X91.662 Y91.497 E.01689
G1 X92.528 Y92.363 E.03859
G1 X91.992 Y92.363 E.01689
G1 X91.493 Y91.864 E.02226
M204 P1000
G1 E-2.24 F4200
;WIPE_START
G1 F7200
G1 X91.992 Y92.363 E-.39139
G1 X92.528 Y92.363 E-.29704
G1 X92.243 Y92.078 E-.22357
;WIPE_END
G1 E-.048 F4200
G1 Z.4 F720
G1 X93.493 Y93.328 F9000
G1 Z.2 F720
G1 E3.2 F2400
M204 P800
G1 F1200
G1 X100.046 Y99.881 E.29206
G1 X99.507 Y99.878 E.01699
G1 X93.662 Y94.033 E.26047
G1 X93.662 Y94.569 E.01689
G1 X98.968 Y99.875 E.23645
G1 X98.428 Y99.871 E.01699
G1 X93.662 Y95.105 E.21242
G1 X93.662 Y95.641 E.01689
M73 P5 R21
G1 X97.889 Y99.868 E.1884
G1 X97.35 Y99.865 E.01699
G1 X93.662 Y96.177 E.16437
G1 X93.662 Y96.713 E.01689
G1 X96.811 Y99.862 E.14034
G1 X96.272 Y99.859 E.01699
G1 X93.6 Y97.188 E.11908
G1 X93.577 Y97.257 E.00232
G1 X93.436 Y97.462 E.00782
G1 X93.381 Y97.504 E.00219
G1 X95.733 Y99.856 E.10483
G1 X95.194 Y99.853 E.01699
G1 X93.056 Y97.715 E.09529
G1 X92.706 Y97.901 E.0125
G1 X94.655 Y99.85 E.08688
G1 X94.116 Y99.847 E.01699
G1 X92.355 Y98.086 E.07848
G1 X91.996 Y98.263 E.01262
G1 X93.577 Y99.844 E.07048
G1 X93.045 Y99.848 E.01677
G1 X91.614 Y98.418 E.06375
G1 X91.211 Y98.551 E.01337
G1 X92.513 Y99.852 E.058
G1 X91.981 Y99.856 E.01677
G1 X90.795 Y98.671 E.05282
G1 X90.379 Y98.791 E.01364
G1 X91.449 Y99.86 E.04765
G1 X90.916 Y99.864 E.01677
G1 X89.932 Y98.88 E.04386
G1 X89.665 Y98.929 E.00859
G1 X89.461 Y98.944 E.00644
G1 X90.384 Y99.868 E.04117
G1 X89.852 Y99.872 E.01677
G1 X88.961 Y98.98 E.03974
G1 X88.461 Y99.016 E.0158
G1 X89.32 Y99.876 E.03832
G1 X88.788 Y99.879 E.01677
G1 X87.905 Y98.996 E.03938
G1 X87.322 Y98.95 E.01841
G1 X88.256 Y99.883 E.04162
G1 X87.724 Y99.887 E.01677
G1 X86.691 Y98.855 E.04602
G1 X85.988 Y98.687 E.02281
G1 X87.192 Y99.891 E.05368
G1 X86.66 Y99.895 E.01677
G1 X84.866 Y98.102 E.07994
M204 P1000
G1 E-2.24 F4200
;WIPE_START
G1 F7200
G1 X86.03 Y99.265 E-.912
;WIPE_END
G1 E-.048 F4200
G1 Z.4 F720
G1 X92.567 Y82.218 F9000
G1 Z.2 F720
G1 E3.2 F2400
M204 P800
G1 F1200
G1 X90.558 Y80.209 E.08955
G1 X90.017 Y80.204 E.01706
G1 X91.274 Y81.461 E.05605
G1 X90.816 Y81.313 E.01518
G1 X90.53 Y81.253 E.00922
G1 X89.475 Y80.198 E.04699
G1 X88.934 Y80.193 E.01706
G1 X89.849 Y81.108 E.0408
G1 X89.705 Y81.078 E.00464
G1 X89.251 Y81.046 E.01437
G1 X88.393 Y80.187 E.03825
G1 X87.851 Y80.182 E.01706
G1 X88.674 Y81.005 E.03667
G1 X88.341 Y80.981 E.01053
G1 X88.125 Y80.992 E.0068
G1 X87.31 Y80.177 E.03634
G1 X86.768 Y80.171 E.01706
G1 X87.615 Y81.018 E.03773
G1 X87.138 Y81.077 E.01514
G1 X86.227 Y80.166 E.04061
G1 X85.686 Y80.161 E.01706
G1 X86.673 Y81.148 E.04401
G1 X86.237 Y81.248 E.0141
G1 X85.144 Y80.155 E.04871
G1 X84.603 Y80.15 E.01706
G1 X85.818 Y81.365 E.05417
G1 X85.41 Y81.492 E.01349
G1 X84.061 Y80.144 E.06008
G1 X83.52 Y80.139 E.01706
G1 X85.024 Y81.643 E.06701
G1 X84.647 Y81.801 E.0129
G1 X82.979 Y80.134 E.07433
G1 X82.437 Y80.128 E.01706
G1 X84.295 Y81.986 E.08282
G1 X83.944 Y82.171 E.01251
G1 X81.896 Y80.123 E.0913
G1 X81.371 Y80.118 E.01655
G1 X83.593 Y82.356 E.09942
G1 X83.298 Y82.597 E.012
G1 X81.081 Y80.38 E.09883
G1 X81.004 Y80.479 E.00396
G1 X80.861 Y80.696 E.00819
G1 X83.143 Y82.978 E.10171
G1 X83.123 Y83.081 E.00329
G1 X83.123 Y83.494 E.01302
G1 X80.649 Y81.02 E.11027
G1 X80.436 Y81.343 E.0122
G1 X83.086 Y83.993 E.1181
G1 X83.084 Y84.527 E.01682
G1 X80.224 Y81.667 E.12745
G1 X80.171 Y81.864 E.00644
G1 X80.056 Y82.035 E.00648
G1 X83.084 Y85.063 E.13496
G1 X83.084 Y85.599 E.01689
G1 X79.87 Y82.385 E.14324
G1 X79.704 Y82.755 E.01278
G1 X83.084 Y86.135 E.15063
G1 X83.084 Y86.671 E.01689
G1 X79.538 Y83.125 E.15802
G1 X79.372 Y83.495 E.01278
G1 X83.084 Y87.207 E.16542
G1 X83.084 Y87.743 E.01689
G1 X79.218 Y83.877 E.1723
G1 X79.075 Y84.27 E.01318
G1 X83.084 Y88.279 E.17867
G1 X83.084 Y88.815 E.01689
G1 X78.966 Y84.697 E.18354
G1 X78.896 Y84.856 E.00546
G1 X78.859 Y85.126 E.00861
G1 X83.084 Y89.351 E.18829
G1 X83.084 Y89.887 E.01689
G1 X78.716 Y85.519 E.19466
G1 X78.608 Y85.947 E.01392
G1 X83.084 Y90.423 E.19946
G1 X83.084 Y90.959 E.01689
G1 X78.511 Y86.386 E.20381
G1 X78.413 Y86.824 E.01416
G1 X83.084 Y91.495 E.20816
G1 X83.084 Y92.031 E.01689
G1 X78.349 Y87.296 E.21104
G1 X78.285 Y87.768 E.01501
G1 X83.084 Y92.567 E.21389
G1 X83.084 Y93.103 E.01689
G1 X78.221 Y88.241 E.21671
G1 X78.187 Y88.742 E.01585
G1 X83.084 Y93.639 E.21824
G1 X83.084 Y94.175 E.01689
G1 X78.158 Y89.25 E.21952
G1 X78.147 Y89.774 E.01654
G1 X83.084 Y94.711 E.22002
G1 X83.084 Y95.247 E.01689
M73 P6 R21
G1 X78.175 Y90.338 E.21877
G1 X78.204 Y90.904 E.01784
G1 X83.123 Y95.822 E.2192
G1 X83.123 Y96.358 E.01689
G1 X78.234 Y91.469 E.21789
G1 X78.274 Y92.046 E.01822
G1 X83.124 Y96.895 E.21614
G1 X83.159 Y97.129 E.00745
G1 X83.298 Y97.4 E.00959
G1 X83.548 Y97.615 E.01041
G1 X84.211 Y97.982 E.02387
G1 X86.128 Y99.899 E.08544
G1 X85.596 Y99.903 E.01677
G1 X78.359 Y92.666 E.32255
G1 X78.475 Y93.318 E.02086
G1 X85.064 Y99.907 E.29368
G1 X84.527 Y99.906 E.01691
G1 X78.59 Y93.97 E.2646
G1 X78.63 Y94.196 E.00725
G1 X78.764 Y94.68 E.01581
G1 X83.989 Y99.905 E.23287
G1 X83.452 Y99.903 E.01695
