; generated by PrusaSlicer 2.5.0+win64 on 2022-09-25 at 15:42:37 UTC


;
;

;
;
; 

; external perimeters extrusion width = 0.45mm
; perimeters extrusion width = 0.45mm
; infill extrusion width = 0.45mm
; solid infill extrusion width = 0.45mm
; top infill extrusion width = 0.40mm
; first layer extrusion width = 0.42mm

M73 P0 R27
M201 X2500 Y2500 Z400 E5000 ; sets maximum accelerations, mm/sec^2
M203 X180 Y180 Z12 E80 ; sets maximum feedrates, mm / sec
M204 P1250 R1250 T2500 ; sets acceleration (P, T) and retract acceleration (R), mm/sec^2
M205 X8.00 Y8.00 Z2.00 E10.00 ; sets the jerk limits, mm/sec
M205 S0 T0 ; sets the minimum extruding and travel feed rate, mm/sec
M107
;TYPE:Custom
M862.3 P "MINI" ; printer model check
G90 ; use absolute coordinates
M83 ; extruder relative mode
M104 S170 ; set extruder temp for bed leveling
M140 S60 ; set bed temp
M109 R170 ; wait for bed leveling temp
M190 S60 ; wait for bed temp
M204 T1250 ; set travel acceleration
G28 ; home all without mesh bed level
G29 ; mesh bed leveling 
M204 T2500 ; restore travel acceleration
M104 S215 ; set extruder temp
G92 E0
G1 Y-2 X179 F2400
G1 Z3 F720
M109 S215 ; wait for extruder temp

; intro line
M73 P0 R26
G1 X170 F1000
G1 Z0.2 F720
G1 X110 E8 F900
G1 X40 E10 F700
G92 E0

M221 S95 ; set flow
G21 ; set units to millimeters
G90 ; use absolute coordinates
M83 ; use relative distances for extrusion
M900 K0.2 ; Filament gcode LA 1.5
; ; Filament gcode LA 1.0
M107
;LAYER_CHANGE
;Z:0.2
;HEIGHT:0.2
;BEFORE_LAYER_CHANGE
G92 E0.0
;0.2


G1 E-3.2 F4200
G1 Z.2 F720
;AFTER_LAYER_CHANGE
;0.2
G1 Z.4
G1 X80.371 Y69.738 F9000
G1 Z.2 F720
M73 P1 R26
G1 E3.2 F2400
M204 P800
;TYPE:Skirt/Brim
;WIDTH:0.42
G1 F1200
G1 X81.812 Y68.219 E.06565
G1 X83.484 Y66.984 E.06519
G1 X84.93 Y66.212 E.0514
G1 X86.422 Y65.652 E.04995
G1 X88.467 Y65.224 E.06552
G1 X89.834 Y65.129 E.04296
G1 X91.517 Y65.223 E.05284
G1 X93.5 Y65.629 E.06346
G1 X95.07 Y66.212 E.05252
G1 X96.687 Y67.085 E.05762
G1 X98.157 Y68.192 E.0577
G1 X99.393 Y69.44 E.05509
G1 X100.469 Y70.899 E.05684
G1 X101.26 Y72.367 E.05228
G1 X101.896 Y74.085 E.05745
G1 X102.271 Y75.887 E.05769
G1 X102.377 Y77.5 E.05068
G1 X102.374 Y102.62 E.78763
G1 X102.26 Y104.195 E.04951
G1 X101.96 Y105.653 E.04668
G1 X101.274 Y107.608 E.06494
G1 X100.272 Y109.395 E.06424
G1 X99.299 Y110.666 E.05019
G1 X98.301 Y111.673 E.04445
G1 X96.692 Y112.912 E.06367
G1 X94.842 Y113.883 E.06552
G1 X93.437 Y114.39 E.04682
G1 X91.921 Y114.724 E.04868
G1 X89.833 Y114.874 E.06562
G1 X88.23 Y114.75 E.05041
G1 X86.214 Y114.276 E.06494
G1 X84.818 Y113.74 E.04689
G1 X83.665 Y113.118 E.04107
G1 X82.117 Y112.034 E.05926
G1 X80.72 Y110.686 E.06087
G1 X79.62 Y109.241 E.05693
G1 X78.743 Y107.645 E.05711
G1 X78.142 Y106.045 E.05358
G1 X77.75 Y104.266 E.05713
G1 X77.623 Y102.5 E.05551
G1 X77.626 Y77.377 E.78771
G1 X77.723 Y75.928 E.04553
G1 X78.013 Y74.445 E.04738
G1 X78.728 Y72.391 E.06819
G1 X79.494 Y70.958 E.05097
G1 X80.336 Y69.787 E.04521
M204 P1000
; printing object general_purpose_hook.STL id:0 copy 0
G1 E-2.24 F4200
;WIPE_START
G1 F7200
G1 X81.464 Y68.588 E-.912
;WIPE_END
G1 E-.048 F4200
G1 Z.4 F720
G1 X89.999 Y99.468 F9000
G1 Z.2 F720
G1 E3.2 F2400
M204 P800
;TYPE:Perimeter
;WIDTH:0.419999
G1 F1200
G1 X90.576 Y99.519 E.01815
G1 X91.085 Y99.664 E.01659
G1 X91.561 Y99.896 E.01659
G1 X91.989 Y100.206 E.01659
G1 X92.357 Y100.586 E.01659
G1 X92.654 Y101.025 E.01659
G1 X92.87 Y101.508 E.01659
G1 X92.998 Y102.021 E.01659
G1 X93.036 Y102.541 E.01634
G1 X92.987 Y103.05 E.01603
G1 X92.853 Y103.543 E.01603
G1 X92.637 Y104.007 E.01605
G1 X92.347 Y104.428 E.01605
G1 X91.957 Y104.818 E.01729
G1 X91.507 Y105.137 E.01728
G1 X91.044 Y105.353 E.01603
G1 X90.55 Y105.487 E.01603
G1 X90.049 Y105.536 E.01579
G1 X89.521 Y105.498 E.01659
G1 X89.008 Y105.37 E.01659
G1 X88.525 Y105.154 E.01659
G1 X88.086 Y104.857 E.01659
G1 X87.706 Y104.489 E.01659
G1 X87.363 Y104.007 E.01855
G1 X87.147 Y103.543 E.01605
G1 X87.013 Y103.049 E.01605
G1 X86.964 Y102.549 E.01575
G1 X87.011 Y101.982 E.01785
G1 X87.164 Y101.415 E.0184
G1 X87.396 Y100.939 E.01659
G1 X87.706 Y100.511 E.01659
G1 X88.086 Y100.143 E.01659
G1 X88.525 Y99.846 E.01659
G1 X89.015 Y99.629 E.01682
G1 X89.511 Y99.504 E.01603
G1 X89.939 Y99.472 E.01346
M204 P1000
G1 X90.081 Y99.846 F9000
M204 P800
;TYPE:External perimeter
G1 F1200
G1 X90.478 Y99.883 E.01249
G1 X90.925 Y100.006 E.01454
G1 X91.344 Y100.204 E.01454
G1 X91.722 Y100.473 E.01454
G1 X92.048 Y100.803 E.01454
G1 X92.312 Y101.184 E.01454
G1 X92.505 Y101.606 E.01454
G1 X92.623 Y102.054 E.01454
G1 X92.66 Y102.516 E.01454
G1 X92.617 Y102.978 E.01454
G1 X92.426 Y103.571 E.01954
G1 X92.296 Y103.844 E.00948
G1 X92.025 Y104.224 E.01462
G1 X91.67 Y104.568 E.0155
G1 X91.316 Y104.812 E.01348
G1 X90.842 Y105.019 E.01623
G1 X90.446 Y105.123 E.01283
G1 X89.984 Y105.16 E.01454
G1 X89.522 Y105.117 E.01454
G1 X88.919 Y104.921 E.01987
G1 X88.656 Y104.796 E.00915
G1 X88.278 Y104.527 E.01454
G1 X87.965 Y104.214 E.01387
G1 X87.688 Y103.816 E.01521
G1 X87.478 Y103.331 E.01656
G1 X87.377 Y102.946 E.0125
G1 X87.34 Y102.481 E.01462
G1 X87.392 Y101.989 E.0155
G1 X87.506 Y101.575 E.01349
G1 X87.704 Y101.156 E.01454
G1 X87.973 Y100.778 E.01454
G1 X88.303 Y100.452 E.01454
G1 X88.684 Y100.188 E.01454
G1 X89.108 Y99.994 E.01462
G1 X89.588 Y99.875 E.0155
G1 X90.022 Y99.84 E.01365
M204 P1000
G1 X90.285 Y99.503 F9000
G1 E-2.24 F4200
;WIPE_START
G1 F7200
G1 X90.478 Y99.883 E-.25409
G1 X90.925 Y100.006 E-.25696
G1 X91.344 Y100.204 E-.25697
G1 X91.556 Y100.355 E-.14398
;WIPE_END
G1 E-.048 F4200
G1 Z.4 F720
G1 X91.197 Y68.375 F9000
G1 Z.2 F720
G1 E3.2 F2400
M204 P800
;TYPE:Perimeter
G1 F1200
G1 X91.322 Y68.384 E.00395
G1 X92.623 Y68.671 E.04177
G1 X93.828 Y69.124 E.04037
G1 X95.01 Y69.771 E.04225
G1 X96.056 Y70.56 E.04107
G1 X97.002 Y71.515 E.04215
G1 X97.796 Y72.595 E.04204
G1 X98.415 Y73.753 E.04115
G1 X98.863 Y74.992 E.04132
G1 X99.134 Y76.307 E.04208
G1 X99.213 Y77.824 E.04764
G1 X99.213 Y102.474 E.77287
G1 X99.115 Y103.827 E.04255
G1 X98.837 Y105.099 E.0408
G1 X98.381 Y106.322 E.04093
G1 X97.744 Y107.488 E.04167
G1 X96.962 Y108.531 E.04088
G1 X96.041 Y109.453 E.04085
G1 X94.978 Y110.25 E.04167
G1 X93.832 Y110.876 E.04095
G1 X92.613 Y111.332 E.04078
G1 X91.313 Y111.617 E.04175
G1 X89.986 Y111.711 E.04169
G1 X88.689 Y111.617 E.04078
G1 X87.387 Y111.332 E.0418
G1 X86.168 Y110.876 E.0408
G1 X85.049 Y110.265 E.03995
G1 X83.979 Y109.47 E.04181
G1 X83.039 Y108.532 E.04164
G1 X82.255 Y107.487 E.04096
G1 X81.619 Y106.322 E.04162
G1 X81.163 Y105.099 E.04091
G1 X80.881 Y103.8 E.04167
G1 X80.787 Y102.474 E.04168
G1 X80.787 Y77.524 E.78228
G1 X80.866 Y76.307 E.03826
G1 X81.13 Y75.018 E.04123
G1 X81.585 Y73.754 E.04211
G1 X82.219 Y72.571 E.04208
G1 X82.998 Y71.515 E.04115
G1 X83.923 Y70.578 E.04128
G1 X84.991 Y69.77 E.04198
G1 X86.146 Y69.134 E.04134
G1 X87.374 Y68.671 E.04116
G1 X88.682 Y68.384 E.04198
G1 X90.001 Y68.289 E.04147
G1 X91.137 Y68.371 E.0357
M204 P1000
G1 X91.224 Y67.999 F9000
M204 P800
;TYPE:External perimeter
G1 F1200
G1 X91.377 Y68.01 E.00481
G1 X92.731 Y68.308 E.04348
G1 X93.986 Y68.78 E.04205
G1 X95.215 Y69.453 E.04395
G1 X96.304 Y70.276 E.04278
G1 X97.289 Y71.27 E.04387
G1 X98.116 Y72.394 E.04376
G1 X98.76 Y73.599 E.04285
G1 X99.227 Y74.89 E.04303
G1 X99.508 Y76.256 E.04375
G1 X99.59 Y77.824 E.04922
G1 X99.59 Y102.487 E.7733
G1 X99.489 Y103.881 E.04382
M73 P2 R26
G1 X99.2 Y105.205 E.04249
G1 X98.725 Y106.479 E.04261
G1 X98.062 Y107.692 E.04337
G1 X97.248 Y108.779 E.04256
G1 X96.289 Y109.739 E.04254
G1 X95.182 Y110.568 E.04337
G1 X93.989 Y111.22 E.04263
G1 X92.72 Y111.695 E.04246
G1 X91.367 Y111.991 E.04345
G1 X89.986 Y112.089 E.0434
G1 X88.635 Y111.991 E.04248
G1 X87.28 Y111.695 E.04349
G1 X86.01 Y111.22 E.04249
G1 X84.846 Y110.584 E.04161
G1 X83.732 Y109.757 E.04349
G1 X82.753 Y108.78 E.04336
G1 X81.938 Y107.691 E.04266
G1 X81.275 Y106.479 E.04332
G1 X80.8 Y105.205 E.04261
G1 X80.507 Y103.854 E.04337
G1 X80.41 Y102.487 E.04294
G1 X80.41 Y77.512 E.78309
G1 X80.492 Y76.256 E.03946
G1 X80.766 Y74.916 E.04289
G1 X81.239 Y73.601 E.04383
G1 X81.899 Y72.369 E.0438
G1 X82.711 Y71.27 E.04285
G1 X83.674 Y70.294 E.04299
G1 X84.785 Y69.453 E.04369
G1 X85.987 Y68.791 E.04305
G1 X87.266 Y68.309 E.04286
G1 X88.627 Y68.01 E.04369
G1 X90.001 Y67.911 E.04318
G1 X91.164 Y67.995 E.03655
M204 P1000
G1 X91.294 Y68.135 F9000
G1 E-2.24 F4200
;WIPE_START
G1 F7200
G1 X91.377 Y68.01 E-.11826
G1 X92.731 Y68.308 E-.76848
G1 X92.774 Y68.324 E-.02526
;WIPE_END
G1 E-.048 F4200
G1 Z.4 F720
G1 X97.561 Y72.466 F9000
G1 Z.2 F720
G1 E3.2 F2400
M204 P800
;TYPE:Solid infill
;WIDTH:0.420454
G1 F1200
G1 X95.868 Y70.773 E.07517
G1 X94.856 Y70.009 E.03979
G1 X94.224 Y69.663 E.02264
G1 X97.842 Y73.281 E.16064
G1 X98.156 Y73.868 E.0209
G1 X98.303 Y74.276 E.01361
G1 X93.227 Y69.2 E.22537
G1 X92.543 Y68.942 E.02293
G1 X92.405 Y68.912 E.00443
G1 X98.597 Y75.104 E.2749
G1 X98.736 Y75.776 E.02155
G1 X91.721 Y68.761 E.31144
G1 X91.282 Y68.665 E.01411
G1 X91.075 Y68.65 E.00649
G1 X98.858 Y76.433 E.34554
G1 X98.896 Y77.004 E.01797
G1 X90.5 Y68.608 E.37273
G1 X89.935 Y68.577 E.01777
G1 X98.93 Y77.573 E.39935
G1 X98.93 Y78.107 E.01676
G1 X89.437 Y68.613 E.42146
G1 X88.938 Y68.649 E.01568
G1 X98.93 Y78.64 E.44358
G1 X98.93 Y79.174 E.01676
G1 X88.475 Y68.719 E.46418
G1 X88.037 Y68.815 E.01407
G1 X98.93 Y79.708 E.48361
G1 X98.93 Y80.242 E.01676
G1 X87.599 Y68.911 E.50304
G1 X87.455 Y68.943 E.00465
G1 X87.195 Y69.041 E.00871
G1 X98.93 Y80.776 E.52098
G1 X98.93 Y81.31 E.01676
G1 X86.807 Y69.187 E.5382
G1 X86.419 Y69.333 E.01301
G1 X98.93 Y81.844 E.55541
G1 X98.93 Y82.378 E.01676
G1 X86.058 Y69.505 E.57147
G1 X85.713 Y69.695 E.01234
G1 X98.93 Y82.912 E.58676
G1 X98.93 Y83.446 E.01676
M73 P3 R26
G1 X85.369 Y69.885 E.60204
G1 X85.145 Y70.008 E.00804
G1 X85.039 Y70.088 E.00417
G1 X98.93 Y83.98 E.6167
G1 X98.93 Y84.514 E.01676
G1 X84.735 Y70.318 E.6302
G1 X84.431 Y70.548 E.01196
G1 X98.93 Y85.047 E.64369
G1 X98.93 Y85.581 E.01676
G1 X84.127 Y70.778 E.65718
G1 X83.86 Y71.045 E.01185
G1 X98.93 Y86.115 E.66905
G1 X98.93 Y86.649 E.01676
G1 X83.594 Y71.314 E.68083
G1 X83.329 Y71.582 E.01185
G1 X98.93 Y87.183 E.6926
G1 X98.93 Y87.717 E.01676
G1 X83.086 Y71.873 E.70341
G1 X82.859 Y72.18 E.01199
G1 X98.93 Y88.251 E.71347
G1 X98.93 Y88.785 E.01676
G1 X82.632 Y72.487 E.72354
G1 X82.415 Y72.804 E.01205
G1 X98.93 Y89.319 E.73318
G1 X98.93 Y89.853 E.01676
G1 X82.229 Y73.151 E.74145
G1 X82.043 Y73.499 E.01238
M73 P3 R25
G1 X98.93 Y90.387 E.74972
G1 X98.93 Y90.92 E.01676
M73 P4 R25
G1 X81.856 Y73.847 E.75799
G1 X81.712 Y74.236 E.01304
G1 X98.93 Y91.454 E.7644
G1 X98.93 Y91.988 E.01676
G1 X81.571 Y74.629 E.77067
G1 X81.429 Y75.022 E.0131
G1 X98.93 Y92.522 E.77694
G1 X98.93 Y93.056 E.01676
G1 X81.329 Y75.455 E.78139
G1 X81.239 Y75.898 E.0142
G1 X98.93 Y93.59 E.78542
G1 X98.93 Y94.124 E.01676
G1 X81.148 Y76.342 E.78944
G1 X81.115 Y76.843 E.01576
G1 X98.93 Y94.658 E.79091
G1 X98.93 Y95.192 E.01676
G1 X81.082 Y77.344 E.79236
G1 X81.07 Y77.865 E.01638
G1 X98.93 Y95.726 E.79291
G1 X98.93 Y96.26 E.01676
G1 X81.07 Y78.399 E.79291
G1 X81.07 Y78.933 E.01676
G1 X98.93 Y96.794 E.79291
G1 X98.93 Y97.327 E.01676
G1 X81.07 Y79.467 E.79291
G1 X81.07 Y80.001 E.01676
M73 P5 R25
G1 X98.93 Y97.861 E.79291
G1 X98.93 Y98.395 E.01676
G1 X81.07 Y80.535 E.79291
G1 X81.07 Y81.069 E.01676
G1 X98.93 Y98.929 E.79291
G1 X98.93 Y99.463 E.01676
G1 X81.07 Y81.603 E.79291
G1 X81.07 Y82.137 E.01676
G1 X98.93 Y99.997 E.79291
G1 X98.93 Y100.531 E.01676
G1 X81.07 Y82.671 E.79291
G1 X81.07 Y83.205 E.01676
G1 X98.93 Y101.065 E.79291
G1 X98.93 Y101.599 E.01676
G1 X81.07 Y83.738 E.79291
G1 X81.07 Y84.272 E.01676
G1 X98.93 Y102.133 E.79291
G1 X98.916 Y102.653 E.01633
G1 X81.07 Y84.806 E.7923
G1 X81.07 Y85.34 E.01676
G1 X98.88 Y103.151 E.79069
G1 X98.844 Y103.648 E.01567
G1 X81.07 Y85.874 E.78909
G1 X81.07 Y86.408 E.01676
M73 P6 R25
G1 X98.765 Y104.103 E.78557
G1 X98.669 Y104.541 E.01408
G1 X81.07 Y86.942 E.78132
G1 X81.07 Y87.476 E.01676
G1 X98.574 Y104.98 E.77708
G1 X98.433 Y105.373 E.01311
G1 X81.07 Y88.01 E.77083
G1 X81.07 Y88.544 E.01676
G1 X98.288 Y105.762 E.7644
G1 X98.143 Y106.151 E.01303
G1 X81.07 Y89.078 E.75796
G1 X81.07 Y89.612 E.01676
G1 X90.727 Y99.269 E.42874
G1 X90.573 Y99.229 E.00499
G1 X90.12 Y99.196 E.01427
G1 X81.07 Y90.145 E.40178
G1 X81.07 Y90.679 E.01676
G1 X89.603 Y99.212 E.37883
G1 X89.464 Y99.225 E.00438
G1 X89.158 Y99.302 E.0099
G1 X81.07 Y91.213 E.35908
G1 X81.07 Y91.747 E.01676
G1 X88.758 Y99.435 E.34131
G1 X88.389 Y99.6 E.01269
G1 X81.07 Y92.281 E.32492
G1 X81.07 Y92.815 E.01676
G1 X88.069 Y99.814 E.31072
G1 X87.919 Y99.915 E.00567
G1 X87.774 Y100.053 E.00629
G1 X81.07 Y93.349 E.29765
G1 X81.07 Y93.883 E.01676
G1 X87.502 Y100.315 E.28555
G1 X87.276 Y100.623 E.01199
G1 X81.07 Y94.417 E.27554
G1 X81.07 Y94.951 E.01676
G1 X87.075 Y100.956 E.2666
G1 X86.901 Y101.316 E.01255
G1 X81.07 Y95.485 E.25887
G1 X81.07 Y96.019 E.01676
G1 X86.78 Y101.729 E.25352
G1 X86.753 Y101.824 E.00312
G1 X86.711 Y102.193 E.01166
G1 X81.07 Y96.552 E.25043
G1 X81.07 Y97.086 E.01676
G1 X86.701 Y102.717 E.24999
G1 X86.735 Y103.106 E.01224
G1 X86.803 Y103.353 E.00804
G1 X80.9 Y97.451 E.26203
M204 P1000
G1 E-2.24 F4200
;WIPE_START
G1 F7200
M73 P7 R25
G1 X82.064 Y98.614 E-.912
;WIPE_END
G1 E-.048 F4200
G1 Z.4 F720
G1 X92.983 Y101.525 F9000
G1 Z.2 F720
G1 E3.2 F2400
M204 P800
G1 F1200
G1 X97.96 Y106.502 E.22096
G1 X97.772 Y106.847 E.01235
G1 X93.312 Y102.387 E.19799
G1 X93.321 Y102.471 E.00263
G1 X93.283 Y102.893 E.01331
G1 X97.583 Y107.192 E.19087
G1 X97.505 Y107.335 E.00509
G1 X97.371 Y107.514 E.00704
G1 X93.2 Y103.343 E.18515
G1 X93.119 Y103.642 E.0097
G1 X93.07 Y103.747 E.00365
G1 X97.142 Y107.819 E.18079
G1 X96.913 Y108.125 E.01197
G1 X92.9 Y104.112 E.17816
G1 X92.683 Y104.428 E.01205
G1 X96.674 Y108.419 E.17721
G1 X96.407 Y108.686 E.01185
G1 X92.451 Y104.73 E.17565
G1 X92.176 Y104.989 E.01186
G1 X96.141 Y108.954 E.176
G1 X95.874 Y109.221 E.01185
G1 X91.878 Y105.225 E.17739
G1 X91.549 Y105.43 E.01217
G1 X95.571 Y109.452 E.17856
G1 X95.266 Y109.681 E.01197
G1 X91.184 Y105.599 E.18121
G1 X90.77 Y105.718 E.01355
G1 X94.961 Y109.909 E.18607
G1 X94.824 Y110.012 E.00536
G1 X94.634 Y110.116 E.00683
G1 X90.31 Y105.792 E.19196
G1 X89.998 Y105.821 E.00984
G1 X89.785 Y105.801 E.00671
G1 X94.288 Y110.305 E.19993
G1 X93.943 Y110.493 E.01235
G1 X88.895 Y105.445 E.22411
M204 P1000
G1 E-2.24 F4200
;WIPE_START
G1 F7200
G1 X90.059 Y106.609 E-.912
;WIPE_END
G1 E-.048 F4200
G1 Z.4 F720
G1 X93.715 Y110.799 F9000
G1 Z.2 F720
G1 E3.2 F2400
M204 P800
G1 F1200
G1 X81.07 Y98.154 E.56138
G1 X81.07 Y98.688 E.01676
G1 X93.195 Y110.813 E.53827
G1 X92.806 Y110.958 E.01302
G1 X81.07 Y99.222 E.52102
G1 X81.07 Y99.756 E.01676
G1 X92.403 Y111.089 E.50312
G1 X91.965 Y111.185 E.01407
G1 X81.07 Y100.29 E.48368
G1 X81.07 Y100.824 E.01676
M73 P7 R24
G1 X91.527 Y111.281 E.46424
G1 X91.272 Y111.336 E.00818
G1 X91.063 Y111.351 E.00657
G1 X81.07 Y101.358 E.44367
G1 X81.07 Y101.892 E.01676
G1 X90.565 Y111.386 E.42153
G1 X90.066 Y111.422 E.01569
G1 X81.07 Y102.425 E.39939
G1 X81.108 Y102.997 E.01799
G1 X89.503 Y111.392 E.37271
G1 X88.928 Y111.351 E.01811
G1 X81.149 Y103.572 E.34535
G1 X81.162 Y103.76 E.00591
G1 X81.261 Y104.219 E.01474
G1 X88.281 Y111.238 E.31164
G1 X87.597 Y111.089 E.02197
G1 X81.41 Y104.901 E.27472
G1 X81.435 Y105.019 E.0038
G1 X81.698 Y105.723 E.02357
G1 X86.777 Y110.802 E.22549
G1 X86.286 Y110.618 E.01647
G1 X85.787 Y110.346 E.01784
G1 X82.157 Y106.716 E.16116
G1 X82.494 Y107.333 E.02209
M73 P8 R24
G1 X83.252 Y108.345 E.03969
G1 X84.98 Y110.073 E.0767
M204 P1000
; stop printing object general_purpose_hook.STL id:0 copy 0
M106 S84.15
;LAYER_CHANGE
;Z:0.4
;HEIGHT:0.2
;BEFORE_LAYER_CHANGE
G92 E0.0
;0.4


G1 E-2.24 F4200
;WIPE_START
G1 F7200
G1 X83.816 Y108.909 E-.912
;WIPE_END
G1 E-.048 F4200
G1 Z.4 F720
;AFTER_LAYER_CHANGE
;0.4
M104 S210 ; set temperature
G1 Z.6
G1 X81.435 Y111.377 F9000
G1 Z.4 F720
G1 E3.2 F2400
;TYPE:Skirt/Brim
;WIDTH:0.42
G1 X80.72 Y110.686 E.03119
G1 X79.62 Y109.241 E.05693
G1 X78.743 Y107.645 E.05711
G1 X78.142 Y106.045 E.05358
G1 X77.75 Y104.266 E.05713
G1 X77.623 Y102.5 E.05551
